/* XPM */
static char * base_texture_xpm[] = {
"64 64 1707 2",
"  	c #2A2926",
". 	c #2A2925",
"+ 	c #2B2925",
"@ 	c #2D2B26",
"# 	c #2F2E29",
"$ 	c #302E2A",
"% 	c #31302C",
"& 	c #2E2D29",
"* 	c #2F2E2A",
"= 	c #33322D",
"- 	c #393834",
"; 	c #353531",
"> 	c #35332F",
", 	c #2F2D29",
"' 	c #34332F",
") 	c #31302B",
"! 	c #2E2C28",
"~ 	c #2C2B27",
"{ 	c #292924",
"] 	c #2A2924",
"^ 	c #302F2B",
"/ 	c #2D2C27",
"( 	c #2C2A26",
"_ 	c #292823",
": 	c #292824",
"< 	c #292923",
"[ 	c #32322D",
"} 	c #373733",
"| 	c #34342F",
"1 	c #393935",
"2 	c #3A3934",
"3 	c #3C3B36",
"4 	c #353430",
"5 	c #3B3A36",
"6 	c #363531",
"7 	c #363430",
"8 	c #292822",
"9 	c #2D2B27",
"0 	c #302F2A",
"a 	c #32312C",
"b 	c #33322E",
"c 	c #33312D",
"d 	c #312F2B",
"e 	c #2A2824",
"f 	c #2B2A26",
"g 	c #363530",
"h 	c #3A3935",
"i 	c #3B3B37",
"j 	c #3E3E3A",
"k 	c #41413D",
"l 	c #454641",
"m 	c #454541",
"n 	c #41423D",
"o 	c #403F3B",
"p 	c #3E3E39",
"q 	c #373632",
"r 	c #383733",
"s 	c #3C3B37",
"t 	c #3E3D38",
"u 	c #34322E",
"v 	c #2A2923",
"w 	c #2E2E29",
"x 	c #30302B",
"y 	c #40403C",
"z 	c #3D3C38",
"A 	c #383732",
"B 	c #34332E",
"C 	c #2E2C27",
"D 	c #2E2D28",
"E 	c #41403B",
"F 	c #43423E",
"G 	c #494944",
"H 	c #464642",
"I 	c #4A4B46",
"J 	c #474843",
"K 	c #44433F",
"L 	c #43433E",
"M 	c #41413C",
"N 	c #3E3D39",
"O 	c #454440",
"P 	c #363631",
"Q 	c #33332E",
"R 	c #3A3A35",
"S 	c #40403B",
"T 	c #42413C",
"U 	c #44443F",
"V 	c #484843",
"W 	c #4C4B47",
"X 	c #42413D",
"Y 	c #2B2A25",
"Z 	c #484841",
"` 	c #4F4F47",
" .	c #515143",
"..	c #5E5E55",
"+.	c #63635E",
"@.	c #6A6A65",
"#.	c #60615A",
"$.	c #51514B",
"%.	c #565652",
"&.	c #5E5D59",
"*.	c #5D5D59",
"=.	c #5F605A",
"-.	c #5C5C56",
";.	c #54554E",
">.	c #606056",
",.	c #67675E",
"'.	c #6A6A66",
").	c #61615C",
"!.	c #555550",
"~.	c #6D6D6A",
"{.	c #6B6C67",
"].	c #6F6E6A",
"^.	c #61605B",
"/.	c #62615C",
"(.	c #5E5E58",
"_.	c #56564F",
":.	c #5A5953",
"<.	c #53544F",
"[.	c #414139",
"}.	c #575750",
"|.	c #666661",
"1.	c #5B5C55",
"2.	c #5D5D58",
"3.	c #6B6A65",
"4.	c #71716C",
"5.	c #6E6E69",
"6.	c #5D5E57",
"7.	c #5B5B55",
"8.	c #5D5E52",
"9.	c #62625B",
"0.	c #6B6B66",
"a.	c #666762",
"b.	c #64645F",
"c.	c #656560",
"d.	c #60605B",
"e.	c #54544F",
"f.	c #4C4C47",
"g.	c #4C4D48",
"h.	c #47463E",
"i.	c #515149",
"j.	c #484842",
"k.	c #45453E",
"l.	c #43443D",
"m.	c #2D2C28",
"n.	c #595952",
"o.	c #55554D",
"p.	c #64655F",
"q.	c #6D6D68",
"r.	c #62635B",
"s.	c #56574B",
"t.	c #5F5F5A",
"u.	c #606058",
"v.	c #5A5C4A",
"w.	c #5D5D4E",
"x.	c #616153",
"y.	c #585949",
"z.	c #72716B",
"A.	c #878785",
"B.	c #82827F",
"C.	c #6D6D66",
"D.	c #696962",
"E.	c #797A76",
"F.	c #767673",
"G.	c #73736F",
"H.	c #71706B",
"I.	c #6E6D68",
"J.	c #5A5A51",
"K.	c #5B5A52",
"L.	c #757672",
"M.	c #5A5B53",
"N.	c #6A6964",
"O.	c #656660",
"P.	c #787975",
"Q.	c #73736E",
"R.	c #707168",
"S.	c #6D6F66",
"T.	c #74756F",
"U.	c #55544E",
"V.	c #4A4B43",
"W.	c #696A60",
"X.	c #797972",
"Y.	c #6D6C65",
"Z.	c #676863",
"`.	c #6E6F69",
" +	c #5E5D58",
".+	c #575852",
"++	c #4E4E48",
"@+	c #4D4D47",
"#+	c #4C4B40",
"$+	c #5B5C54",
"%+	c #585753",
"&+	c #54544E",
"*+	c #4D4E47",
"=+	c #3B3A34",
"-+	c #525243",
";+	c #4F5048",
">+	c #54544D",
",+	c #5A5B54",
"'+	c #62625C",
")+	c #5E5F5A",
"!+	c #5B5B52",
"~+	c #525345",
"{+	c #555650",
"]+	c #5E5F58",
"^+	c #62635F",
"/+	c #565749",
"(+	c #535543",
"_+	c #5F6055",
":+	c #5F5F59",
"<+	c #6B6A66",
"[+	c #6C6C68",
"}+	c #6E6E6A",
"|+	c #666660",
"1+	c #676761",
"2+	c #777773",
"3+	c #777874",
"4+	c #7E7F7A",
"5+	c #707068",
"6+	c #565647",
"7+	c #58574F",
"8+	c #61615B",
"9+	c #5D5C58",
"0+	c #53524B",
"a+	c #6F6F6B",
"b+	c #65665D",
"c+	c #696961",
"d+	c #626257",
"e+	c #58584E",
"f+	c #595B4F",
"g+	c #52524B",
"h+	c #51514D",
"i+	c #4E4D42",
"j+	c #606151",
"k+	c #656459",
"l+	c #636259",
"m+	c #686860",
"n+	c #63635D",
"o+	c #595852",
"p+	c #555450",
"q+	c #484943",
"r+	c #46473E",
"s+	c #494941",
"t+	c #4F4F44",
"u+	c #5A5A53",
"v+	c #4E4D48",
"w+	c #484741",
"x+	c #3B3B34",
"y+	c #57564C",
"z+	c #50504A",
"A+	c #565651",
"B+	c #5B5C57",
"C+	c #646560",
"D+	c #62625E",
"E+	c #52534A",
"F+	c #4D4F41",
"G+	c #4C4C46",
"H+	c #50514C",
"I+	c #595A52",
"J+	c #4E4F44",
"K+	c #555548",
"L+	c #55554E",
"M+	c #5E5E5A",
"N+	c #63625E",
"O+	c #65655D",
"P+	c #6D6C67",
"Q+	c #6C6C66",
"R+	c #6B6A64",
"S+	c #696B56",
"T+	c #545735",
"U+	c #5C5F40",
"V+	c #525241",
"W+	c #55554A",
"X+	c #4D4D46",
"Y+	c #6C6B66",
"Z+	c #696965",
"`+	c #616257",
" @	c #5A5B50",
".@	c #54554C",
"+@	c #4D4D45",
"@@	c #525344",
"#@	c #4E4F3E",
"$@	c #51524D",
"%@	c #595A4A",
"&@	c #5A5A4A",
"*@	c #575649",
"=@	c #5C5B52",
"-@	c #585952",
";@	c #51524A",
">@	c #4A4C44",
",@	c #484942",
"'@	c #4C4D45",
")@	c #46463F",
"!@	c #4E4E44",
"~@	c #5E5E57",
"{@	c #444440",
"]@	c #41403C",
"^@	c #3F3D38",
"/@	c #383833",
"(@	c #59594F",
"_@	c #50504C",
":@	c #565752",
"<@	c #595955",
"[@	c #5B5B56",
"}@	c #5A5A4D",
"|@	c #4C4D40",
"1@	c #4D4D3D",
"2@	c #46463E",
"3@	c #494846",
"4@	c #535452",
"5@	c #565754",
"6@	c #4E4E46",
"7@	c #5D5C56",
"8@	c #54534F",
"9@	c #50504B",
"0@	c #4B4C45",
"a@	c #5E5D55",
"b@	c #65645F",
"c@	c #686763",
"d@	c #5F6051",
"e@	c #55573B",
"f@	c #51523E",
"g@	c #505335",
"h@	c #51523F",
"i@	c #6A6A61",
"j@	c #4E4E47",
"k@	c #686864",
"l@	c #60615B",
"m@	c #4F523A",
"n@	c #525249",
"o@	c #4F4F49",
"p@	c #4B4C44",
"q@	c #585848",
"r@	c #5F5F53",
"s@	c #555547",
"t@	c #54534B",
"u@	c #505147",
"v@	c #505048",
"w@	c #484840",
"x@	c #4D4D49",
"y@	c #4C4C43",
"z@	c #52524A",
"A@	c #403F3A",
"B@	c #3D3D37",
"C@	c #3F3F3A",
"D@	c #373631",
"E@	c #44443C",
"F@	c #3E3E34",
"G@	c #3D3E35",
"H@	c #383A2E",
"I@	c #3F4134",
"J@	c #3F412E",
"K@	c #4C5030",
"L@	c #454832",
"M@	c #404134",
"N@	c #414431",
"O@	c #40442F",
"P@	c #3B3D32",
"Q@	c #43433C",
"R@	c #3E4035",
"S@	c #3F4038",
"T@	c #44443E",
"U@	c #424436",
"V@	c #3A3C26",
"W@	c #3C3E31",
"X@	c #323423",
"Y@	c #404429",
"Z@	c #404329",
"`@	c #333427",
" #	c #36372C",
".#	c #37382B",
"+#	c #323229",
"@#	c #38382F",
"##	c #3A3C2C",
"$#	c #4A4B45",
"%#	c #45463F",
"&#	c #44433E",
"*#	c #48493E",
"=#	c #484B37",
"-#	c #454928",
";#	c #494B36",
">#	c #47473F",
",#	c #404135",
"'#	c #484A35",
")#	c #3F4032",
"!#	c #3D3D32",
"~#	c #434338",
"{#	c #424238",
"]#	c #3E3E36",
"^#	c #393932",
"/#	c #3D3C36",
"(#	c #41403A",
"_#	c #3D3D36",
":#	c #3E402C",
"<#	c #424336",
"[#	c #34352B",
"}#	c #333328",
"|#	c #34342C",
"1#	c #393833",
"2#	c #35342F",
"3#	c #343430",
"4#	c #42423D",
"5#	c #4E4F49",
"6#	c #62625A",
"7#	c #64645A",
"8#	c #616444",
"9#	c #646749",
"0#	c #5C603E",
"a#	c #5F6247",
"b#	c #5E5F49",
"c#	c #505140",
"d#	c #49502A",
"e#	c #5C5F46",
"f#	c #595C47",
"g#	c #626450",
"h#	c #737372",
"i#	c #767675",
"j#	c #797979",
"k#	c #7A7B7A",
"l#	c #767674",
"m#	c #6D6E68",
"n#	c #606158",
"o#	c #454532",
"p#	c #6D6E63",
"q#	c #656760",
"r#	c #5F6058",
"s#	c #6C6E63",
"t#	c #6F7067",
"u#	c #6E6F67",
"v#	c #787974",
"w#	c #747673",
"x#	c #54544A",
"y#	c #515443",
"z#	c #6E6D6A",
"A#	c #71716D",
"B#	c #666663",
"C#	c #70706D",
"D#	c #666563",
"E#	c #646461",
"F#	c #636461",
"G#	c #51524E",
"H#	c #464742",
"I#	c #474938",
"J#	c #505049",
"K#	c #4D4E43",
"L#	c #434431",
"M#	c #4E4F41",
"N#	c #4B4D3A",
"O#	c #4B4C3D",
"P#	c #494A43",
"Q#	c #4A4A43",
"R#	c #383632",
"S#	c #32312D",
"T#	c #43433D",
"U#	c #45453F",
"V#	c #5A5A4F",
"W#	c #5E6247",
"X#	c #606444",
"Y#	c #595D37",
"Z#	c #56593C",
"`#	c #585C39",
" $	c #454537",
".$	c #45492B",
"+$	c #515246",
"@$	c #525539",
"#$	c #747475",
"$$	c #777879",
"%$	c #787876",
"&$	c #737370",
"*$	c #777877",
"=$	c #757676",
"-$	c #6B6D67",
";$	c #5C5E4C",
">$	c #53544A",
",$	c #6A6A67",
"'$	c #5E5E59",
")$	c #5A5B56",
"!$	c #6D6D6C",
"~$	c #757775",
"{$	c #737574",
"]$	c #7A7A79",
"^$	c #666765",
"/$	c #5D5D5B",
"($	c #4E5045",
"_$	c #70716D",
":$	c #6E6F6B",
"<$	c #60615D",
"[$	c #595A57",
"}$	c #61615E",
"|$	c #60605D",
"1$	c #5C5D5A",
"2$	c #4F4F4B",
"3$	c #4A4A46",
"4$	c #464641",
"5$	c #3F4232",
"6$	c #5A5B52",
"7$	c #555551",
"8$	c #494A41",
"9$	c #3A3C27",
"0$	c #3D3F27",
"a$	c #43462A",
"b$	c #4C4D3A",
"c$	c #484743",
"d$	c #32302C",
"e$	c #3F3F3B",
"f$	c #515048",
"g$	c #454540",
"h$	c #43443E",
"i$	c #5F6059",
"j$	c #5C5B59",
"k$	c #575854",
"l$	c #53534E",
"m$	c #494A3E",
"n$	c #46492D",
"o$	c #52543F",
"p$	c #525244",
"q$	c #656662",
"r$	c #6B6C6A",
"s$	c #6D6E6C",
"t$	c #6D6E69",
"u$	c #6D6E6A",
"v$	c #6A6B67",
"w$	c #666760",
"x$	c #626355",
"y$	c #585854",
"z$	c #585853",
"A$	c #646562",
"B$	c #686965",
"C$	c #686865",
"D$	c #656562",
"E$	c #575754",
"F$	c #4C4E3D",
"G$	c #686863",
"H$	c #626360",
"I$	c #5D5E58",
"J$	c #585954",
"K$	c #4B4B46",
"L$	c #3E3E38",
"M$	c #3A3B2C",
"N$	c #4F4F42",
"O$	c #4E4E4A",
"P$	c #45443E",
"Q$	c #3E3E35",
"R$	c #474A2C",
"S$	c #4E5131",
"T$	c #3C3A36",
"U$	c #484844",
"V$	c #4F4E48",
"W$	c #474842",
"X$	c #42423B",
"Y$	c #4D4D48",
"Z$	c #555651",
"`$	c #51514C",
" %	c #53534F",
".%	c #555652",
"+%	c #52524E",
"@%	c #424338",
"#%	c #43472F",
"$%	c #4D4E42",
"%%	c #50514B",
"&%	c #62625D",
"*%	c #5F5F5B",
"=%	c #63645F",
"-%	c #5F6155",
";%	c #4D4F3F",
">%	c #4A4A44",
",%	c #61615F",
"'%	c #60605F",
")%	c #585856",
"!%	c #50514E",
"~%	c #4C4D3E",
"{%	c #61625E",
"]%	c #53534D",
"^%	c #4C4B46",
"/%	c #3E3E37",
"(%	c #3E3F3A",
"_%	c #37382E",
":%	c #525247",
"<%	c #494845",
"[%	c #565551",
"}%	c #444437",
"|%	c #4A4A3E",
"1%	c #585953",
"2%	c #4E4D46",
"3%	c #4F4E49",
"4%	c #44443D",
"5%	c #494842",
"6%	c #4A4942",
"7%	c #51504B",
"8%	c #3E3F33",
"9%	c #464A2A",
"0%	c #585852",
"a%	c #5C5D56",
"b%	c #636460",
"c%	c #575B46",
"d%	c #4D4F3C",
"e%	c #535450",
"f%	c #575853",
"g%	c #545550",
"h%	c #53544E",
"i%	c #5B5C5A",
"j%	c #52524D",
"k%	c #545451",
"l%	c #4E4F4C",
"m%	c #3A3B2B",
"n%	c #4A4941",
"o%	c #474741",
"p%	c #3F3F38",
"q%	c #393933",
"r%	c #424339",
"s%	c #454536",
"t%	c #474642",
"u%	c #4B4B45",
"v%	c #4E4D47",
"w%	c #4E4E4B",
"x%	c #555552",
"y%	c #4A4A42",
"z%	c #3B3935",
"A%	c #4B4C47",
"B%	c #5B5C52",
"C%	c #474840",
"D%	c #434538",
"E%	c #4C4D41",
"F%	c #535346",
"G%	c #404235",
"H%	c #3D3E33",
"I%	c #464936",
"J%	c #555839",
"K%	c #48493C",
"L%	c #4E5046",
"M%	c #4C4D42",
"N%	c #4D4E45",
"O%	c #4D4E41",
"P%	c #515343",
"Q%	c #46483B",
"R%	c #3A3C2B",
"S%	c #3F4039",
"T%	c #3A3C33",
"U%	c #454836",
"V%	c #484A39",
"W%	c #4C4F43",
"X%	c #47483D",
"Y%	c #353925",
"Z%	c #55574C",
"`%	c #5A5C4F",
" &	c #4E5044",
".&	c #525348",
"+&	c #4E4F42",
"@&	c #585850",
"#&	c #4D4F3E",
"$&	c #4D4F3D",
"%&	c #474A37",
"&&	c #464831",
"*&	c #4D503E",
"=&	c #494B37",
"-&	c #4A4C3C",
";&	c #424435",
">&	c #515441",
",&	c #555843",
"'&	c #4B4C3E",
")&	c #494B39",
"!&	c #505145",
"~&	c #56574A",
"{&	c #58594A",
"]&	c #2F2F2A",
"^&	c #707069",
"/&	c #5C5D58",
"(&	c #565A3B",
"_&	c #55573E",
":&	c #5B5B59",
"<&	c #6A6B68",
"[&	c #505148",
"}&	c #535349",
"|&	c #585A53",
"1&	c #686866",
"2&	c #70706E",
"3&	c #656663",
"4&	c #53563C",
"5&	c #555648",
"6&	c #424335",
"7&	c #676764",
"8&	c #696966",
"9&	c #676865",
"0&	c #4D4F37",
"a&	c #4A4C3E",
"b&	c #464741",
"c&	c #46472E",
"d&	c #525448",
"e&	c #58584F",
"f&	c #4E513E",
"g&	c #494C3C",
"h&	c #4D4E48",
"i&	c #51534B",
"j&	c #565750",
"k&	c #676862",
"l&	c #595953",
"m&	c #565650",
"n&	c #494844",
"o&	c #555549",
"p&	c #4C4C42",
"q&	c #4A4B3C",
"r&	c #4B4C40",
"s&	c #52534F",
"t&	c #5D5E5A",
"u&	c #636360",
"v&	c #4E4F48",
"w&	c #45453B",
"x&	c #656561",
"y&	c #686966",
"z&	c #5A5B51",
"A&	c #505331",
"B&	c #505234",
"C&	c #404130",
"D&	c #61615D",
"E&	c #6A6A68",
"F&	c #4D4E3A",
"G&	c #4A4B3B",
"H&	c #4B4C3B",
"I&	c #45453C",
"J&	c #55564D",
"K&	c #60605C",
"L&	c #5A5A54",
"M&	c #4D4E49",
"N&	c #4E4E49",
"O&	c #4F5046",
"P&	c #504F4D",
"Q&	c #505144",
"R&	c #52524C",
"S&	c #505044",
"T&	c #47473B",
"U&	c #404039",
"V&	c #474740",
"W&	c #3F3F33",
"X&	c #47483F",
"Y&	c #4E4F43",
"Z&	c #494A3C",
"`&	c #48483D",
" *	c #4A4A3C",
".*	c #47473E",
"+*	c #494942",
"@*	c #414236",
"#*	c #575752",
"$*	c #5F605D",
"%*	c #56574E",
"&*	c #484932",
"**	c #404131",
"=*	c #5E5F5B",
"-*	c #595A54",
";*	c #4C4C41",
">*	c #46463B",
",*	c #5B5B58",
"'*	c #4F4F4A",
")*	c #454739",
"!*	c #4B4C46",
"~*	c #4B4B48",
"{*	c #494A3A",
"]*	c #4A4A45",
"^*	c #403E3A",
"/*	c #3B3B35",
"(*	c #3A3834",
"_*	c #484944",
":*	c #403F3D",
"<*	c #393936",
"[*	c #3F3E3A",
"}*	c #41413E",
"|*	c #40422D",
"1*	c #434336",
"2*	c #44453D",
"3*	c #43433A",
"4*	c #484941",
"5*	c #4A4B41",
"6*	c #4A4A41",
"7*	c #4B4E3C",
"8*	c #4F513B",
"9*	c #46463C",
"0*	c #46463A",
"a*	c #62625F",
"b*	c #595956",
"c*	c #565653",
"d*	c #4C4C45",
"e*	c #45463B",
"f*	c #444538",
"g*	c #383A2D",
"h*	c #57574C",
"i*	c #51524B",
"j*	c #4D4C45",
"k*	c #48483F",
"l*	c #464640",
"m*	c #565751",
"n*	c #545551",
"o*	c #565753",
"p*	c #4D4E46",
"q*	c #444438",
"r*	c #42423C",
"s*	c #44453C",
"t*	c #3D3C37",
"u*	c #3B3A32",
"v*	c #35362C",
"w*	c #32332A",
"x*	c #2C2C27",
"y*	c #4D522C",
"z*	c #3A3B33",
"A*	c #383931",
"B*	c #383730",
"C*	c #37392E",
"D*	c #3B3D28",
"E*	c #454927",
"F*	c #484C2B",
"G*	c #454735",
"H*	c #404231",
"I*	c #3C3D30",
"J*	c #393A29",
"K*	c #424331",
"L*	c #3F403B",
"M*	c #40413B",
"N*	c #414239",
"O*	c #3B3B36",
"P*	c #393934",
"Q*	c #383832",
"R*	c #33332D",
"S*	c #37362F",
"T*	c #3F4225",
"U*	c #3C3D2F",
"V*	c #33342D",
"W*	c #32332C",
"X*	c #34342D",
"Y*	c #34342E",
"Z*	c #393A32",
"`*	c #393931",
" =	c #3A3D2F",
".=	c #454640",
"+=	c #41423E",
"@=	c #3B3C35",
"#=	c #41423B",
"$=	c #42433B",
"%=	c #393A2E",
"&=	c #3E3F2D",
"*=	c #333525",
"==	c #414232",
"-=	c #32322A",
";=	c #3B3C33",
">=	c #43443C",
",=	c #6A6D58",
"'=	c #5E5E53",
")=	c #4A4A3D",
"!=	c #434232",
"~=	c #444435",
"{=	c #4E4F3F",
"]=	c #525449",
"^=	c #50514A",
"/=	c #46483C",
"(=	c #5D5E56",
"_=	c #50523E",
":=	c #565843",
"<=	c #58594D",
"[=	c #737470",
"}=	c #6F6F6A",
"|=	c #61625C",
"1=	c #585951",
"2=	c #565948",
"3=	c #65655F",
"4=	c #5C5D57",
"5=	c #595A53",
"6=	c #57584E",
"7=	c #515249",
"8=	c #55564F",
"9=	c #414235",
"0=	c #50524A",
"a=	c #676760",
"b=	c #4C4D43",
"c=	c #46473C",
"d=	c #5C5E4B",
"e=	c #535544",
"f=	c #48493F",
"g=	c #525343",
"h=	c #5B5D4E",
"i=	c #545740",
"j=	c #454837",
"k=	c #42433E",
"l=	c #42433C",
"m=	c #585A4C",
"n=	c #47473D",
"o=	c #434430",
"p=	c #484A31",
"q=	c #3C3E25",
"r=	c #49493F",
"s=	c #474745",
"t=	c #4A4B48",
"u=	c #4C4C44",
"v=	c #47493F",
"w=	c #4F504D",
"x=	c #5A5C58",
"y=	c #4A4B40",
"z=	c #4B4B40",
"A=	c #646563",
"B=	c #5C5C59",
"C=	c #5C5C5A",
"D=	c #4D4F49",
"E=	c #61625F",
"F=	c #575651",
"G=	c #595A56",
"H=	c #5B5B57",
"I=	c #4F504B",
"J=	c #3D3D34",
"K=	c #595A55",
"L=	c #494A47",
"M=	c #434440",
"N=	c #3A392F",
"O=	c #3F3F31",
"P=	c #3C3C35",
"Q=	c #383834",
"R=	c #434438",
"S=	c #454730",
"T=	c #3F403D",
"U=	c #3D3D38",
"V=	c #3F3F3C",
"W=	c #3C3C38",
"X=	c #43433F",
"Y=	c #454642",
"Z=	c #464644",
"`=	c #434332",
" -	c #494940",
".-	c #494A45",
"+-	c #464745",
"@-	c #454543",
"#-	c #4C4C49",
"$-	c #50524C",
"%-	c #3F4138",
"&-	c #4C4D47",
"*-	c #4F5049",
"=-	c #47483E",
"--	c #4D4E4A",
";-	c #4C4D46",
">-	c #595954",
",-	c #4D4C46",
"'-	c #464643",
")-	c #3D3D35",
"!-	c #484946",
"~-	c #4A4A48",
"{-	c #3E3F37",
"]-	c #36372D",
"^-	c #39392F",
"/-	c #404137",
"(-	c #3C3E29",
"_-	c #3F412C",
":-	c #3A3A34",
"<-	c #3C3C39",
"[-	c #3A3A36",
"}-	c #3D3E3A",
"|-	c #474742",
"1-	c #54564D",
"2-	c #404336",
"3-	c #4D4E4B",
"4-	c #50504F",
"5-	c #4B4C49",
"6-	c #4A4C42",
"7-	c #545350",
"8-	c #52534D",
"9-	c #4C4C48",
"0-	c #4B4A44",
"a-	c #494943",
"b-	c #3D3E30",
"c-	c #484846",
"d-	c #4C4D4A",
"e-	c #3A3933",
"f-	c #3A3A33",
"g-	c #43433B",
"h-	c #43423F",
"i-	c #3C3D28",
"j-	c #3C3E2D",
"k-	c #3A3B30",
"l-	c #3A3B36",
"m-	c #383835",
"n-	c #373835",
"o-	c #333330",
"p-	c #3E3F38",
"q-	c #4C4E41",
"r-	c #46493A",
"s-	c #4B4B47",
"t-	c #4B4A46",
"u-	c #494A42",
"v-	c #44453F",
"w-	c #42413B",
"x-	c #41433B",
"y-	c #41413B",
"z-	c #3C3B34",
"A-	c #3C3C37",
"B-	c #3A3A31",
"C-	c #3C3B33",
"D-	c #333426",
"E-	c #4B4B49",
"F-	c #434340",
"G-	c #3C3B35",
"H-	c #3E3E30",
"I-	c #3D3D31",
"J-	c #3E3E3B",
"K-	c #363727",
"L-	c #404225",
"M-	c #3D3E28",
"N-	c #363632",
"O-	c #373731",
"P-	c #404139",
"Q-	c #3D3E32",
"R-	c #3C3D2E",
"S-	c #363827",
"T-	c #3F4139",
"U-	c #484D2B",
"V-	c #555942",
"W-	c #51563E",
"X-	c #555A41",
"Y-	c #494B42",
"Z-	c #44463A",
"`-	c #43453C",
" ;	c #4A4B44",
".;	c #46483D",
"+;	c #46473B",
"@;	c #4A4E31",
"#;	c #484C33",
"$;	c #464838",
"%;	c #44453A",
"&;	c #404232",
"*;	c #434537",
"=;	c #373A23",
"-;	c #53534B",
";;	c #505248",
">;	c #4A4D3E",
",;	c #434437",
"';	c #444730",
");	c #4A4B3D",
"!;	c #45463C",
"~;	c #414430",
"{;	c #2B2E19",
"];	c #3A3B31",
"^;	c #3C3D34",
"/;	c #3B3D34",
"(;	c #2A2A25",
"_;	c #484948",
":;	c #474736",
"<;	c #41422F",
"[;	c #484839",
"};	c #3C402C",
"|;	c #555653",
"1;	c #585956",
"2;	c #535453",
"3;	c #535352",
"4;	c #585A59",
"5;	c #596036",
"6;	c #545841",
"7;	c #414234",
"8;	c #4F504C",
"9;	c #4A4B47",
"0;	c #434634",
"a;	c #5A5955",
"b;	c #3F3F36",
"c;	c #4E503C",
"d;	c #3F3F39",
"e;	c #393D24",
"f;	c #4F504E",
"g;	c #51514F",
"h;	c #565755",
"i;	c #51514E",
"j;	c #484744",
"k;	c #3D3E2F",
"l;	c #444539",
"m;	c #494A32",
"n;	c #424237",
"o;	c #4F4F48",
"p;	c #33352D",
"q;	c #3D3E3B",
"r;	c #4B4C48",
"s;	c #4F4F4C",
"t;	c #525351",
"u;	c #45463D",
"v;	c #464836",
"w;	c #404133",
"x;	c #484B30",
"y;	c #3A3B29",
"z;	c #42423A",
"A;	c #4F504A",
"B;	c #42433D",
"C;	c #464541",
"D;	c #464540",
"E;	c #3F3F37",
"F;	c #4E4E4C",
"G;	c #3B3C34",
"H;	c #3D4129",
"I;	c #50514F",
"J;	c #42423E",
"K;	c #3D3D2D",
"L;	c #454631",
"M;	c #464634",
"N;	c #404035",
"O;	c #474743",
"P;	c #474A3B",
"Q;	c #414237",
"R;	c #3F4133",
"S;	c #36372E",
"T;	c #43423D",
"U;	c #33332B",
"V;	c #3B3B38",
"W;	c #363533",
"X;	c #343724",
"Y;	c #31312C",
"Z;	c #373825",
"`;	c #44452C",
" >	c #41432D",
".>	c #404031",
"+>	c #3F3F35",
"@>	c #383A2F",
"#>	c #393A2F",
"$>	c #3A3A32",
"%>	c #444540",
"&>	c #4C4C4A",
"*>	c #45483B",
"=>	c #4A4D3B",
"->	c #42423F",
";>	c #404138",
">>	c #414137",
",>	c #4D4C48",
"'>	c #2C2B26",
")>	c #40412E",
"!>	c #373732",
"~>	c #333431",
"{>	c #2D2D29",
"]>	c #2B2D1C",
"^>	c #40403D",
"/>	c #3C3D38",
"(>	c #313228",
"_>	c #2F2F29",
":>	c #313129",
"<>	c #31322C",
"[>	c #3B3C37",
"}>	c #46473F",
"|>	c #323425",
"1>	c #353727",
"2>	c #2E2E27",
"3>	c #35362F",
"4>	c #373730",
"5>	c #393B32",
"6>	c #414339",
"7>	c #484C3C",
"8>	c #3C3C36",
"9>	c #393A34",
"0>	c #333628",
"a>	c #42462E",
"b>	c #30312B",
"c>	c #33352F",
"d>	c #373831",
"e>	c #32322C",
"f>	c #34352E",
"g>	c #32332D",
"h>	c #40413A",
"i>	c #41423C",
"j>	c #393A35",
"k>	c #3A3B35",
"l>	c #3A3B32",
"m>	c #34362B",
"n>	c #343628",
"o>	c #373928",
"p>	c #363726",
"q>	c #44472F",
"r>	c #2F3027",
"s>	c #2C2C24",
"t>	c #272720",
"u>	c #292922",
"v>	c #343920",
"w>	c #34362A",
"x>	c #33332C",
"y>	c #323327",
"z>	c #363828",
"A>	c #323427",
"B>	c #31312A",
"C>	c #57594F",
"D>	c #54564C",
"E>	c #494B3E",
"F>	c #555749",
"G>	c #515347",
"H>	c #65665F",
"I>	c #62635D",
"J>	c #575952",
"K>	c #5B5D52",
"L>	c #5E6052",
"M>	c #64655C",
"N>	c #46483A",
"O>	c #676860",
"P>	c #63655D",
"Q>	c #5E6057",
"R>	c #606256",
"S>	c #5D5E55",
"T>	c #56584F",
"U>	c #575A4D",
"V>	c #4B4D43",
"W>	c #57584F",
"X>	c #57574D",
"Y>	c #56574D",
"Z>	c #5A5B55",
"`>	c #535549",
" ,	c #505149",
".,	c #4F5143",
"+,	c #515739",
"@,	c #595B4C",
"#,	c #616450",
"$,	c #5C5F4F",
"%,	c #4E4F47",
"&,	c #515348",
"*,	c #434636",
"=,	c #383B29",
"-,	c #57584B",
";,	c #494B3B",
">,	c #4C4F3C",
",,	c #40422B",
"',	c #43423C",
"),	c #45463E",
"!,	c #5A5A59",
"~,	c #4C4E3F",
"{,	c #3F403A",
"],	c #4C4D49",
"^,	c #575953",
"/,	c #424439",
"(,	c #545553",
"_,	c #5B5C59",
":,	c #51524C",
"<,	c #46473D",
"[,	c #494A40",
"},	c #53544D",
"|,	c #43443F",
"1,	c #3D3E38",
"2,	c #373830",
"3,	c #393A2A",
"4,	c #51533F",
"5,	c #3D3D39",
"6,	c #484845",
"7,	c #494946",
"8,	c #3F4037",
"9,	c #383A26",
"0,	c #575756",
"a,	c #575755",
"b,	c #494B40",
"c,	c #44453E",
"d,	c #464740",
"e,	c #424437",
"f,	c #4F4F4D",
"g,	c #4F514A",
"h,	c #45453D",
"i,	c #3E4034",
"j,	c #32322E",
"k,	c #444736",
"l,	c #47493B",
"m,	c #424340",
"n,	c #3E3F39",
"o,	c #403F39",
"p,	c #3A3A2D",
"q,	c #50504D",
"r,	c #484940",
"s,	c #3B3C36",
"t,	c #40403A",
"u,	c #41413A",
"v,	c #3D3F33",
"w,	c #434534",
"x,	c #3E3D37",
"y,	c #353631",
"z,	c #34352F",
"A,	c #35362E",
"B,	c #36372F",
"C,	c #404236",
"D,	c #3F3E38",
"E,	c #3F403C",
"F,	c #484A41",
"G,	c #494A46",
"H,	c #3E3E32",
"I,	c #35352F",
"J,	c #393A2C",
"K,	c #313227",
"L,	c #313220",
"M,	c #343427",
"N,	c #333327",
"O,	c #35362D",
"P,	c #3B3B33",
"Q,	c #32332F",
"R,	c #383831",
"S,	c #373630",
"T,	c #363630",
"U,	c #3C3E30",
"V,	c #36352F",
"W,	c #38392B",
"X,	c #3C3A34",
"Y,	c #33342B",
"Z,	c #303029",
"`,	c #2E2F27",
" '	c #32332E",
".'	c #3B3C31",
"+'	c #3B3C2C",
"@'	c #37382A",
"#'	c #404038",
"$'	c #3D3E37",
"%'	c #4F5246",
"&'	c #4C4E40",
"*'	c #484936",
"='	c #48483B",
"-'	c #414338",
";'	c #404237",
">'	c #363629",
",'	c #3F4036",
"''	c #484B3A",
")'	c #484A3D",
"!'	c #4A4C41",
"~'	c #3B3D31",
"{'	c #3A3B2F",
"]'	c #45473B",
"^'	c #4C4E3E",
"/'	c #505240",
"('	c #3A3C2F",
"_'	c #55574D",
":'	c #484A3F",
"<'	c #36362D",
"['	c #3B3C2F",
"}'	c #3F402F",
"|'	c #40432D",
"1'	c #3F432E",
"2'	c #3D402E",
"3'	c #47483B",
"4'	c #36382A",
"5'	c #3C3E2E",
"6'	c #2F3222",
"7'	c #313426",
"8'	c #393B2C",
"9'	c #474C2D",
"0'	c #474934",
"a'	c #424432",
"b'	c #3C3D31",
"c'	c #37372D",
"d'	c #34342A",
"e'	c #3E3D33",
"f'	c #2C2A25",
"g'	c #4A4A49",
"h'	c #434341",
"i'	c #474844",
"j'	c #5A5A55",
"k'	c #50504E",
"l'	c #525352",
"m'	c #42433F",
"n'	c #3C3D37",
"o'	c #464743",
"p'	c #4A4A47",
"q'	c #3D3C33",
"r'	c #3C3C2F",
"s'	c #3D3D2F",
"t'	c #404228",
"u'	c #3F4135",
"v'	c #43443A",
"w'	c #363733",
"x'	c #34352D",
"y'	c #3D3D33",
"z'	c #3D3F2A",
"A'	c #3D3F23",
"B'	c #3E402E",
"C'	c #393A33",
"D'	c #383935",
"E'	c #34342B",
"F'	c #393832",
"G'	c #353630",
"H'	c #3B3A33",
"I'	c #40413D",
"J'	c #3B3A38",
"K'	c #3A3C30",
"L'	c #37372E",
"M'	c #3D3E2B",
"N'	c #313229",
"O'	c #42433A",
"P'	c #3C3C2A",
"Q'	c #3C3E2A",
"R'	c #3A3932",
"S'	c #363732",
"T'	c #363627",
"U'	c #373833",
"V'	c #3D3F2E",
"W'	c #3E3E31",
"X'	c #3B3A35",
"Y'	c #3D3E34",
"Z'	c #3C3C34",
"`'	c #474841",
" )	c #3D3E2C",
".)	c #303128",
"+)	c #3F3E36",
"@)	c #31312D",
"#)	c #3C3D39",
"$)	c #40413C",
"%)	c #363823",
"&)	c #3F402B",
"*)	c #34332D",
"=)	c #3E3D35",
"-)	c #33342C",
";)	c #3D3D3A",
">)	c #373634",
",)	c #333430",
"')	c #33332F",
"))	c #393A31",
"!)	c #3A3B34",
"~)	c #3A3A30",
"{)	c #2B2B26",
"])	c #2D2D28",
"^)	c #2A2A24",
"/)	c #383A2B",
"()	c #313329",
"_)	c #2E2F29",
":)	c #2D2D27",
"<)	c #2C2D21",
"[)	c #2C2D27",
"})	c #31312B",
"|)	c #2C2C25",
"1)	c #282721",
"2)	c #2E2F24",
"3)	c #36382D",
"4)	c #30302D",
"5)	c #363730",
"6)	c #343528",
"7)	c #454539",
"8)	c #2D2E26",
"9)	c #282723",
"0)	c #2F312A",
"a)	c #35352E",
"b)	c #35342E",
"c)	c #414136",
"d)	c #3C3D32",
"e)	c #4B4D44",
"f)	c #4E513D",
"g)	c #3E4130",
"h)	c #4A4A40",
"i)	c #4E4F46",
"j)	c #4E4F45",
"k)	c #45453A",
"l)	c #424538",
"m)	c #4B4C42",
"n)	c #5D5F51",
"o)	c #595C4F",
"p)	c #4E5047",
"q)	c #585950",
"r)	c #484B3B",
"s)	c #4B4C43",
"t)	c #414337",
"u)	c #52544A",
"v)	c #51534C",
"w)	c #34372E",
"x)	c #303325",
"y)	c #3D3F36",
"z)	c #42443A",
"A)	c #414434",
"B)	c #404337",
"C)	c #3D412B",
"D)	c #4C5135",
"E)	c #4E5041",
"F)	c #4B4B3E",
"G)	c #383731",
"H)	c #343431",
"I)	c #434441",
"J)	c #47493A",
"K)	c #37382C",
"L)	c #3E3F36",
"M)	c #3C3E33",
"N)	c #323129",
"O)	c #383734",
"P)	c #383933",
"Q)	c #35372B",
"R)	c #3B3B2E",
"S)	c #353530",
"T)	c #464832",
"U)	c #43423B",
"V)	c #44443B",
"W)	c #393830",
"X)	c #2F2F27",
"Y)	c #36362E",
"Z)	c #3C3D35",
"`)	c #32332B",
" !	c #313127",
".!	c #33352A",
"+!	c #32322B",
"@!	c #383A29",
"#!	c #31302D",
"$!	c #43462C",
"%!	c #36352E",
"&!	c #4C4E3C",
"*!	c #44433C",
"=!	c #3F3E37",
"-!	c #323228",
";!	c #2E2D27",
">!	c #40423A",
",!	c #494A44",
"'!	c #2E2E28",
")!	c #303228",
"!!	c #36362F",
"~!	c #3A3A2C",
"{!	c #373734",
"]!	c #3C3E2B",
"^!	c #45463A",
"/!	c #383830",
"(!	c #35352D",
"_!	c #302F2C",
":!	c #302F2D",
"<!	c #2E2E2A",
"[!	c #30302A",
"}!	c #2C2C28",
"|!	c #363634",
"1!	c #363633",
"2!	c #33322F",
"3!	c #3C3C2E",
"4!	c #404132",
"5!	c #3B3B31",
"6!	c #484742",
"7!	c #3E3F34",
"8!	c #464739",
"9!	c #404234",
"0!	c #3B3E2B",
"a!	c #3E412B",
"b!	c #3B3C29",
"c!	c #3E3F35",
"d!	c #46483E",
"e!	c #3F4137",
"f!	c #393A30",
"g!	c #404238",
"h!	c #424536",
"i!	c #2F3029",
"j!	c #37392C",
"k!	c #444739",
"l!	c #38392E",
"m!	c #424337",
"n!	c #3F4136",
"o!	c #3C3D36",
"p!	c #38392F",
"q!	c #2F3028",
"r!	c #2E3027",
"s!	c #2E2F26",
"t!	c #303027",
"u!	c #333428",
"v!	c #2E2F1F",
"w!	c #313223",
"x!	c #2D2D24",
"y!	c #2F2F24",
"z!	c #3D3E36",
"A!	c #474641",
"B!	c #33342E",
"C!	c #383932",
"D!	c #404136",
"E!	c #30312C",
"F!	c #424533",
"G!	c #393C2B",
"H!	c #33342F",
"I!	c #373832",
"J!	c #414138",
"K!	c #47473A",
"L!	c #474836",
"M!	c #474737",
"N!	c #515145",
"O!	c #48493D",
"P!	c #50514D",
"Q!	c #393831",
"R!	c #323429",
"S!	c #373729",
"T!	c #383836",
"U!	c #3D3D3B",
"V!	c #424139",
"W!	c #2F3125",
"X!	c #393B31",
"Y!	c #37372F",
"Z!	c #2E2F2A",
"`!	c #383A28",
" ~	c #3C3E27",
".~	c #3E402F",
"+~	c #3B3B3A",
"@~	c #363729",
"#~	c #363829",
"$~	c #333230",
"%~	c #35362A",
"&~	c #3A3C22",
"*~	c #383920",
"=~	c #353532",
"-~	c #3B3B32",
";~	c #4E4F4A",
">~	c #3C3D2C",
",~	c #383A21",
"'~	c #2A2B22",
")~	c #373828",
"!~	c #333331",
"~~	c #363734",
"{~	c #3B3A37",
"]~	c #373834",
"^~	c #393836",
"/~	c #3D3F2F",
"(~	c #2C2E24",
"_~	c #343526",
":~	c #38392D",
"<~	c #353632",
"[~	c #383B27",
"}~	c #35372C",
"|~	c #2E2E2B",
"1~	c #333326",
"2~	c #343531",
"3~	c #353529",
"4~	c #44423E",
"5~	c #3E3F2F",
"6~	c #333420",
"7~	c #35342D",
"8~	c #2A2B21",
"9~	c #2F2D2A",
"0~	c #343529",
"a~	c #333324",
"b~	c #303028",
"c~	c #302F29",
"d~	c #2F3025",
"e~	c #31302A",
"f~	c #353726",
"g~	c #313224",
"h~	c #2F2F22",
"i~	c #32312A",
"j~	c #36352C",
"k~	c #33322C",
"l~	c #313027",
"m~	c #2E2E23",
"n~	c #2C2D1E",
"o~	c #27271D",
"p~	c #2F2F23",
"q~	c #2B2B27",
"r~	c #343527",
"s~	c #363628",
"t~	c #353528",
"u~	c #2D2E24",
"v~	c #28281F",
"w~	c #252620",
"x~	c #333228",
"y~	c #34361B",
"z~	c #292A21",
"A~	c #3B3F21",
"B~	c #363822",
"C~	c #30302C",
"D~	c #303024",
"E~	c #484740",
"F~	c #414233",
"G~	c #30321F",
"H~	c #333523",
"I~	c #313323",
"J~	c #38392C",
"K~	c #434539",
"L~	c #3F4035",
"M~	c #36382E",
"N~	c #414238",
"O~	c #48493A",
"P~	c #4F5140",
"Q~	c #515442",
"R~	c #474A39",
"S~	c #35352A",
"T~	c #353629",
"U~	c #515444",
"V~	c #4E5040",
"W~	c #4A4D39",
"X~	c #3B3C2E",
"Y~	c #3F4034",
"Z~	c #2F2F2B",
"`~	c #333423",
" {	c #2D2D26",
".{	c #303222",
"+{	c #33332A",
"@{	c #313128",
"#{	c #373726",
"${	c #36362A",
"%{	c #494843",
"&{	c #2F3127",
"*{	c #3E3F31",
"={	c #383934",
"-{	c #3B3B39",
";{	c #3C3C3A",
">{	c #2B2B25",
",{	c #2B2B23",
"'{	c #2D2D22",
"){	c #313322",
"!{	c #373824",
"~{	c #30312A",
"{{	c #383927",
"]{	c #292825",
"^{	c #2C2D24",
"/{	c #363731",
"({	c #363728",
"_{	c #464733",
":{	c #3F3F3D",
"<{	c #282822",
"[{	c #282823",
"}{	c #2A2922",
"|{	c #292B1B",
"1{	c #363826",
"2{	c #343530",
"3{	c #2B2C23",
"4{	c #383829",
"5{	c #2D2D2A",
"6{	c #282824",
"7{	c #2F2F26",
"8{	c #4E4F3A",
"9{	c #2C2C26",
"0{	c #2B2D25",
"a{	c #252420",
"b{	c #2F3023",
"c{	c #2F2F2C",
"d{	c #282921",
"e{	c #24241F",
"f{	c #262520",
"g{	c #32312B",
"h{	c #272723",
"i{	c #42413E",
"j{	c #262521",
"k{	c #272621",
"l{	c #2F2D28",
"  . . . . + @ # $ % & * % = - ; > , % ' ) ! ! , , ~ . . . { { ] . . . . ] . . . ] ] ] ! ! * % ^ / ( ( + . { _ _ _ : : : : _ _ ] ",
". { < _ . + , * $ [ = % } | 1 2 3 - 4 5 [ % 6 7 6 4 ) ! + : : _ < < < _ _ 8 ] ! & / 9 0 a b c c d $ * & . _ : : : : : : : _ 8 ] ",
": : e ] e f ^ g 1 - h i j k l m n o 5 p q q r 5 s t r u * . : : < v v : : ] + w , x h y z - q A i h B ' 9 ] : : : : : : : : < v ",
": : . 9 C D [ o k E F l G H G I J K L M t N k l O M N - P # ( . . . / & 0 * ) % Q R S M F T N U V W X h ^ Y ] { { ] : : : _ < ] ",
": + C & Z `  ...+.@.#.$.%.&.*.=.-.;.>.,.'.).!.-.~.{.].^./.(._.:.<.[.}.|.1.2.3.4.5.6.7.1.8.9.0.a.b.c.d.e.f.g.h.i.j.k.l.2 , Y v ] ",
"+ 9 m.^ n.` o.-.p.q.r.s.t.d.u.v.w.x.y.z.A.B.C.D.E.F.G.H.I.J.K.9.L.M.N.O.P.Q.R.S.T.+.U.V.W.X.Y.Z.`.|. +.+++@+#+$+%+&+*+=+C ! f ] ",
"f ( , u -+;+>+,+'+)+!+~+{+]+^+/+(+_+:+<+[+}+|+1+`.2+3+4+5+6+7+8+9+0+0.a+b+c+d+e+f+g+h+i+j+k+l+m+n+o+p+q+r+s+t+u+v+G w+x+c D * + ",
"( ! 4 g y+z+A+B+C+D+E+F+G+H+I+J+K+_.L+M+N+^+1.O+P+Q+I.R+S+T+U+V+W+X+Y+Z+`+ @.@+@@@#@$@!.%@&@*@=@-@;@>@,@'@)@!@~@{@F ]@^@= ! ! + ",
". ~ g /@(@z+_@:@<@[@}@|@1@2@3@4@5@L+6@7@8@9@0@a@/.b@c@d@e@f@g@h@i@j@=.k@l@L+v+m@f@n@o@p@q@r@s@t@u@v@w@j.i.x@y@z@M A@B@C@6 c , ~ ",
". , D@C@E@F@G@H@I@J@K@L@x+M@N@O@P@Q@M@R@S@T@U@V@W@X@Y@Z@`@ #.#+#@###$#%#&#*#=#-#;#>#s+,#'#)#!#~#{#]#^#/#(#_#:#<#[#}#|#x+1#2#d 9 ",
", 3#s 4#5#p@L+6#7#8#9#0#a#b#c#d#e#f#g#h#i#j#k#l#2+m#n#o#p#q#r#s#t#u#v#w#u#x#y#2+z#A#B#C#D#E#F#G#H#I#A+J#n@K#L#M#N#O#P#Q#R#' b ! ",
"S#S#/@S T#U#++7.V#W#X#Y#Z#`# $.$+$@$C+#$$$%$&$*$=$-$;$>$,$A+'$)$!$~${$]$^$/$($_$:$<$[$}$|$1$2$3$4$5$6$7$!.8$9$0$a$b$H c$1#S#d$@ ",
"* = e$4#f$g$h$y@:@i$~@j$k$l$m$n$o$p$q$r$s$t$u$v$u$w$x$+$E#y$z$:@A$B$C$D$q$E$F$G$H$I$J$!.x@x@K$C@L$M$N$O$@+P$Q$R$S$Q#I Q#]@T$D 9 ",
"9 % ]@U$V$W$k.X$Y$Z$`$ %.%+%@%#%$%%%_.,+,+&%a.*%I$=%-%;%&+>%&+{+<@,%H$'%)%!%~%{%Z$]%D+^%J 4#4#/%(%_%:%<%[%m M }%|%9@1%2%T h * . ",
", ' E J 3%4%5%)@6%7%9@0@Q#W$8%9%,@G+0%l$0%7.a%=%b%z$c%d%e%f%g%<.h%i%j%k%l%{@m%n%o%P$T@t p%q%A q%L$r%s%t%u%&#v%G w%x%!.y%]@h 9 . ",
"d z%U$A%u.B%C%D%E%F%G%H%C@4#I%J%K%L%M%N%O%P%Q%R%S%T%U%V%P#y@W%X%m$Y%Z%`% &.&+&@&#&$&%&&&*&=&-&%&;&>&,&'&I#M#)&!&~&{&E%j@4$5 ]&~ ",
"u C@g.Y$^&/&;@(&_&+%X$Q@.%:&H$<&B$,$[&@&}&L+j@|&1&H$*.a.2&^$3&4&5&6&7&#.8&9&^+k$0&a&b&c&d&e&f&g&@+%%G+h&i&j&~&k&:&%.l&m&n&{@D@# ",
"> N J G )$o&p&q&r& %k.p%U#s&i%t&u&).)@v&z@p&w&'@x&y&l#7&}$B#z&A&B&C&D&~.E&E#[@]%F&G&H&I&J&K&L&6@h&x@q+>%M&N&O&/&P&H+Q&]%W L N ^ ",
"S#s S V R&S&T&U&L x@V&W&l.X&Y&v&]%;.Z&`& *.*+*@*#*$*}$$*$*H$%*&*&&**)$'$=*-*K#Y$;*Z&>*V&1.:@,*j%<@h&'*X+W$l.)*!*{@~*{*,@]*^*/*0 ",
", (*M _*G+g$:*<*[*}*|*1*2*3*4*5*6*7*8*9*0*1%R&Q%^+|$a*b*c*f.d*e*f*g*h*i*X+j*Z k*$#j.U#l*m*n*J$o*s&p*X+u%Q@_#q*u%N r*s*++M t*r $ ",
"b 5 C@G k.u*v*w*x*a y***z*A*B*C*D*E*F*G*H*I*J*K*V L*M*N*O*P*Q*R*S*T*U*^#R*V*W*X*Y*^#Z*`* =,@.=+=@=#=$=%=&=8%*===|#-=;=>=t*3 6 , ",
"c 1 4#q+,='=+$)=!=~={=]=^={+r&/=(==.I+_=:=<=u$[=}=|=1=2=3=d*l&4=5=u.6=7=r.8=9=0=a=b=c=+@i*v&d=e=f=E+<#{#g=h=i=j=k=K$M*l=L N 7 , ",
"* 4 4#H m=j@n=o=p=q=r=s=t=A%u=v=w=:@x=y=z=%.A=)+B=C=N&D=E=F='$G=H=g%)+g%_@I=J=K=L=M=N=O=[.P=Q=H +*F S R=S===T=U=U=V=V=y g$s S#! ",
"! b W=X=V Y=Z=`=2@ -.-+-@-#-$-%-&-*-c*=-o@+%s&H+--e% %;->-<@K&m*$.`$,-&-h$'-)-M&!-~-{-]-^-/@N 1 %#g$M /-(-_-1 :-Q*} <-W=M 6 u 9 ",
"~ 2#[-U >=L*}-M t*U#|-(%k L=1-2-h&3-4-O$j.2$+%$#U 5-I=6-7-8-9-0-U#Q@a-L t $=b-~*c-d-3@e-f-Y*X*R g-h-/*e*I&i-j-k-Q*P l-t*1#b D 9 ",
"+ ' s m U=m-n-o-1 W=L S p-$#q-r-0-s-9-t-u-v-j.%#p%w-U#x-E [*y-r*/#z-A-t B-C-D-g.E-F-{@G-H-I-0 | `*k J-9=b&K-L-M-; N-P*O-b & ( 9 ",
": ^ [*L o@V.P-Q-R-S-H@T-U-V-W-X-Y->=Z-`-2* ;.;+;@;#;$;Z&y= &%;`-&;*;=;K#b=-;K#;;a&>&>;q-,;Q-';V%);G%!;~;{;/=];^;M*/;z*^;% + . + ",
": (;| W=6@~-_;,;:;<;[;1=};Z=~*|;1;C=2;3;4@)%4;r+5;6;7;)@'*8;&-_*h&9;0;).a;Y$X=G t%L n r*U&b;c;I=M&9-(%d;e;a%f;g;h;i;j;w-f : : : ",
". . * - s%k;l;m;n;6&)@o;p;q;k J a-J r;s;5-+%t;u;v;w;x;y;z;A; ;|-5#B;+;v+C;K L D;4$b&V h$)-E;c=F;U$T=1 G;H;;+#-I;L=|-J;C@@ 9 : { ",
"{ { D 4 K;&=L;M;N;k.'-%%T%L*P=A@b&W$P-V J O;L=P;m$M Q;]#U&I H v-R;p-S;4$A b M T;U l O 4#| U;9=}*V;W;; } X;V&.='-O*q q - , D + { ",
"{ { D Y;Z;`; >.>+>S%:*R&@>#>$>L$%>&>3$9-F-M*M=*>=>r;!-m ->X=V=;>>>}*Z*n&U ,>h$T C;o 1#2 '>v*)>!>~>{>w 2#]>T@^>/>R | 4 4 r % '>{ ",
"{ : f ]&N=+#(>_>:><>[>}>|>1>2>v*3>4>5>6>7>8>9>0>a>b>c>[>/*d>_>e>f>g>|>h>i>j>k>d>l>5>m>n>o>p>q>#>r>s>t>u>v>w>f>x>y>z>A>B>6 > 9 ] ",
"{ : f , a-*-C>D>E>F>-&d&G>H>I>i$]+J>K>L>M>N>a%O>M.P>Q>R>S>T>U>V>g&W>X>Y>K=Z>7=`> ,'@.,+,@,#,$,#.%,&,'@*#*,=,8*-,;,>,#;,,> % m.. ",
". + D # ',),3;!,o*]%~,.-l.{,H ],h&h%^,J$G=/,I=(,s&_,-*-*:,8-<,l*6> ;u@i*h%l x>e$m P [,~,,+},4%g$v-l.|,1,2,3,4,5,6,7,8,9,A S#( . ",
". + & P k>l=f;0,a,g%b,9-/*x+1,T@c,d,P#5#.-I@e,f,.-3-u-g,j%f.h,d;i,g$&-*-v&s;t p k=j,z*k,|-/%p-5,5,p-Z*3>Y*]-l,m,k n,o,p,> ^ / . ",
". '>' A-5,|,----q,g,r,U=O*C@s,k>t,P=/%p-t,^;t,A-W=A-b;u,r*B;x+/%v,u,B@k=m J O;[>A-r R*w,x,Z*P y,z,Y*A,| <>B,C,[>:-W&z;D,# 9 9 (;",
"( % h U e$E,4%F,G,C%H,M P P I,J,K,L,M,N,O,P,o R Q,`*z*R,S,T,C-b;U,E;d;P*O-!>b !>B V,%=W,X,v*Y,Z,`,Q f> 'Y;.'+'W,@'^#u,#'9 9 ! . ",
"@ ^ R G !*Y-$'%'&'M%*'='-';')*>'R;,''')'!'~'v,{']'^'/'('}>d,6>_'5*:'<'@#O,Z*['}'|'1'2'U%3'4'@'5'6'7'w,8'9'U-0'a'b'c'd'e'! ! ( . ",
"f'S#n J X=F-g'h'i'<.j'p*k'l'w%_%{@w%m'U$v-C@C@&#1,8>];n'M*o'p'L p O*D,%>k=q'<#r's't'u'v'3*T#s } w'x'p&y'z'A'B'C'/>1 3$3%( ( . . ",
"f % [*g$&#D'm j y U$.-q,5-B;/,E'1 e$y 8>A 1#n,C@/*F'Z*G'=-l.k p%H'8>U$(%I'J'['I-K'<#&-f.p%|,5,L'M'N'O'E'm-P'Q'R'j C@y %>m.$ ~ . ",
". m.D@C@g$; S'9>}-}*+=|,g$i>R;T'Z*/@!>z ^#/*n'u,8>R,`*c>(%O*U'V'W'X'R 1 ; O*Y'Z'p%c,`'o%l*T#M  )@#.)+)@)S#| - s y-5 t*4%' * * . ",
": . > A j Y;S#' j>S;z*#)$)R [ %)&)S'O-| x+_#U&/*O-*)=)-);)W=>)4 6 j,,)')B N-))G@p-#=t,D,P=!)C'~)O-<>-=]&{)x ')R q%t*[.',g % . . ",
": : * 2#- ])< x ])^)/)()_)0 :)<)[)_)0 0 D W*})_)|)1)2)3); 3#4)j,'); 5)x>w x 6)7)L$p-P=_#C'Z*T,O-| 8)N'9)8)0)Z,a)b)!>e-q%- u ( (;",
": : ~ - M*c)d)/,`-e)f)g)%;@%h)J&p*i)j)X%k)l);=($Z% ;J&m)n)o)p)E+q)r)6-s)Z-t)u)v)0@v-G;w)x)y)n=7)O-f-z)Y'A)B)C)D)E)K#F)t+G)4 9 9 ",
": f S#S Q*H)x>P V=I)J)K)Z'Q$L)%>I l l `'k.8>4>M)B,O,N)x>j k=L O)- Y'->J-P)d>5,e${-k=O-@)Q)~'l-R)P S'S)T,S)| 2'T)U)V)d; ;P*> D ! ",
". % R m W)X)x>x,n,i E@Y)/*$>$']*H+9-W$)@j.l.Z)`) !.!:-_>= +!@!-)#![#z,y,T,I,j,| $!d)K)N'I*R=4>%!P U'')6 O*!>w,&!*!=!>#p@A@R#= / ",
", 2 U=X=J=-!;!f-_#}-u,F@f-_#>!q+K$,!{@X=i>t,P--)[ [ _)D _>'!_>-!{>)!!!+!Y;; S)@)W*O-D@})-=~!{!Q=')} } !>[-p ]!^!x,+)),+*T s q & ",
"% />H#'*4#Q x % Y;3#/!(!g 6 P*p%p%S (%O*/>n'q%g>Q _!:![ N,])0 _)<!.)x>[!})^ ]&}!x*<!S#2>2>/@|!1!3#' 2!/@U=Q@3!4!$>5!Q@d,6!N r * ",
"S#p '*o*J#/,k)7!M)8!}%9!G@u,l.A,0!a!b!Q-c!z*d!e!P-y)f!(>K,f!r%g!/!h!))i!C'P-z*j!k!l!m!9!W@n!o!C'p!q!r!s!t!u!v!w!x!y!t!3*_*S O*0 ",
"d W=9-7$h%^=X$C%G U=z!Z)T@A!U M)|@t j j A*h%.-J-B!C!D!A>{,A-Q*5)!)4>E!/@S'Y;,'F!G!M*n B;/>[>H!A-k I!;&J!K!L!M!N!r=I&w@O!9-O h % ",
"& 6 l P!O;{,Q*Q*@'/@.'T,s Q!/@R!S!L'T!+=n,E,V=U![-I!V!W!Q*X!I,f>Z*Y!a # Z![!`!{' ~.~+~<-b 2#D@1 ; @~#~$~%~&~*~J,=~P /!-~;~U [-% ",
"~ r L I=%>q >~,~,~H!A,4>3>(!`)'~)~!~~~{~1 ]~^~/~d>2!B-(~t {-G)S)S)/@})(;D & _~x>l!:~5)b #!j,Q=j><~[~}~|~})1~-!2~4 3~@~!!q,4~Q=) ",
": ' X=|-p U'5~y;6~K,e>I,-)7~:>8~w 9~x S#[ 0~a~g>b~c~D@d~T#d;g {)<!d>[!s>/ * e~2)Q*D@S#; x S#| | S)f~g~]&'!h~^ b>e~i~j~P*i;U r % ",
": ) ' o t /#k~l~m~n~o~e>g b)X*p~q~* # * f c~r~b~s~-!% t~)-x+[!u~v~w~x~y~z~x*%~A~B~+!* b % j,C~<!@)Y;D~^ a a S## x P /*L s;c$P*% ",
": '>b i E~7!%=&;5~F~G~l!H~I~J~8%{#r=K~@*L~0~M~;>V)N~{#O~P~Q~R~|>B-S~T~{-6*E%U~V~$&W~$; -X~N~!;!;O','E%^!Y~D!Q*P l-t*-~;~U [-Q=* ",
": : 0 P Z~]&<!`~ {2 .{+{,~@{#{${; d,%{U=S'&{2#Q=l-R y i's,k>l-W*~ ])+!')x>Q*U=/#Z*_#1 ]~*{(%+=|,k>={}--{;{U!; N-P*Y~D!Q*P Q=q ]&",
": : $ ) {>>{f ,{'{) ){!{Z,@)X*j~- p J;p /@`@~{[ B!| <*q K){{~#p!]{^{A>f>S)P*O-f-k>8>/{Q=({_{e,J;X p :{P-L~J-M*/;z*h;i;L=|-r - '>",
": : 0 D Y {)<{[{}{g |{1{; 2{!>q R L*X=S j ;>`,3{:)= | Q !!4{5{b~6{< 7{e>6 })P 3>g | J,W)c=M m'U (%l I)2@8{+*h;i;j;L=|-O*q : , . ",
": : : Y 9{{)0{_ a{f-b{})6 N-- j M g${@J;5,4>~{[!})[  'Q j,Z~c{d{6{<{9{. ^ ^ ^ b S)b Y)Z)*#o'Y=M +=X=4$b&O~O'L=|-J;O*q O*q { ~ : ",
": : : : <{6{e{e{f{g{Z,q A T$5,X c$g$C;m k o!2#Q=S)| ' [ # x Z!Z,] h{{)h S q . ^ % C~1 C;4%{@y i e$i{I'<-s z O*q q - , D + { ] { ",
": : : : _ 9)j{k{{ 4 R 1 A-X=n j L*e$4$e$J;O;n j r 6 S#w }!# ! m.( : ( S#h S#h S 5 s U |-t-m p A s g$c$,>g$U R | 4 4 r % '>{ : : ",
": : _ 8 < < _ : ] ^ 6 z U=%>U |,(%j e$M U />h 6 4 | b f . : ( m.f : : . m.* ' R - z N C;t%o 1#= * r 5,F e$S y>z>A>B>6 > 9 ] : : ",
"_ _ _ v ] ] v ] f * # 6 Q P*h q P*!>' P*1 [ % * ! l{( : : : : + : : : : / * & g S#' 6 t*p b ! '>'>Y 0 h o t*q 2#! '>: : : : : : ",
"< 8 8 . . . . . . m.( ^ % * % b u % 9 * & & * ] e _ : : : : : : : : : _ . ! ^ % ~ # * ^ D f': _ _ _ . ( b b d 0 m.( ] _ : : _ { "};
