/* XPM */
static char * east_texture_xpm[] = {
"64 64 1734 2",
"  	c #2A2926",
". 	c #2A2925",
"+ 	c #2B2925",
"@ 	c #2D2B26",
"# 	c #2F2E29",
"$ 	c #302E2A",
"% 	c #31302C",
"& 	c #2E2D29",
"* 	c #2F2E2A",
"= 	c #33322D",
"- 	c #393834",
"; 	c #353531",
"> 	c #35332F",
", 	c #2F2D29",
"' 	c #34332F",
") 	c #31302B",
"! 	c #2E2C28",
"~ 	c #2C2B27",
"{ 	c #292924",
"] 	c #2A2924",
"^ 	c #302F2B",
"/ 	c #2D2C27",
"( 	c #2C2A26",
"_ 	c #292823",
": 	c #292824",
"< 	c #292923",
"[ 	c #32322D",
"} 	c #373733",
"| 	c #34342F",
"1 	c #393935",
"2 	c #3A3934",
"3 	c #3C3B36",
"4 	c #353430",
"5 	c #3B3A36",
"6 	c #363531",
"7 	c #363430",
"8 	c #292822",
"9 	c #2D2B27",
"0 	c #302F2A",
"a 	c #32312C",
"b 	c #33322E",
"c 	c #33312D",
"d 	c #312F2B",
"e 	c #2A2824",
"f 	c #2B2A26",
"g 	c #363530",
"h 	c #3A3935",
"i 	c #3B3B37",
"j 	c #3E3E3A",
"k 	c #41413D",
"l 	c #454641",
"m 	c #454541",
"n 	c #41423D",
"o 	c #403F3B",
"p 	c #3E3E39",
"q 	c #373632",
"r 	c #383733",
"s 	c #3C3B37",
"t 	c #3E3D38",
"u 	c #34322E",
"v 	c #2A2923",
"w 	c #2E2E29",
"x 	c #30302B",
"y 	c #40403C",
"z 	c #3D3C38",
"A 	c #383732",
"B 	c #34332E",
"C 	c #2E2C27",
"D 	c #2E2D28",
"E 	c #41403B",
"F 	c #43423E",
"G 	c #494944",
"H 	c #464642",
"I 	c #4A4B46",
"J 	c #474843",
"K 	c #44433F",
"L 	c #43433E",
"M 	c #41413C",
"N 	c #3E3D39",
"O 	c #454440",
"P 	c #363631",
"Q 	c #33332E",
"R 	c #3A3A35",
"S 	c #40403B",
"T 	c #42413C",
"U 	c #44443F",
"V 	c #484843",
"W 	c #4C4B47",
"X 	c #42413D",
"Y 	c #2B2A25",
"Z 	c #484841",
"` 	c #4F4F47",
" .	c #515143",
"..	c #5E5E55",
"+.	c #63635E",
"@.	c #6A6A65",
"#.	c #60615A",
"$.	c #51514B",
"%.	c #565652",
"&.	c #5E5D59",
"*.	c #5D5D59",
"=.	c #5F605A",
"-.	c #5C5C56",
";.	c #54554E",
">.	c #606056",
",.	c #67675E",
"'.	c #6A6A66",
").	c #61615C",
"!.	c #555550",
"~.	c #6D6D6A",
"{.	c #6B6C67",
"].	c #6F6E6A",
"^.	c #61605B",
"/.	c #62615C",
"(.	c #5E5E58",
"_.	c #56564F",
":.	c #5A5953",
"<.	c #53544F",
"[.	c #414139",
"}.	c #575750",
"|.	c #666661",
"1.	c #5B5C55",
"2.	c #5D5D58",
"3.	c #6B6A65",
"4.	c #71716C",
"5.	c #6E6E69",
"6.	c #5D5E57",
"7.	c #5B5B55",
"8.	c #5D5E52",
"9.	c #62625B",
"0.	c #6B6B66",
"a.	c #666762",
"b.	c #64645F",
"c.	c #656560",
"d.	c #60605B",
"e.	c #54544F",
"f.	c #4C4C47",
"g.	c #4C4D48",
"h.	c #47463E",
"i.	c #515149",
"j.	c #484842",
"k.	c #45453E",
"l.	c #43443D",
"m.	c #2D2C28",
"n.	c #595952",
"o.	c #55554D",
"p.	c #64655F",
"q.	c #6D6D68",
"r.	c #62635B",
"s.	c #56574B",
"t.	c #5F5F5A",
"u.	c #606058",
"v.	c #5A5C4A",
"w.	c #5D5D4E",
"x.	c #616153",
"y.	c #585949",
"z.	c #72716B",
"A.	c #878785",
"B.	c #82827F",
"C.	c #6D6D66",
"D.	c #696962",
"E.	c #797A76",
"F.	c #767673",
"G.	c #73736F",
"H.	c #71706B",
"I.	c #6E6D68",
"J.	c #5A5A51",
"K.	c #5B5A52",
"L.	c #757672",
"M.	c #5A5B53",
"N.	c #6A6964",
"O.	c #656660",
"P.	c #787975",
"Q.	c #73736E",
"R.	c #707168",
"S.	c #6D6F66",
"T.	c #74756F",
"U.	c #55544E",
"V.	c #4A4B43",
"W.	c #696A60",
"X.	c #797972",
"Y.	c #6D6C65",
"Z.	c #676863",
"`.	c #6E6F69",
" +	c #5E5D58",
".+	c #575852",
"++	c #4E4E48",
"@+	c #4D4D47",
"#+	c #4C4B40",
"$+	c #5B5C54",
"%+	c #585753",
"&+	c #54544E",
"*+	c #4D4E47",
"=+	c #3B3A34",
"-+	c #525243",
";+	c #4F5048",
">+	c #54544D",
",+	c #5A5B54",
"'+	c #62625C",
")+	c #5E5F5A",
"!+	c #5B5B52",
"~+	c #525345",
"{+	c #555650",
"]+	c #5E5F58",
"^+	c #62635F",
"/+	c #565749",
"(+	c #535543",
"_+	c #5F6055",
":+	c #5F5F59",
"<+	c #6B6A66",
"[+	c #6C6C68",
"}+	c #6E6E6A",
"|+	c #666660",
"1+	c #676761",
"2+	c #777773",
"3+	c #777874",
"4+	c #7E7F7A",
"5+	c #707068",
"6+	c #565647",
"7+	c #58574F",
"8+	c #61615B",
"9+	c #5D5C58",
"0+	c #53524B",
"a+	c #6F6F6B",
"b+	c #65665D",
"c+	c #696961",
"d+	c #626257",
"e+	c #58584E",
"f+	c #595B4F",
"g+	c #52524B",
"h+	c #51514D",
"i+	c #4E4D42",
"j+	c #606151",
"k+	c #656459",
"l+	c #636259",
"m+	c #686860",
"n+	c #63635D",
"o+	c #595852",
"p+	c #555450",
"q+	c #484943",
"r+	c #46473E",
"s+	c #494941",
"t+	c #4F4F44",
"u+	c #5A5A53",
"v+	c #4E4D48",
"w+	c #484741",
"x+	c #3B3B34",
"y+	c #57564C",
"z+	c #50504A",
"A+	c #565651",
"B+	c #5B5C57",
"C+	c #646560",
"D+	c #62625E",
"E+	c #52534A",
"F+	c #4D4F41",
"G+	c #4C4C46",
"H+	c #50514C",
"I+	c #595A52",
"J+	c #4E4F44",
"K+	c #555548",
"L+	c #55554E",
"M+	c #5E5E5A",
"N+	c #63625E",
"O+	c #65655D",
"P+	c #6D6C67",
"Q+	c #6C6C66",
"R+	c #6B6A64",
"S+	c #696B56",
"T+	c #545735",
"U+	c #5C5F40",
"V+	c #525241",
"W+	c #55554A",
"X+	c #4D4D46",
"Y+	c #6C6B66",
"Z+	c #696965",
"`+	c #616257",
" @	c #5A5B50",
".@	c #54554C",
"+@	c #4D4D45",
"@@	c #525344",
"#@	c #4E4F3E",
"$@	c #51524D",
"%@	c #595A4A",
"&@	c #5A5A4A",
"*@	c #575649",
"=@	c #5C5B52",
"-@	c #585952",
";@	c #51524A",
">@	c #4A4C44",
",@	c #484942",
"'@	c #4C4D45",
")@	c #46463F",
"!@	c #4E4E44",
"~@	c #5E5E57",
"{@	c #444440",
"]@	c #41403C",
"^@	c #3F3D38",
"/@	c #383833",
"(@	c #59594F",
"_@	c #50504C",
":@	c #565752",
"<@	c #595955",
"[@	c #5B5B56",
"}@	c #5A5A4D",
"|@	c #4C4D40",
"1@	c #4D4D3D",
"2@	c #46463E",
"3@	c #494846",
"4@	c #535452",
"5@	c #565754",
"6@	c #4E4E46",
"7@	c #5D5C56",
"8@	c #54534F",
"9@	c #50504B",
"0@	c #4B4C45",
"a@	c #5E5D55",
"b@	c #65645F",
"c@	c #686763",
"d@	c #5F6051",
"e@	c #55573B",
"f@	c #51523E",
"g@	c #505335",
"h@	c #51523F",
"i@	c #6A6A61",
"j@	c #4E4E47",
"k@	c #686864",
"l@	c #60615B",
"m@	c #4F523A",
"n@	c #525249",
"o@	c #4F4F49",
"p@	c #4B4C44",
"q@	c #585848",
"r@	c #5F5F53",
"s@	c #555547",
"t@	c #54534B",
"u@	c #505147",
"v@	c #505048",
"w@	c #484840",
"x@	c #4D4D49",
"y@	c #4C4C43",
"z@	c #52524A",
"A@	c #403F3A",
"B@	c #3D3D37",
"C@	c #3F3F3A",
"D@	c #373631",
"E@	c #44443C",
"F@	c #3E3E34",
"G@	c #3D3E35",
"H@	c #383A2E",
"I@	c #3F4134",
"J@	c #3F412E",
"K@	c #4C5030",
"L@	c #454832",
"M@	c #404134",
"N@	c #414431",
"O@	c #40442F",
"P@	c #3B3D32",
"Q@	c #43433C",
"R@	c #3E4035",
"S@	c #3F4038",
"T@	c #44443E",
"U@	c #424436",
"V@	c #3A3C26",
"W@	c #3C3E31",
"X@	c #323423",
"Y@	c #404429",
"Z@	c #404329",
"`@	c #333427",
" #	c #36372C",
".#	c #37382B",
"+#	c #323229",
"@#	c #38382F",
"##	c #3A3C2C",
"$#	c #4A4B45",
"%#	c #45463F",
"&#	c #44433E",
"*#	c #48493E",
"=#	c #484B37",
"-#	c #454928",
";#	c #494B36",
">#	c #47473F",
",#	c #404135",
"'#	c #484A35",
")#	c #3F4032",
"!#	c #3D3D32",
"~#	c #434338",
"{#	c #424238",
"]#	c #3E3E36",
"^#	c #393932",
"/#	c #3D3C36",
"(#	c #41403A",
"_#	c #3D3D36",
":#	c #3E402C",
"<#	c #424336",
"[#	c #34352B",
"}#	c #333328",
"|#	c #34342C",
"1#	c #393833",
"2#	c #35342F",
"3#	c #343430",
"4#	c #42423D",
"5#	c #4E4F49",
"6#	c #62625A",
"7#	c #64645A",
"8#	c #616444",
"9#	c #646749",
"0#	c #5C603E",
"a#	c #5F6247",
"b#	c #5E5F49",
"c#	c #505140",
"d#	c #49502A",
"e#	c #5C5F46",
"f#	c #595C47",
"g#	c #626450",
"h#	c #737372",
"i#	c #767675",
"j#	c #797979",
"k#	c #7A7B7A",
"l#	c #767674",
"m#	c #6D6E68",
"n#	c #606158",
"o#	c #454532",
"p#	c #6D6E63",
"q#	c #656760",
"r#	c #5F6058",
"s#	c #6C6E63",
"t#	c #6F7067",
"u#	c #6E6F67",
"v#	c #787974",
"w#	c #747673",
"x#	c #54544A",
"y#	c #515443",
"z#	c #6E6D6A",
"A#	c #71716D",
"B#	c #666663",
"C#	c #70706D",
"D#	c #666563",
"E#	c #646461",
"F#	c #636461",
"G#	c #51524E",
"H#	c #464742",
"I#	c #474938",
"J#	c #505049",
"K#	c #4D4E43",
"L#	c #434431",
"M#	c #4E4F41",
"N#	c #4B4D3A",
"O#	c #4B4C3D",
"P#	c #494A43",
"Q#	c #4A4A43",
"R#	c #383632",
"S#	c #32312D",
"T#	c #43433D",
"U#	c #45453F",
"V#	c #5A5A4F",
"W#	c #5E6247",
"X#	c #606444",
"Y#	c #595D37",
"Z#	c #56593C",
"`#	c #585C39",
" $	c #454537",
".$	c #45492B",
"+$	c #515246",
"@$	c #525539",
"#$	c #747475",
"$$	c #777879",
"%$	c #787876",
"&$	c #737370",
"*$	c #777877",
"=$	c #757676",
"-$	c #6B6D67",
";$	c #5C5E4C",
">$	c #53544A",
",$	c #6A6A67",
"'$	c #5E5E59",
")$	c #5A5B56",
"!$	c #6D6D6C",
"~$	c #757775",
"{$	c #737574",
"]$	c #7A7A79",
"^$	c #666765",
"/$	c #5D5D5B",
"($	c #4E5045",
"_$	c #70716D",
":$	c #6E6F6B",
"<$	c #60615D",
"[$	c #595A57",
"}$	c #61615E",
"|$	c #60605D",
"1$	c #5C5D5A",
"2$	c #4F4F4B",
"3$	c #4A4A46",
"4$	c #464641",
"5$	c #3F4232",
"6$	c #5A5B52",
"7$	c #555551",
"8$	c #494A41",
"9$	c #3A3C27",
"0$	c #3D3F27",
"a$	c #43462A",
"b$	c #4C4D3A",
"c$	c #484743",
"d$	c #32302C",
"e$	c #3F3F3B",
"f$	c #515048",
"g$	c #454540",
"h$	c #43443E",
"i$	c #5F6059",
"j$	c #5C5B59",
"k$	c #575854",
"l$	c #53534E",
"m$	c #494A3E",
"n$	c #46492D",
"o$	c #52543F",
"p$	c #525244",
"q$	c #656662",
"r$	c #6B6C6A",
"s$	c #6D6E6C",
"t$	c #6D6E69",
"u$	c #6D6E6A",
"v$	c #6A6B67",
"w$	c #666760",
"x$	c #626355",
"y$	c #585854",
"z$	c #585853",
"A$	c #646562",
"B$	c #686965",
"C$	c #686865",
"D$	c #656562",
"E$	c #575754",
"F$	c #4C4E3D",
"G$	c #686863",
"H$	c #626360",
"I$	c #5D5E58",
"J$	c #585954",
"K$	c #4B4B46",
"L$	c #3E3E38",
"M$	c #3A3B2C",
"N$	c #4F4F42",
"O$	c #4E4E4A",
"P$	c #45443E",
"Q$	c #3E3E35",
"R$	c #474A2C",
"S$	c #4E5131",
"T$	c #3C3A36",
"U$	c #484844",
"V$	c #4F4E48",
"W$	c #474842",
"X$	c #42423B",
"Y$	c #4D4D48",
"Z$	c #555651",
"`$	c #51514C",
" %	c #53534F",
".%	c #555652",
"+%	c #52524E",
"@%	c #424338",
"#%	c #43472F",
"$%	c #4D4E42",
"%%	c #50514B",
"&%	c #62625D",
"*%	c #5F5F5B",
"=%	c #63645F",
"-%	c #5F6155",
";%	c #4D4F3F",
">%	c #4A4A44",
",%	c #61615F",
"'%	c #60605F",
")%	c #585856",
"!%	c #50514E",
"~%	c #4C4D3E",
"{%	c #61625E",
"]%	c #53534D",
"^%	c #4C4B46",
"/%	c #3E3E37",
"(%	c #3E3F3A",
"_%	c #37382E",
":%	c #525247",
"<%	c #494845",
"[%	c #565551",
"}%	c #444437",
"|%	c #4A4A3E",
"1%	c #585953",
"2%	c #4E4D46",
"3%	c #4F4E49",
"4%	c #44443D",
"5%	c #494842",
"6%	c #4A4942",
"7%	c #51504B",
"8%	c #3E3F33",
"9%	c #464A2A",
"0%	c #585852",
"a%	c #5C5D56",
"b%	c #636460",
"c%	c #575B46",
"d%	c #4D4F3C",
"e%	c #535450",
"f%	c #575853",
"g%	c #545550",
"h%	c #53544E",
"i%	c #5B5C5A",
"j%	c #52524D",
"k%	c #545451",
"l%	c #4E4F4C",
"m%	c #3A3B2B",
"n%	c #4A4941",
"o%	c #474741",
"p%	c #3F3F38",
"q%	c #393933",
"r%	c #424339",
"s%	c #454536",
"t%	c #474642",
"u%	c #4B4B45",
"v%	c #4E4D47",
"w%	c #4E4E4B",
"x%	c #555552",
"y%	c #4A4A42",
"z%	c #3B3935",
"A%	c #4B4C47",
"B%	c #5B5C52",
"C%	c #474840",
"D%	c #434538",
"E%	c #4C4D41",
"F%	c #535346",
"G%	c #404235",
"H%	c #3D3E33",
"I%	c #464936",
"J%	c #555839",
"K%	c #48493C",
"L%	c #4E5046",
"M%	c #4C4D42",
"N%	c #4D4E45",
"O%	c #4D4E41",
"P%	c #515343",
"Q%	c #46483B",
"R%	c #3A3C2B",
"S%	c #3F4039",
"T%	c #3A3C33",
"U%	c #454836",
"V%	c #484A39",
"W%	c #4C4F43",
"X%	c #47483D",
"Y%	c #353925",
"Z%	c #55574C",
"`%	c #5A5C4F",
" &	c #4E5044",
".&	c #525348",
"+&	c #4E4F42",
"@&	c #585850",
"#&	c #4D4F3E",
"$&	c #4D4F3D",
"%&	c #474A37",
"&&	c #464831",
"*&	c #4D503E",
"=&	c #494B37",
"-&	c #4A4C3C",
";&	c #424435",
">&	c #515441",
",&	c #555843",
"'&	c #4B4C3E",
")&	c #494B39",
"!&	c #505145",
"~&	c #56574A",
"{&	c #58594A",
"]&	c #2F2F2A",
"^&	c #707069",
"/&	c #5C5D58",
"(&	c #565A3B",
"_&	c #55573E",
":&	c #5B5B59",
"<&	c #6A6B68",
"[&	c #505148",
"}&	c #535349",
"|&	c #585A53",
"1&	c #686866",
"2&	c #70706E",
"3&	c #656663",
"4&	c #53563C",
"5&	c #555648",
"6&	c #424335",
"7&	c #676764",
"8&	c #696966",
"9&	c #676865",
"0&	c #4D4F37",
"a&	c #4A4C3E",
"b&	c #464741",
"c&	c #46472E",
"d&	c #525448",
"e&	c #58584F",
"f&	c #4E513E",
"g&	c #494C3C",
"h&	c #4D4E48",
"i&	c #51534B",
"j&	c #565750",
"k&	c #676862",
"l&	c #595953",
"m&	c #565650",
"n&	c #494844",
"o&	c #555549",
"p&	c #4C4C42",
"q&	c #4A4B3C",
"r&	c #4B4C40",
"s&	c #52534F",
"t&	c #5D5E5A",
"u&	c #636360",
"v&	c #4E4F48",
"w&	c #45453B",
"x&	c #656561",
"y&	c #686966",
"z&	c #5A5B51",
"A&	c #505331",
"B&	c #505234",
"C&	c #404130",
"D&	c #61615D",
"E&	c #6A6A68",
"F&	c #4D4E3A",
"G&	c #4A4B3B",
"H&	c #4B4C3B",
"I&	c #45453C",
"J&	c #55564D",
"K&	c #60605C",
"L&	c #5A5A54",
"M&	c #4D4E49",
"N&	c #4E4E49",
"O&	c #4F5046",
"P&	c #504F4D",
"Q&	c #505144",
"R&	c #52524C",
"S&	c #505044",
"T&	c #47473B",
"U&	c #404039",
"V&	c #474740",
"W&	c #3F3F33",
"X&	c #47483F",
"Y&	c #4E4F43",
"Z&	c #494A3C",
"`&	c #48483D",
" *	c #4A4A3C",
".*	c #47473E",
"+*	c #494942",
"@*	c #414236",
"#*	c #575752",
"$*	c #5F605D",
"%*	c #56574E",
"&*	c #484932",
"**	c #404131",
"=*	c #5E5F5B",
"-*	c #595A54",
";*	c #4C4C41",
">*	c #46463B",
",*	c #5B5B58",
"'*	c #4F4F4A",
")*	c #454739",
"!*	c #4B4C46",
"~*	c #4B4B48",
"{*	c #494A3A",
"]*	c #4A4A45",
"^*	c #403E3A",
"/*	c #3B3B35",
"(*	c #3A3834",
"_*	c #484944",
":*	c #403F3D",
"<*	c #393936",
"[*	c #3F3E3A",
"}*	c #41413E",
"|*	c #40422D",
"1*	c #434336",
"2*	c #44453D",
"3*	c #43433A",
"4*	c #484941",
"5*	c #4A4B41",
"6*	c #4A4A41",
"7*	c #4B4E3C",
"8*	c #4F513B",
"9*	c #46463C",
"0*	c #46463A",
"a*	c #62625F",
"b*	c #595956",
"c*	c #565653",
"d*	c #4C4C45",
"e*	c #45463B",
"f*	c #444538",
"g*	c #383A2D",
"h*	c #57574C",
"i*	c #51524B",
"j*	c #4D4C45",
"k*	c #48483F",
"l*	c #464640",
"m*	c #565751",
"n*	c #545551",
"o*	c #565753",
"p*	c #4D4E46",
"q*	c #444438",
"r*	c #42423C",
"s*	c #44453C",
"t*	c #3D3C37",
"u*	c #3B3A32",
"v*	c #35362C",
"w*	c #32332A",
"x*	c #2C2C27",
"y*	c #4D522C",
"z*	c #3A3B33",
"A*	c #383931",
"B*	c #383730",
"C*	c #37392E",
"D*	c #3B3D28",
"E*	c #454927",
"F*	c #484C2B",
"G*	c #454735",
"H*	c #404231",
"I*	c #3C3D30",
"J*	c #393A29",
"K*	c #424331",
"L*	c #3F403B",
"M*	c #40413B",
"N*	c #414239",
"O*	c #3B3B36",
"P*	c #393934",
"Q*	c #383832",
"R*	c #33332D",
"S*	c #37362F",
"T*	c #3F4225",
"U*	c #3C3D2F",
"V*	c #33342D",
"W*	c #32332C",
"X*	c #34342D",
"Y*	c #34342E",
"Z*	c #393A32",
"`*	c #393931",
" =	c #3A3D2F",
".=	c #454640",
"+=	c #41423E",
"@=	c #3B3C35",
"#=	c #41423B",
"$=	c #42433B",
"%=	c #393A2E",
"&=	c #3E3F2D",
"*=	c #333525",
"==	c #414232",
"-=	c #32322A",
";=	c #3B3C33",
">=	c #43443C",
",=	c #6A6D58",
"'=	c #5E5E53",
")=	c #4A4A3D",
"!=	c #434232",
"~=	c #444435",
"{=	c #4E4F3F",
"]=	c #525449",
"^=	c #50514A",
"/=	c #46483C",
"(=	c #5D5E56",
"_=	c #50523E",
":=	c #565843",
"<=	c #58594D",
"[=	c #737470",
"}=	c #6F6F6A",
"|=	c #61625C",
"1=	c #585951",
"2=	c #565948",
"3=	c #65655F",
"4=	c #5C5D57",
"5=	c #595A53",
"6=	c #57584E",
"7=	c #515249",
"8=	c #55564F",
"9=	c #414235",
"0=	c #50524A",
"a=	c #676760",
"b=	c #4C4D43",
"c=	c #46473C",
"d=	c #5C5E4B",
"e=	c #535544",
"f=	c #48493F",
"g=	c #525343",
"h=	c #5B5D4E",
"i=	c #545740",
"j=	c #454837",
"k=	c #42433E",
"l=	c #42433C",
"m=	c #585A4C",
"n=	c #47473D",
"o=	c #434430",
"p=	c #484A31",
"q=	c #3C3E25",
"r=	c #49493F",
"s=	c #474745",
"t=	c #4A4B48",
"u=	c #4C4C44",
"v=	c #47493F",
"w=	c #4F504D",
"x=	c #5A5C58",
"y=	c #4A4B40",
"z=	c #4B4B40",
"A=	c #646563",
"B=	c #5C5C59",
"C=	c #5C5C5A",
"D=	c #4D4F49",
"E=	c #61625F",
"F=	c #575651",
"G=	c #595A56",
"H=	c #5B5B57",
"I=	c #4F504B",
"J=	c #3D3D34",
"K=	c #595A55",
"L=	c #494A47",
"M=	c #434440",
"N=	c #3A392F",
"O=	c #3F3F31",
"P=	c #3C3C35",
"Q=	c #383834",
"R=	c #434438",
"S=	c #454730",
"T=	c #3F403D",
"U=	c #3D3D38",
"V=	c #3F3F3C",
"W=	c #3C3C38",
"X=	c #43433F",
"Y=	c #454642",
"Z=	c #464644",
"`=	c #434332",
" -	c #494940",
".-	c #494A45",
"+-	c #464745",
"@-	c #454543",
"#-	c #4C4C49",
"$-	c #50524C",
"%-	c #3F4138",
"&-	c #4C4D47",
"*-	c #4F5049",
"=-	c #47483E",
"--	c #4D4E4A",
";-	c #4C4D46",
">-	c #595954",
",-	c #4D4C46",
"'-	c #464643",
")-	c #3D3D35",
"!-	c #484946",
"~-	c #4A4A48",
"{-	c #3E3F37",
"]-	c #36372D",
"^-	c #39392F",
"/-	c #404137",
"(-	c #3C3E29",
"_-	c #3F412C",
":-	c #3A3A34",
"<-	c #3C3C39",
"[-	c #3A3A36",
"}-	c #3D3E3A",
"|-	c #474742",
"1-	c #54564D",
"2-	c #404336",
"3-	c #4D4E4B",
"4-	c #50504F",
"5-	c #4B4C49",
"6-	c #4A4C42",
"7-	c #545350",
"8-	c #52534D",
"9-	c #4C4C48",
"0-	c #4B4A44",
"a-	c #494943",
"b-	c #3D3E30",
"c-	c #484846",
"d-	c #4C4D4A",
"e-	c #3A3933",
"f-	c #3A3A33",
"g-	c #43433B",
"h-	c #43423F",
"i-	c #3C3D28",
"j-	c #3C3E2D",
"k-	c #3A3B30",
"l-	c #3A3B36",
"m-	c #383835",
"n-	c #373835",
"o-	c #333330",
"p-	c #3E3F38",
"q-	c #4C4E41",
"r-	c #46493A",
"s-	c #4B4B47",
"t-	c #4B4A46",
"u-	c #494A42",
"v-	c #44453F",
"w-	c #42413B",
"x-	c #41433B",
"y-	c #41413B",
"z-	c #3C3B34",
"A-	c #3C3C37",
"B-	c #3A3A31",
"C-	c #3C3B33",
"D-	c #333426",
"E-	c #4B4B49",
"F-	c #434340",
"G-	c #3C3B35",
"H-	c #3E3E30",
"I-	c #3D3D31",
"J-	c #3E3E3B",
"K-	c #363727",
"L-	c #404225",
"M-	c #3D3E28",
"N-	c #363632",
"O-	c #373731",
"P-	c #404139",
"Q-	c #3D3E32",
"R-	c #3C3D2E",
"S-	c #363827",
"T-	c #3F4139",
"U-	c #484D2B",
"V-	c #555942",
"W-	c #51563E",
"X-	c #555A41",
"Y-	c #494B42",
"Z-	c #44463A",
"`-	c #43453C",
" ;	c #4A4B44",
".;	c #46483D",
"+;	c #46473B",
"@;	c #4A4E31",
"#;	c #484C33",
"$;	c #464838",
"%;	c #44453A",
"&;	c #404232",
"*;	c #434537",
"=;	c #373A23",
"-;	c #53534B",
";;	c #505248",
">;	c #4A4D3E",
",;	c #434437",
"';	c #444730",
");	c #4A4B3D",
"!;	c #45463C",
"~;	c #414430",
"{;	c #2B2E19",
"];	c #3A3B31",
"^;	c #3C3D34",
"/;	c #3B3D34",
"(;	c #D01B2A",
"_;	c #C81927",
":;	c #A12026",
"<;	c #2A2A25",
"[;	c #484948",
"};	c #474736",
"|;	c #41422F",
"1;	c #484839",
"2;	c #3C402C",
"3;	c #555653",
"4;	c #585956",
"5;	c #535453",
"6;	c #535352",
"7;	c #585A59",
"8;	c #596036",
"9;	c #545841",
"0;	c #414234",
"a;	c #4F504C",
"b;	c #4A4B47",
"c;	c #434634",
"d;	c #5A5955",
"e;	c #3F3F36",
"f;	c #4E503C",
"g;	c #3F3F39",
"h;	c #393D24",
"i;	c #4F504E",
"j;	c #51514F",
"k;	c #565755",
"l;	c #51514E",
"m;	c #484744",
"n;	c #7D3B38",
"o;	c #CD1827",
"p;	c #752425",
"q;	c #5A2624",
"r;	c #3D3E2F",
"s;	c #444539",
"t;	c #494A32",
"u;	c #424237",
"v;	c #4F4F48",
"w;	c #33352D",
"x;	c #3D3E3B",
"y;	c #4B4C48",
"z;	c #4F4F4C",
"A;	c #525351",
"B;	c #45463D",
"C;	c #464836",
"D;	c #404133",
"E;	c #484B30",
"F;	c #3A3B29",
"G;	c #42423A",
"H;	c #4F504A",
"I;	c #42433D",
"J;	c #464541",
"K;	c #464540",
"L;	c #3F3F37",
"M;	c #4E4E4C",
"N;	c #3B3C34",
"O;	c #3D4129",
"P;	c #50514F",
"Q;	c #42423E",
"R;	c #7C3A38",
"S;	c #C81A27",
"T;	c #3D3D2D",
"U;	c #454631",
"V;	c #464634",
"W;	c #404035",
"X;	c #474743",
"Y;	c #474A3B",
"Z;	c #414237",
"`;	c #3F4133",
" >	c #36372E",
".>	c #43423D",
"+>	c #33332B",
"@>	c #3B3B38",
"#>	c #363533",
"$>	c #343724",
"%>	c #7A3332",
"&>	c #E71129",
"*>	c #E61128",
"=>	c #EE0B28",
"->	c #E50F27",
";>	c #31312C",
">>	c #373825",
",>	c #44452C",
"'>	c #41432D",
")>	c #404031",
"!>	c #3F3F35",
"~>	c #383A2F",
"{>	c #393A2F",
"]>	c #3A3A32",
"^>	c #444540",
"/>	c #4C4C4A",
"(>	c #45483B",
"_>	c #4A4D3B",
":>	c #42423F",
"<>	c #404138",
"[>	c #414137",
"}>	c #4D4C48",
"|>	c #2C2B26",
"1>	c #40412E",
"2>	c #373732",
"3>	c #333431",
"4>	c #2D2D29",
"5>	c #2B2D1C",
"6>	c #40403D",
"7>	c #3C3D38",
"8>	c #782F2F",
"9>	c #CC222D",
"0>	c #8D292B",
"a>	c #842626",
"b>	c #5A2724",
"c>	c #313228",
"d>	c #2F2F29",
"e>	c #313129",
"f>	c #31322C",
"g>	c #3B3C37",
"h>	c #46473F",
"i>	c #323425",
"j>	c #353727",
"k>	c #2E2E27",
"l>	c #35362F",
"m>	c #373730",
"n>	c #393B32",
"o>	c #414339",
"p>	c #484C3C",
"q>	c #3C3C36",
"r>	c #393A34",
"s>	c #333628",
"t>	c #42462E",
"u>	c #30312B",
"v>	c #33352F",
"w>	c #373831",
"x>	c #32322C",
"y>	c #34352E",
"z>	c #32332D",
"A>	c #40413A",
"B>	c #41423C",
"C>	c #393A35",
"D>	c #3A3B35",
"E>	c #3A3B32",
"F>	c #34362B",
"G>	c #343628",
"H>	c #373928",
"I>	c #363726",
"J>	c #44472F",
"K>	c #2F3027",
"L>	c #2C2C24",
"M>	c #272720",
"N>	c #292922",
"O>	c #343920",
"P>	c #34362A",
"Q>	c #33332C",
"R>	c #323327",
"S>	c #363828",
"T>	c #323427",
"U>	c #95292A",
"V>	c #BC252D",
"W>	c #57594F",
"X>	c #54564C",
"Y>	c #494B3E",
"Z>	c #555749",
"`>	c #515347",
" ,	c #65665F",
".,	c #62635D",
"+,	c #575952",
"@,	c #5B5D52",
"#,	c #5E6052",
"$,	c #64655C",
"%,	c #46483A",
"&,	c #676860",
"*,	c #63655D",
"=,	c #5E6057",
"-,	c #606256",
";,	c #5D5E55",
">,	c #56584F",
",,	c #575A4D",
"',	c #4B4D43",
"),	c #57584F",
"!,	c #57574D",
"~,	c #56574D",
"{,	c #5A5B55",
"],	c #535549",
"^,	c #505149",
"/,	c #4F5143",
"(,	c #515739",
"_,	c #595B4C",
":,	c #616450",
"<,	c #5C5F4F",
"[,	c #4E4F47",
"},	c #515348",
"|,	c #434636",
"1,	c #383B29",
"2,	c #57584B",
"3,	c #494B3B",
"4,	c #4C4F3C",
"5,	c #40422B",
"6,	c #D71B2B",
"7,	c #D7192A",
"8,	c #D01928",
"9,	c #D31627",
"0,	c #43423C",
"a,	c #45463E",
"b,	c #5A5A59",
"c,	c #4C4E3F",
"d,	c #3F403A",
"e,	c #4C4D49",
"f,	c #575953",
"g,	c #424439",
"h,	c #545553",
"i,	c #5B5C59",
"j,	c #51524C",
"k,	c #46473D",
"l,	c #494A40",
"m,	c #53544D",
"n,	c #43443F",
"o,	c #3D3E38",
"p,	c #373830",
"q,	c #393A2A",
"r,	c #51533F",
"s,	c #3D3D39",
"t,	c #484845",
"u,	c #494946",
"v,	c #3F4037",
"w,	c #383A26",
"x,	c #5C2826",
"y,	c #842426",
"z,	c #575756",
"A,	c #575755",
"B,	c #494B40",
"C,	c #44453E",
"D,	c #464740",
"E,	c #424437",
"F,	c #4F4F4D",
"G,	c #4F514A",
"H,	c #45453D",
"I,	c #3E4034",
"J,	c #32322E",
"K,	c #444736",
"L,	c #47493B",
"M,	c #424340",
"N,	c #3E3F39",
"O,	c #403F39",
"P,	c #3A3A2D",
"Q,	c #50504D",
"R,	c #484940",
"S,	c #3B3C36",
"T,	c #40403A",
"U,	c #41413A",
"V,	c #3D3F33",
"W,	c #434534",
"X,	c #3E3D37",
"Y,	c #353631",
"Z,	c #34352F",
"`,	c #35362E",
" '	c #36372F",
".'	c #404236",
"+'	c #3F3E38",
"@'	c #3F403C",
"#'	c #484A41",
"$'	c #494A46",
"%'	c #3E3E32",
"&'	c #35352F",
"*'	c #393A2C",
"='	c #313227",
"-'	c #313220",
";'	c #343427",
">'	c #333327",
",'	c #35362D",
"''	c #3B3B33",
")'	c #32332F",
"!'	c #383831",
"~'	c #373630",
"{'	c #363630",
"]'	c #3C3E30",
"^'	c #36352F",
"/'	c #38392B",
"('	c #3C3A34",
"_'	c #33342B",
":'	c #303029",
"<'	c #2E2F27",
"['	c #32332E",
"}'	c #3B3C31",
"|'	c #3B3C2C",
"1'	c #37382A",
"2'	c #404038",
"3'	c #3D3E37",
"4'	c #4F5246",
"5'	c #4C4E40",
"6'	c #484936",
"7'	c #48483B",
"8'	c #414338",
"9'	c #404237",
"0'	c #363629",
"a'	c #3F4036",
"b'	c #484B3A",
"c'	c #484A3D",
"d'	c #4A4C41",
"e'	c #3B3D31",
"f'	c #3A3B2F",
"g'	c #45473B",
"h'	c #4C4E3E",
"i'	c #505240",
"j'	c #3A3C2F",
"k'	c #55574D",
"l'	c #484A3F",
"m'	c #36362D",
"n'	c #3B3C2F",
"o'	c #3F402F",
"p'	c #40432D",
"q'	c #3F432E",
"r'	c #3D402E",
"s'	c #47483B",
"t'	c #36382A",
"u'	c #3C3E2E",
"v'	c #2F3222",
"w'	c #313426",
"x'	c #393B2C",
"y'	c #474C2D",
"z'	c #474934",
"A'	c #424432",
"B'	c #3C3D31",
"C'	c #37372D",
"D'	c #34342A",
"E'	c #3E3D33",
"F'	c #2C2A25",
"G'	c #4A4A49",
"H'	c #434341",
"I'	c #474844",
"J'	c #5A5A55",
"K'	c #50504E",
"L'	c #525352",
"M'	c #42433F",
"N'	c #3C3D37",
"O'	c #464743",
"P'	c #4A4A47",
"Q'	c #3D3C33",
"R'	c #3C3C2F",
"S'	c #3D3D2F",
"T'	c #404228",
"U'	c #3F4135",
"V'	c #43443A",
"W'	c #363733",
"X'	c #34352D",
"Y'	c #3D3D33",
"Z'	c #3D3F2A",
"`'	c #3D3F23",
" )	c #3E402E",
".)	c #393A33",
"+)	c #383935",
"@)	c #34342B",
"#)	c #393832",
"$)	c #353630",
"%)	c #3B3A33",
"&)	c #40413D",
"*)	c #3B3A38",
"=)	c #3A3C30",
"-)	c #37372E",
";)	c #3D3E2B",
">)	c #313229",
",)	c #42433A",
"')	c #3C3C2A",
"))	c #3C3E2A",
"!)	c #3A3932",
"~)	c #363732",
"{)	c #363627",
"])	c #373833",
"^)	c #3D3F2E",
"/)	c #3E3E31",
"()	c #3B3A35",
"_)	c #3D3E34",
":)	c #3C3C34",
"<)	c #474841",
"[)	c #3D3E2C",
"})	c #303128",
"|)	c #3F3E36",
"1)	c #31312D",
"2)	c #3C3D39",
"3)	c #40413C",
"4)	c #363823",
"5)	c #3F402B",
"6)	c #34332D",
"7)	c #3E3D35",
"8)	c #33342C",
"9)	c #3D3D3A",
"0)	c #373634",
"a)	c #333430",
"b)	c #33332F",
"c)	c #393A31",
"d)	c #3A3B34",
"e)	c #3A3A30",
"f)	c #2B2B26",
"g)	c #2D2D28",
"h)	c #2A2A24",
"i)	c #383A2B",
"j)	c #313329",
"k)	c #2E2F29",
"l)	c #2D2D27",
"m)	c #2C2D21",
"n)	c #2C2D27",
"o)	c #31312B",
"p)	c #2C2C25",
"q)	c #282721",
"r)	c #2E2F24",
"s)	c #36382D",
"t)	c #30302D",
"u)	c #363730",
"v)	c #343528",
"w)	c #454539",
"x)	c #2D2E26",
"y)	c #282723",
"z)	c #2F312A",
"A)	c #35352E",
"B)	c #35342E",
"C)	c #414136",
"D)	c #3C3D32",
"E)	c #4B4D44",
"F)	c #4E513D",
"G)	c #3E4130",
"H)	c #4A4A40",
"I)	c #4E4F46",
"J)	c #4E4F45",
"K)	c #45453A",
"L)	c #424538",
"M)	c #4B4C42",
"N)	c #5D5F51",
"O)	c #595C4F",
"P)	c #4E5047",
"Q)	c #585950",
"R)	c #484B3B",
"S)	c #4B4C43",
"T)	c #414337",
"U)	c #52544A",
"V)	c #51534C",
"W)	c #34372E",
"X)	c #303325",
"Y)	c #3D3F36",
"Z)	c #42443A",
"`)	c #414434",
" !	c #404337",
".!	c #3D412B",
"+!	c #4C5135",
"@!	c #4E5041",
"#!	c #4B4B3E",
"$!	c #383731",
"%!	c #343431",
"&!	c #434441",
"*!	c #47493A",
"=!	c #37382C",
"-!	c #3E3F36",
";!	c #3C3E33",
">!	c #323129",
",!	c #383734",
"'!	c #383933",
")!	c #35372B",
"!!	c #3B3B2E",
"~!	c #353530",
"{!	c #464832",
"]!	c #43423B",
"^!	c #44443B",
"/!	c #393830",
"(!	c #2F2F27",
"_!	c #36362E",
":!	c #3C3D35",
"<!	c #32332B",
"[!	c #313127",
"}!	c #33352A",
"|!	c #32322B",
"1!	c #383A29",
"2!	c #31302D",
"3!	c #43462C",
"4!	c #36352E",
"5!	c #4C4E3C",
"6!	c #44433C",
"7!	c #3F3E37",
"8!	c #323228",
"9!	c #2E2D27",
"0!	c #40423A",
"a!	c #494A44",
"b!	c #2E2E28",
"c!	c #303228",
"d!	c #36362F",
"e!	c #3A3A2C",
"f!	c #373734",
"g!	c #3C3E2B",
"h!	c #45463A",
"i!	c #383830",
"j!	c #35352D",
"k!	c #302F2C",
"l!	c #302F2D",
"m!	c #2E2E2A",
"n!	c #30302A",
"o!	c #2C2C28",
"p!	c #363634",
"q!	c #363633",
"r!	c #33322F",
"s!	c #3C3C2E",
"t!	c #404132",
"u!	c #3B3B31",
"v!	c #484742",
"w!	c #3E3F34",
"x!	c #464739",
"y!	c #404234",
"z!	c #3B3E2B",
"A!	c #3E412B",
"B!	c #3B3C29",
"C!	c #3E3F35",
"D!	c #46483E",
"E!	c #3F4137",
"F!	c #393A30",
"G!	c #404238",
"H!	c #424536",
"I!	c #2F3029",
"J!	c #37392C",
"K!	c #444739",
"L!	c #38392E",
"M!	c #424337",
"N!	c #3F4136",
"O!	c #3C3D36",
"P!	c #38392F",
"Q!	c #2F3028",
"R!	c #2E3027",
"S!	c #2E2F26",
"T!	c #303027",
"U!	c #333428",
"V!	c #2E2F1F",
"W!	c #313223",
"X!	c #2D2D24",
"Y!	c #2F2F24",
"Z!	c #3D3E36",
"`!	c #474641",
" ~	c #33342E",
".~	c #383932",
"+~	c #404136",
"@~	c #30312C",
"#~	c #424533",
"$~	c #393C2B",
"%~	c #33342F",
"&~	c #373832",
"*~	c #414138",
"=~	c #47473A",
"-~	c #474836",
";~	c #474737",
">~	c #515145",
",~	c #48493D",
"'~	c #50514D",
")~	c #393831",
"!~	c #323429",
"~~	c #373729",
"{~	c #383836",
"]~	c #3D3D3B",
"^~	c #424139",
"/~	c #2F3125",
"(~	c #393B31",
"_~	c #37372F",
":~	c #2E2F2A",
"<~	c #383A28",
"[~	c #3C3E27",
"}~	c #3E402F",
"|~	c #3B3B3A",
"1~	c #363729",
"2~	c #363829",
"3~	c #333230",
"4~	c #35362A",
"5~	c #3A3C22",
"6~	c #383920",
"7~	c #353532",
"8~	c #3B3B32",
"9~	c #4E4F4A",
"0~	c #3C3D2C",
"a~	c #383A21",
"b~	c #2A2B22",
"c~	c #373828",
"d~	c #333331",
"e~	c #363734",
"f~	c #3B3A37",
"g~	c #373834",
"h~	c #393836",
"i~	c #3D3F2F",
"j~	c #2C2E24",
"k~	c #343526",
"l~	c #38392D",
"m~	c #353632",
"n~	c #383B27",
"o~	c #35372C",
"p~	c #2E2E2B",
"q~	c #333326",
"r~	c #343531",
"s~	c #353529",
"t~	c #44423E",
"u~	c #3E3F2F",
"v~	c #333420",
"w~	c #35342D",
"x~	c #2A2B21",
"y~	c #2F2D2A",
"z~	c #343529",
"A~	c #333324",
"B~	c #303028",
"C~	c #302F29",
"D~	c #2F3025",
"E~	c #31302A",
"F~	c #353726",
"G~	c #313224",
"H~	c #2F2F22",
"I~	c #32312A",
"J~	c #36352C",
"K~	c #33322C",
"L~	c #313027",
"M~	c #2E2E23",
"N~	c #2C2D1E",
"O~	c #27271D",
"P~	c #2F2F23",
"Q~	c #2B2B27",
"R~	c #343527",
"S~	c #363628",
"T~	c #353528",
"U~	c #2D2E24",
"V~	c #28281F",
"W~	c #252620",
"X~	c #333228",
"Y~	c #34361B",
"Z~	c #292A21",
"`~	c #3B3F21",
" {	c #363822",
".{	c #30302C",
"+{	c #303024",
"@{	c #484740",
"#{	c #414233",
"${	c #30321F",
"%{	c #333523",
"&{	c #313323",
"*{	c #38392C",
"={	c #434539",
"-{	c #3F4035",
";{	c #36382E",
">{	c #414238",
",{	c #48493A",
"'{	c #4F5140",
"){	c #515442",
"!{	c #474A39",
"~{	c #35352A",
"{{	c #353629",
"]{	c #515444",
"^{	c #4E5040",
"/{	c #4A4D39",
"({	c #3B3C2E",
"_{	c #3F4034",
":{	c #2F2F2B",
"<{	c #333423",
"[{	c #2D2D26",
"}{	c #303222",
"|{	c #33332A",
"1{	c #313128",
"2{	c #373726",
"3{	c #36362A",
"4{	c #494843",
"5{	c #2F3127",
"6{	c #3E3F31",
"7{	c #383934",
"8{	c #3B3B39",
"9{	c #3C3C3A",
"0{	c #2B2B25",
"a{	c #2B2B23",
"b{	c #2D2D22",
"c{	c #313322",
"d{	c #373824",
"e{	c #30312A",
"f{	c #383927",
"g{	c #292825",
"h{	c #2C2D24",
"i{	c #363731",
"j{	c #363728",
"k{	c #464733",
"l{	c #3F3F3D",
"m{	c #282822",
"n{	c #282823",
"o{	c #2A2922",
"p{	c #292B1B",
"q{	c #363826",
"r{	c #343530",
"s{	c #2B2C23",
"t{	c #383829",
"u{	c #2D2D2A",
"v{	c #282824",
"w{	c #2F2F26",
"x{	c #4E4F3A",
"y{	c #2C2C26",
"z{	c #2B2D25",
"A{	c #252420",
"B{	c #2F3023",
"C{	c #2F2F2C",
"D{	c #282921",
"E{	c #24241F",
"F{	c #262520",
"G{	c #32312B",
"H{	c #272723",
"I{	c #42413E",
"J{	c #262521",
"K{	c #272621",
"L{	c #31312A",
"M{	c #2F2D28",
"  . . . . + @ # $ % & * % = - ; > , % ' ) ! ! , , ~ . . . { { ] . . . . ] . . . ] ] ] ! ! * % ^ / ( ( + . { _ _ _ : : : : _ _ ] ",
". { < _ . + , * $ [ = % } | 1 2 3 - 4 5 [ % 6 7 6 4 ) ! + : : _ < < < _ _ 8 ] ! & / 9 0 a b c c d $ * & . _ : : : : : : : _ 8 ] ",
": : e ] e f ^ g 1 - h i j k l m n o 5 p q q r 5 s t r u * . : : < v v : : ] + w , x h y z - q A i h B ' 9 ] : : : : : : : : < v ",
": : . 9 C D [ o k E F l G H G I J K L M t N k l O M N - P # ( . . . / & 0 * ) % Q R S M F T N U V W X h ^ Y ] { { ] : : : _ < ] ",
": + C & Z `  ...+.@.#.$.%.&.*.=.-.;.>.,.'.).!.-.~.{.].^./.(._.:.<.[.}.|.1.2.3.4.5.6.7.1.8.9.0.a.b.c.d.e.f.g.h.i.j.k.l.2 , Y v ] ",
"+ 9 m.^ n.` o.-.p.q.r.s.t.d.u.v.w.x.y.z.A.B.C.D.E.F.G.H.I.J.K.9.L.M.N.O.P.Q.R.S.T.+.U.V.W.X.Y.Z.`.|. +.+++@+#+$+%+&+*+=+C ! f ] ",
"f ( , u -+;+>+,+'+)+!+~+{+]+^+/+(+_+:+<+[+}+|+1+`.2+3+4+5+6+7+8+9+0+0.a+b+c+d+e+f+g+h+i+j+k+l+m+n+o+p+q+r+s+t+u+v+G w+x+c D * + ",
"( ! 4 g y+z+A+B+C+D+E+F+G+H+I+J+K+_.L+M+N+^+1.O+P+Q+I.R+S+T+U+V+W+X+Y+Z+`+ @.@+@@@#@$@!.%@&@*@=@-@;@>@,@'@)@!@~@{@F ]@^@= ! ! + ",
". ~ g /@(@z+_@:@<@[@}@|@1@2@3@4@5@L+6@7@8@9@0@a@/.b@c@d@e@f@g@h@i@j@=.k@l@L+v+m@f@n@o@p@q@r@s@t@u@v@w@j.i.x@y@z@M A@B@C@6 c , ~ ",
". , D@C@E@F@G@H@I@J@K@L@x+M@N@O@P@Q@M@R@S@T@U@V@W@X@Y@Z@`@ #.#+#@###$#%#&#*#=#-#;#>#s+,#'#)#!#~#{#]#^#/#(#_#:#<#[#}#|#x+1#2#d 9 ",
", 3#s 4#5#p@L+6#7#8#9#0#a#b#c#d#e#f#g#h#i#j#k#l#2+m#n#o#p#q#r#s#t#u#v#w#u#x#y#2+z#A#B#C#D#E#F#G#H#I#A+J#n@K#L#M#N#O#P#Q#R#' b ! ",
"S#S#/@S T#U#++7.V#W#X#Y#Z#`# $.$+$@$C+#$$$%$&$*$=$-$;$>$,$A+'$)$!$~${$]$^$/$($_$:$<$[$}$|$1$2$3$4$5$6$7$!.8$9$0$a$b$H c$1#S#d$@ ",
"* = e$4#f$g$h$y@:@i$~@j$k$l$m$n$o$p$q$r$s$t$u$v$u$w$x$+$E#y$z$:@A$B$C$D$q$E$F$G$H$I$J$!.x@x@K$C@L$M$N$O$@+P$Q$R$S$Q#I Q#]@T$D 9 ",
"9 % ]@U$V$W$k.X$Y$Z$`$ %.%+%@%#%$%%%_.,+,+&%a.*%I$=%-%;%&+>%&+{+<@,%H$'%)%!%~%{%Z$]%D+^%J 4#4#/%(%_%:%<%[%m M }%|%9@1%2%T h * . ",
", ' E J 3%4%5%)@6%7%9@0@Q#W$8%9%,@G+0%l$0%7.a%=%b%z$c%d%e%f%g%<.h%i%j%k%l%{@m%n%o%P$T@t p%q%A q%L$r%s%t%u%&#v%G w%x%!.y%]@h 9 . ",
"d z%U$A%u.B%C%D%E%F%G%H%C@4#I%J%K%L%M%N%O%P%Q%R%S%T%U%V%P#y@W%X%m$Y%Z%`% &.&+&@&#&$&%&&&*&=&-&%&;&>&,&'&I#M#)&!&~&{&E%j@4$5 ]&~ ",
"u C@g.Y$^&/&;@(&_&+%X$Q@.%:&H$<&B$,$[&@&}&L+j@|&1&H$*.a.2&^$3&4&5&6&7&#.8&9&^+k$0&a&b&c&d&e&f&g&@+%%G+h&i&j&~&k&:&%.l&m&n&{@D@# ",
"> N J G )$o&p&q&r& %k.p%U#s&i%t&u&).)@v&z@p&w&'@x&y&l#7&}$B#z&A&B&C&D&~.E&E#[@]%F&G&H&I&J&K&L&6@h&x@q+>%M&N&O&/&P&H+Q&]%W L N ^ ",
"S#s S V R&S&T&U&L x@V&W&l.X&Y&v&]%;.Z&`& *.*+*@*#*$*}$$*$*H$%*&*&&**)$'$=*-*K#Y$;*Z&>*V&1.:@,*j%<@h&'*X+W$l.)*!*{@~*{*,@]*^*/*0 ",
", (*M _*G+g$:*<*[*}*|*1*2*3*4*5*6*7*8*9*0*1%R&Q%^+|$a*b*c*f.d*e*f*g*h*i*X+j*Z k*$#j.U#l*m*n*J$o*s&p*X+u%Q@_#q*u%N r*s*++M t*r $ ",
"b 5 C@G k.u*v*w*x*a y***z*A*B*C*D*E*F*G*H*I*J*K*V L*M*N*O*P*Q*R*S*T*U*^#R*V*W*X*Y*^#Z*`* =,@.=+=@=#=$=%=&=8%*===|#-=;=>=t*3 6 , ",
"c 1 4#q+,='=+$)=!=~={=]=^={+r&/=(==.I+_=:=<=u$[=}=|=1=2=3=d*l&4=5=u.6=7=r.8=9=0=a=b=c=+@i*v&d=e=f=E+<#{#g=h=i=j=k=K$M*l=L N 7 , ",
"* 4 4#H m=j@n=o=p=q=r=s=t=A%u=v=w=:@x=y=z=%.A=)+B=C=N&D=E=F='$G=H=g%)+g%_@I=J=K=L=M=N=O=[.P=Q=H +*F S R=S===T=U=U=V=V=y g$s S#! ",
"! b W=X=V Y=Z=`=2@ -.-+-@-#-$-%-&-*-c*=-o@+%s&H+--e% %;->-<@K&m*$.`$,-&-h$'-)-M&!-~-{-]-^-/@N 1 %#g$M /-(-_-1 :-Q*} <-W=M 6 u 9 ",
"~ 2#[-U >=L*}-M t*U#|-(%k L=1-2-h&3-4-O$j.2$+%$#U 5-I=6-7-8-9-0-U#Q@a-L t $=b-~*c-d-3@e-f-Y*X*R g-h-/*e*I&i-j-k-Q*P l-t*1#b D 9 ",
"+ ' s m U=m-n-o-1 W=L S p-$#q-r-0-s-9-t-u-v-j.%#p%w-U#x-E [*y-r*/#z-A-t B-C-D-g.E-F-{@G-H-I-0 | `*k J-9=b&K-L-M-; N-P*O-b & ( 9 ",
": ^ [*L o@V.P-Q-R-S-H@T-U-V-W-X-Y->=Z-`-2* ;.;+;@;#;$;Z&y= &%;`-&;*;=;K#b=-;K#;;a&>&>;q-,;Q-';V%);G%!;~;{;/=];^;M*/;z*^;(;_;_;:;",
": <;| W=6@~-[;,;};|;1;1=2;Z=~*3;4;C=5;6;4@)%7;r+8;9;0;)@'*a;&-_*h&b;c;).d;Y$X=G t%L n r*U&e;f;I=M&9-(%g;h;a%i;j;k;l;m;n;o;p;p;q;",
". . * - s%r;s;t;u;6&)@v;w;x;k J a-J y;z;5-+%A;B;C;D;E;F;G;H; ;|-5#I;+;v+J;K L K;4$b&V h$)-L;c=M;U$T=1 N;O;;+#-P;L=|-Q;R;S;9 : { ",
"{ { D 4 T;&=U;V;W;k.'-%%T%L*P=A@b&W$P-V J X;L=Y;m$M Z;]#U&I H v-`;p- >4$A b M .>U l O 4#| +>9=}*@>#>; } $>V&.='-O*q q %>&>*>=>->",
"{ { D ;>>>,>'>)>!>S%:*R&~>{>]>L$^>/>3$9-F-M*M=(>_>y;!-m :>X=V=<>[>}*Z*n&U }>h$T J;o 1#2 |>v*1>2>3>4>w 2#5>T@6>7>R | 4 8>9>0>a>b>",
"{ : f ]&N=+#c>d>e>f>g>h>i>j>k>v*l>m>n>o>p>q>r>s>t>u>v>g>/*w>d>x>y>z>i>A>B>C>D>w>E>n>F>G>H>I>J>{>K>L>M>N>O>P>y>Q>R>S>T>U>V>> 9 ] ",
"{ : f , a-*-W>X>Y>Z>-&d&`> ,.,i$]++,@,#,$,%,a%&,M.*,=,-,;,>,,,',g&),!,~,K={,7=],^,'@/,(,_,:,<,#.[,},'@*#|,1,8*2,3,4,#;5,6,7,8,9,",
". + D # 0,a,6;b,o*]%c,.-l.d,H e,h&h%f,J$G=g,I=h,s&i,-*-*j,8-k,l*o> ;u@i*h%l Q>e$m P l,c,,+m,4%g$v-l.n,o,p,q,r,s,t,u,v,w,A S#x,y,",
". + & P D>l=i;z,A,g%B,9-/*x+o,T@C,D,P#5#.-I@E,F,.-3-u-G,j%f.H,g;I,g$&-*-v&z;t p k=J,z*K,|-/%p-s,s,p-Z*l>Y*]-L,M,k N,O,P,> ^ / . ",
". |>' A-s,n,----Q,G,R,U=O*C@S,D>T,P=/%p-T,^;T,A-W=A-e;U,r*I;x+/%V,U,B@k=m J X;g>A-r R*W,X,Z*P Y,Z,Y*`,| f> '.'g>:-W&G;+'D 9 9 Y ",
"( % h U e$@'4%#'$'C%%'M P P &'*'='-';'>','''o R )'`*z*!'~'{'C-e;]'L;g;P*O-2>b 2>B ^'%=/'('v*_':'<'Q y>[';>}'|'/'1'^#U,2'9 9 ! . ",
"@ ^ R G !*Y-3'4'5'M%6'7'8'9')*0'`;a'b'c'd'e'V,f'g'h'i'j'h>D,o>k'5*l'm'@#,'Z*n'o'p'q'r'U%s't'1'u'v'w'W,x'y'U-z'A'B'C'D'E'! ! ( . ",
"F'S#n J X=F-G'H'I'<.J'p*K'L'w%_%{@w%M'U$v-C@C@&#o,q>];N'M*O'P'L p O*+'^>k=Q'<#R'S'T'U'V'3*T#s } W'X'p&Y'Z'`' ).)7>1 3$3%( ( . . ",
"f % [*g$&#+)m j y U$.-Q,5-I;g,@)1 e$y q>A 1#N,C@/*#)Z*$)=-l.k p%%)q>U$(%&)*)n'I-=)<#&-f.p%n,s,-);)>),)@)m-')))!)j C@y ^>m.$ ~ . ",
". m.D@C@g$; ~)r>}-}*+=n,g$B>`;{)Z*/@2>z ^#/*N'U,q>!'`*v>(%O*])^)/)()R 1 ; O*_):)p%C,<)o%l*T#M [)@#})|)1)S#| - s y-5 t*4%' * * . ",
": . > A j ;>S#' C> >z*2)3)R [ 4)5)~)O-| x+_#U&/*O-6)7)8)9)W=0)4 6 J,a)b)B N-c)G@p-#=T,+'P=d).)e)O-f>-=]&f)x b)R q%t*[.0,g % . . ",
": : * 2#- g)< x g)h)i)j)k)0 l)m)n)k)0 0 D W*o)k)p)q)r)s); 3#t)J,b); u)Q>w x v)w)L$p-P=_#.)Z*{'O-| x)>)y)x)z):'A)B)2>e-q%- u ( <;",
": : ~ - M*C)D)g,`-E)F)G)%;@%H)J&p*I)J)X%K)L);=($Z% ;J&M)N)O)P)E+Q)R)6-S)Z-T)U)V)0@v-N;W)X)Y)n=w)O-f-Z)_)`) !.!+!@!K##!t+$!4 9 9 ",
": f S#S Q*%!Q>P V=&!*!=!:)Q$-!^>I l l <)k.q>m>;! ','>!Q>j k=L ,!- _):>J-'!w>s,e${-k=O-1))!e'l-!!P ~)~!{'~!| r'{!]!^!g; ;P*> D ! ",
". % R m /!(!Q>X,N,i E@_!/*]>3']*H+9-W$)@j.l.:!<![!}!:-d>= |!1!8)2![#Z,Y,{'&'J,| 3!D)=!>)I*R=m>4!P ])b)6 O*2>W,5!6!7!>#p@A@R#= / ",
", 2 U=X=J=8!9!f-_#}-U,F@f-_#0!q+K$a!{@X=B>T,P-8)[ [ k)D d>b!d>8!4>c!d!|!;>; ~!1)W*O-D@o)-=e!f!Q=b)} } 2>[-p g!h!X,|)a,+*T s q & ",
"% 7>H#'*4#Q x % ;>3#i!j!g 6 P*p%p%S (%O*7>N'q%z>Q k!l![ >'g)0 k)m!})Q>n!o)^ ]&o!x*m!S#k>k>/@p!q!3#' r!/@U=Q@s!t!]>u!Q@D,v!N r * ",
"S#p '*o*J#g,K)w!;!x!}%y!G@U,l.`,z!A!B!Q-C!z*D!E!P-Y)F!c>='F!r%G!i!H!c)I!.)P-z*J!K!L!M!y!W@N!O!.)P!Q!R!S!T!U!V!W!X!Y!T!3*_*S O*0 ",
"d W=9-7$h%^=X$C%G U=Z!:!T@`!U ;!|@t j j A*h%.-J- ~.~+~T>d,A-Q*u)d)m>@~/@~);>a'#~$~M*n I;7>g>%~A-k &~;&*~=~-~;~>~r=I&w@,~9-O h % ",
"& 6 l '~X;d,Q*Q*1'/@}'{'s )~/@!~~~-){~+=N,@'V=]~[-&~^~/~Q*(~&'y>Z*_~a # :~n!<~f'[~}~|~<-b 2#D@1 ; 1~2~3~4~5~6~*'7~P i!8~9~U [-% ",
"~ r L I=^>q 0~a~a~%~`,m>l>j!<!b~c~d~e~f~1 g~h~i~w>r!B-j~t {-$!~!~!/@o)<;D & k~Q>L!l~u)b 2!J,Q=C>m~n~o~p~o)q~8!r~4 s~1~d!Q,t~Q=) ",
": ' X=|-p ])u~F;v~='x>&'8)w~e>x~w y~x S#[ z~A~z>B~C~D@D~T#g;g f)m!w>n!L>/ * E~r)Q*D@S#; x S#| | ~!F~G~]&b!H~^ u>E~I~J~P*l;U r % ",
": ) ' o t /#K~L~M~N~O~x>g B)X*P~Q~* # * f C~R~B~S~8!% T~)-x+n!U~V~W~X~Y~Z~x*4~`~ {|!* b % J,.{m!1);>+{^ a a S## x P /*L z;c$P*% ",
": |>b i @{w!%=&;u~#{${L!%{&{*{8%{#r=={@*-{z~;{<>^!>{{#,{'{){!{i>B-~{{{{-6*E%]{^{$&/{$; -({>{!;!;,)a'E%h!_{+~Q*P l-t*8~9~U [-Q=* ",
": : 0 P :{]&m!<{[{2 }{|{a~1{2{3{; D,4{U=~)5{2#Q=l-R y I'S,D>l-W*~ g)|!b)Q>Q*U=/#Z*_#1 g~6{(%+=n,D>7{}-8{9{]~; N-P*_{+~Q*P Q=q ]&",
": : $ ) 4>0{f a{b{) c{d{:'1)X*J~- p Q;p /@`@e{[  ~| <*q =!f{~#P!g{h{T>y>~!P*O-f-D>q>i{Q=j{k{E,Q;X p l{P--{J-M*/;z*k;l;L=|-r - |>",
": : 0 D Y f)m{n{o{g p{q{; r{2>q R L*X=S j <><'s{l)= | Q d!t{u{B~v{< w{x>6 o)P l>g | *'/!c=M M'U (%l &!2@x{+*k;l;m;L=|-O*q : , . ",
": : : Y y{f)z{_ A{f-B{o)6 N-- j M g${@Q;s,m>e{n!o)[ ['Q J,:{C{D{v{m{y{. ^ ^ ^ b ~!b _!:!*#O'Y=M +=X=4$b&,{,)L=|-Q;O*q O*q { ~ : ",
": : : : m{v{E{E{F{G{:'q A T$s,X c$g$J;m k O!2#Q=~!| ' [ # x :~:'] H{f)h S q . ^ % .{1 J;4%{@y i e$I{&)<-s z O*q q - , D + { ] { ",
": : : : _ y)J{K{{ 4 R 1 A-X=n j L*e$4$e$Q;X;n j r 6 S#w o!# ! m.( : ( S#h S#h S 5 s U |-t-m p A s g$c$}>g$U R | 4 4 r % |>{ : : ",
": : _ 8 < < _ : ] ^ 6 z U=^>U n,(%j e$M U 7>h 6 4 | b f . : ( m.f : : . m.* ' R - z N J;t%o 1#= * r s,F e$S R>S>T>L{6 > 9 ] : : ",
"_ _ _ v ] ] v ] f * # 6 Q P*h q P*2>' P*1 [ % * ! M{( : : : : + : : : : / * & g S#' 6 t*p b ! |>|>Y 0 h o t*q 2#! |>: : : : : : ",
"< 8 8 . . . . . . m.( ^ % * % b u % 9 * & & * ] e _ : : : : : : : : : _ . ! ^ % ~ # * ^ D F': _ _ _ . ( b b d 0 m.( ] _ : : _ { "};
