/* XPM */
static char * north_texture_xpm[] = {
"64 64 1729 2",
"  	c #2A2926",
". 	c #2A2925",
"+ 	c #2B2925",
"@ 	c #2D2B26",
"# 	c #2F2E29",
"$ 	c #302E2A",
"% 	c #31302C",
"& 	c #2E2D29",
"* 	c #2F2E2A",
"= 	c #33322D",
"- 	c #393834",
"; 	c #353531",
"> 	c #35332F",
", 	c #2F2D29",
"' 	c #34332F",
") 	c #31302B",
"! 	c #2E2C28",
"~ 	c #2C2B27",
"{ 	c #512A24",
"] 	c #D2331F",
"^ 	c #502A24",
"/ 	c #2A2924",
"( 	c #B53021",
"_ 	c #302F2B",
": 	c #2D2C27",
"< 	c #2C2A26",
"[ 	c #292924",
"} 	c #292823",
"| 	c #292824",
"1 	c #292923",
"2 	c #32322D",
"3 	c #373733",
"4 	c #34342F",
"5 	c #393935",
"6 	c #3A3934",
"7 	c #3C3B36",
"8 	c #353430",
"9 	c #3B3A36",
"0 	c #363531",
"a 	c #363430",
"b 	c #672B24",
"c 	c #D5331F",
"d 	c #B13020",
"e 	c #502923",
"f 	c #502A23",
"g 	c #C7321F",
"h 	c #292822",
"i 	c #2D2B27",
"j 	c #302F2A",
"k 	c #32312C",
"l 	c #33322E",
"m 	c #33312D",
"n 	c #312F2B",
"o 	c #2A2824",
"p 	c #2B2A26",
"q 	c #363530",
"r 	c #3A3935",
"s 	c #3B3B37",
"t 	c #3E3E3A",
"u 	c #41413D",
"v 	c #454641",
"w 	c #454541",
"x 	c #41423D",
"y 	c #403F3B",
"z 	c #3E3E39",
"A 	c #373632",
"B 	c #383733",
"C 	c #3C3B37",
"D 	c #3E3D38",
"E 	c #34322E",
"F 	c #682F28",
"G 	c #CF331F",
"H 	c #D3331E",
"I 	c #2A2923",
"J 	c #2E2E29",
"K 	c #30302B",
"L 	c #40403C",
"M 	c #3D3C38",
"N 	c #383732",
"O 	c #34332E",
"P 	c #2E2C27",
"Q 	c #2E2D28",
"R 	c #41403B",
"S 	c #43423E",
"T 	c #494944",
"U 	c #464642",
"V 	c #4A4B46",
"W 	c #474843",
"X 	c #44433F",
"Y 	c #43433E",
"Z 	c #41413C",
"` 	c #3E3D39",
" .	c #454440",
"..	c #563630",
"+.	c #D13420",
"@.	c #C63220",
"#.	c #BC3120",
"$.	c #CA321F",
"%.	c #33332E",
"&.	c #3A3A35",
"*.	c #40403B",
"=.	c #42413C",
"-.	c #44443F",
";.	c #484843",
">.	c #4C4B47",
",.	c #42413D",
"'.	c #2B2A25",
").	c #484841",
"!.	c #4F4F47",
"~.	c #515143",
"{.	c #5E5E55",
"].	c #63635E",
"^.	c #6A6A65",
"/.	c #60615A",
"(.	c #51514B",
"_.	c #565652",
":.	c #5E5D59",
"<.	c #5D5D59",
"[.	c #5F605A",
"}.	c #5C5C56",
"|.	c #54554E",
"1.	c #606056",
"2.	c #67675E",
"3.	c #6A6A66",
"4.	c #61615C",
"5.	c #555550",
"6.	c #6D6D6A",
"7.	c #6B6C67",
"8.	c #6F6E6A",
"9.	c #61605B",
"0.	c #735E59",
"a.	c #D33B2A",
"b.	c #56564F",
"c.	c #85534B",
"d.	c #D03B2A",
"e.	c #CD3724",
"f.	c #845149",
"g.	c #666661",
"h.	c #5B5C55",
"i.	c #5D5D58",
"j.	c #6B6A65",
"k.	c #71716C",
"l.	c #6E6E69",
"m.	c #5D5E57",
"n.	c #5B5B55",
"o.	c #5D5E52",
"p.	c #62625B",
"q.	c #6B6B66",
"r.	c #666762",
"s.	c #64645F",
"t.	c #656560",
"u.	c #60605B",
"v.	c #54544F",
"w.	c #4C4C47",
"x.	c #4C4D48",
"y.	c #47463E",
"z.	c #515149",
"A.	c #484842",
"B.	c #45453E",
"C.	c #43443D",
"D.	c #2D2C28",
"E.	c #595952",
"F.	c #55554D",
"G.	c #64655F",
"H.	c #6D6D68",
"I.	c #62635B",
"J.	c #56574B",
"K.	c #5F5F5A",
"L.	c #606058",
"M.	c #5A5C4A",
"N.	c #5D5D4E",
"O.	c #616153",
"P.	c #585949",
"Q.	c #72716B",
"R.	c #878785",
"S.	c #82827F",
"T.	c #6D6D66",
"U.	c #696962",
"V.	c #797A76",
"W.	c #767673",
"X.	c #73736F",
"Y.	c #71706B",
"Z.	c #6E6D68",
"`.	c #BF4435",
" +	c #5B5A52",
".+	c #757672",
"++	c #C64132",
"@+	c #8D615A",
"#+	c #656660",
"$+	c #787975",
"%+	c #73736E",
"&+	c #707168",
"*+	c #6D6F66",
"=+	c #74756F",
"-+	c #55544E",
";+	c #4A4B43",
">+	c #696A60",
",+	c #797972",
"'+	c #6D6C65",
")+	c #676863",
"!+	c #6E6F69",
"~+	c #5E5D58",
"{+	c #575852",
"]+	c #4E4E48",
"^+	c #4D4D47",
"/+	c #4C4B40",
"(+	c #5B5C54",
"_+	c #585753",
":+	c #54544E",
"<+	c #4D4E47",
"[+	c #3B3A34",
"}+	c #525243",
"|+	c #4F5048",
"1+	c #54544D",
"2+	c #5A5B54",
"3+	c #62625C",
"4+	c #5E5F5A",
"5+	c #5B5B52",
"6+	c #525345",
"7+	c #555650",
"8+	c #5E5F58",
"9+	c #62635F",
"0+	c #565749",
"a+	c #535543",
"b+	c #5F6055",
"c+	c #5F5F59",
"d+	c #6B6A66",
"e+	c #6C6C68",
"f+	c #6E6E6A",
"g+	c #666660",
"h+	c #676761",
"i+	c #777773",
"j+	c #777874",
"k+	c #7E7F7A",
"l+	c #707068",
"m+	c #565647",
"n+	c #58574F",
"o+	c #61615B",
"p+	c #5D5C58",
"q+	c #53524B",
"r+	c #6F6F6B",
"s+	c #65665D",
"t+	c #696961",
"u+	c #626257",
"v+	c #58584E",
"w+	c #595B4F",
"x+	c #52524B",
"y+	c #51514D",
"z+	c #4E4D42",
"A+	c #606151",
"B+	c #656459",
"C+	c #636259",
"D+	c #686860",
"E+	c #63635D",
"F+	c #595852",
"G+	c #555450",
"H+	c #484943",
"I+	c #46473E",
"J+	c #494941",
"K+	c #4F4F44",
"L+	c #5A5A53",
"M+	c #4E4D48",
"N+	c #484741",
"O+	c #3B3B34",
"P+	c #57564C",
"Q+	c #50504A",
"R+	c #565651",
"S+	c #5B5C57",
"T+	c #646560",
"U+	c #62625E",
"V+	c #52534A",
"W+	c #4D4F41",
"X+	c #4C4C46",
"Y+	c #50514C",
"Z+	c #595A52",
"`+	c #4E4F44",
" @	c #555548",
".@	c #55554E",
"+@	c #5E5E5A",
"@@	c #63625E",
"#@	c #65655D",
"$@	c #6D6C67",
"%@	c #6C6C66",
"&@	c #6B6A64",
"*@	c #696B56",
"=@	c #545735",
"-@	c #5C5F40",
";@	c #525241",
">@	c #55554A",
",@	c #4D4D46",
"'@	c #6C6B66",
")@	c #696965",
"!@	c #616257",
"~@	c #5A5B50",
"{@	c #54554C",
"]@	c #4D4D45",
"^@	c #525344",
"/@	c #4E4F3E",
"(@	c #51524D",
"_@	c #595A4A",
":@	c #5A5A4A",
"<@	c #575649",
"[@	c #5C5B52",
"}@	c #585952",
"|@	c #51524A",
"1@	c #4A4C44",
"2@	c #484942",
"3@	c #4C4D45",
"4@	c #46463F",
"5@	c #4E4E44",
"6@	c #5E5E57",
"7@	c #444440",
"8@	c #41403C",
"9@	c #3F3D38",
"0@	c #383833",
"a@	c #59594F",
"b@	c #50504C",
"c@	c #565752",
"d@	c #595955",
"e@	c #5B5B56",
"f@	c #5A5A4D",
"g@	c #4C4D40",
"h@	c #4D4D3D",
"i@	c #46463E",
"j@	c #494846",
"k@	c #535452",
"l@	c #565754",
"m@	c #4E4E46",
"n@	c #5D5C56",
"o@	c #54534F",
"p@	c #50504B",
"q@	c #4B4C45",
"r@	c #5E5D55",
"s@	c #62615C",
"t@	c #65645F",
"u@	c #686763",
"v@	c #5F6051",
"w@	c #55573B",
"x@	c #51523E",
"y@	c #505335",
"z@	c #51523F",
"A@	c #6A6A61",
"B@	c #4E4E47",
"C@	c #686864",
"D@	c #60615B",
"E@	c #4F523A",
"F@	c #525249",
"G@	c #4F4F49",
"H@	c #4B4C44",
"I@	c #585848",
"J@	c #5F5F53",
"K@	c #555547",
"L@	c #54534B",
"M@	c #505147",
"N@	c #505048",
"O@	c #484840",
"P@	c #4D4D49",
"Q@	c #4C4C43",
"R@	c #52524A",
"S@	c #403F3A",
"T@	c #3D3D37",
"U@	c #3F3F3A",
"V@	c #373631",
"W@	c #44443C",
"X@	c #3E3E34",
"Y@	c #3D3E35",
"Z@	c #383A2E",
"`@	c #3F4134",
" #	c #3F412E",
".#	c #4C5030",
"+#	c #454832",
"@#	c #404134",
"##	c #414431",
"$#	c #40442F",
"%#	c #3B3D32",
"&#	c #43433C",
"*#	c #3E4035",
"=#	c #3F4038",
"-#	c #44443E",
";#	c #424436",
">#	c #3A3C26",
",#	c #3C3E31",
"'#	c #323423",
")#	c #404429",
"!#	c #404329",
"~#	c #333427",
"{#	c #36372C",
"]#	c #37382B",
"^#	c #323229",
"/#	c #38382F",
"(#	c #3A3C2C",
"_#	c #4A4B45",
":#	c #45463F",
"<#	c #44433E",
"[#	c #48493E",
"}#	c #484B37",
"|#	c #454928",
"1#	c #494B36",
"2#	c #47473F",
"3#	c #404135",
"4#	c #484A35",
"5#	c #3F4032",
"6#	c #3D3D32",
"7#	c #434338",
"8#	c #424238",
"9#	c #3E3E36",
"0#	c #393932",
"a#	c #3D3C36",
"b#	c #41403A",
"c#	c #3D3D36",
"d#	c #3E402C",
"e#	c #424336",
"f#	c #34352B",
"g#	c #333328",
"h#	c #34342C",
"i#	c #393833",
"j#	c #35342F",
"k#	c #343430",
"l#	c #42423D",
"m#	c #4E4F49",
"n#	c #62625A",
"o#	c #64645A",
"p#	c #616444",
"q#	c #646749",
"r#	c #5C603E",
"s#	c #5F6247",
"t#	c #5E5F49",
"u#	c #505140",
"v#	c #49502A",
"w#	c #5C5F46",
"x#	c #595C47",
"y#	c #626450",
"z#	c #737372",
"A#	c #767675",
"B#	c #797979",
"C#	c #7A7B7A",
"D#	c #767674",
"E#	c #6D6E68",
"F#	c #606158",
"G#	c #454532",
"H#	c #6D6E63",
"I#	c #656760",
"J#	c #5F6058",
"K#	c #6C6E63",
"L#	c #6F7067",
"M#	c #6E6F67",
"N#	c #787974",
"O#	c #747673",
"P#	c #54544A",
"Q#	c #515443",
"R#	c #6E6D6A",
"S#	c #71716D",
"T#	c #666663",
"U#	c #70706D",
"V#	c #666563",
"W#	c #646461",
"X#	c #636461",
"Y#	c #51524E",
"Z#	c #464742",
"`#	c #474938",
" $	c #505049",
".$	c #4D4E43",
"+$	c #434431",
"@$	c #4E4F41",
"#$	c #4B4D3A",
"$$	c #4B4C3D",
"%$	c #494A43",
"&$	c #4A4A43",
"*$	c #383632",
"=$	c #32312D",
"-$	c #43433D",
";$	c #45453F",
">$	c #5A5A4F",
",$	c #5E6247",
"'$	c #606444",
")$	c #595D37",
"!$	c #56593C",
"~$	c #585C39",
"{$	c #454537",
"]$	c #45492B",
"^$	c #515246",
"/$	c #525539",
"($	c #747475",
"_$	c #777879",
":$	c #787876",
"<$	c #737370",
"[$	c #777877",
"}$	c #757676",
"|$	c #6B6D67",
"1$	c #5C5E4C",
"2$	c #53544A",
"3$	c #6A6A67",
"4$	c #5E5E59",
"5$	c #5A5B56",
"6$	c #6D6D6C",
"7$	c #757775",
"8$	c #737574",
"9$	c #7A7A79",
"0$	c #666765",
"a$	c #5D5D5B",
"b$	c #4E5045",
"c$	c #70716D",
"d$	c #6E6F6B",
"e$	c #60615D",
"f$	c #595A57",
"g$	c #61615E",
"h$	c #60605D",
"i$	c #5C5D5A",
"j$	c #4F4F4B",
"k$	c #4A4A46",
"l$	c #464641",
"m$	c #3F4232",
"n$	c #5A5B52",
"o$	c #555551",
"p$	c #494A41",
"q$	c #3A3C27",
"r$	c #3D3F27",
"s$	c #43462A",
"t$	c #4C4D3A",
"u$	c #484743",
"v$	c #32302C",
"w$	c #3F3F3B",
"x$	c #515048",
"y$	c #454540",
"z$	c #43443E",
"A$	c #5F6059",
"B$	c #5C5B59",
"C$	c #575854",
"D$	c #53534E",
"E$	c #494A3E",
"F$	c #46492D",
"G$	c #52543F",
"H$	c #525244",
"I$	c #656662",
"J$	c #6B6C6A",
"K$	c #6D6E6C",
"L$	c #6D6E69",
"M$	c #6D6E6A",
"N$	c #6A6B67",
"O$	c #666760",
"P$	c #626355",
"Q$	c #585854",
"R$	c #585853",
"S$	c #646562",
"T$	c #686965",
"U$	c #686865",
"V$	c #656562",
"W$	c #575754",
"X$	c #4C4E3D",
"Y$	c #686863",
"Z$	c #626360",
"`$	c #5D5E58",
" %	c #585954",
".%	c #4B4B46",
"+%	c #3E3E38",
"@%	c #3A3B2C",
"#%	c #4F4F42",
"$%	c #4E4E4A",
"%%	c #45443E",
"&%	c #3E3E35",
"*%	c #474A2C",
"=%	c #4E5131",
"-%	c #3C3A36",
";%	c #484844",
">%	c #4F4E48",
",%	c #474842",
"'%	c #42423B",
")%	c #4D4D48",
"!%	c #555651",
"~%	c #51514C",
"{%	c #53534F",
"]%	c #555652",
"^%	c #52524E",
"/%	c #424338",
"(%	c #43472F",
"_%	c #4D4E42",
":%	c #50514B",
"<%	c #62625D",
"[%	c #5F5F5B",
"}%	c #63645F",
"|%	c #5F6155",
"1%	c #4D4F3F",
"2%	c #4A4A44",
"3%	c #61615F",
"4%	c #60605F",
"5%	c #585856",
"6%	c #50514E",
"7%	c #4C4D3E",
"8%	c #61625E",
"9%	c #53534D",
"0%	c #4C4B46",
"a%	c #3E3E37",
"b%	c #3E3F3A",
"c%	c #37382E",
"d%	c #525247",
"e%	c #494845",
"f%	c #565551",
"g%	c #444437",
"h%	c #4A4A3E",
"i%	c #585953",
"j%	c #4E4D46",
"k%	c #4F4E49",
"l%	c #44443D",
"m%	c #494842",
"n%	c #4A4942",
"o%	c #51504B",
"p%	c #3E3F33",
"q%	c #464A2A",
"r%	c #585852",
"s%	c #5C5D56",
"t%	c #636460",
"u%	c #575B46",
"v%	c #4D4F3C",
"w%	c #535450",
"x%	c #575853",
"y%	c #545550",
"z%	c #53544F",
"A%	c #53544E",
"B%	c #5B5C5A",
"C%	c #52524D",
"D%	c #545451",
"E%	c #4E4F4C",
"F%	c #3A3B2B",
"G%	c #4A4941",
"H%	c #474741",
"I%	c #3F3F38",
"J%	c #393933",
"K%	c #424339",
"L%	c #454536",
"M%	c #474642",
"N%	c #4B4B45",
"O%	c #4E4D47",
"P%	c #4E4E4B",
"Q%	c #555552",
"R%	c #4A4A42",
"S%	c #3B3935",
"T%	c #4B4C47",
"U%	c #5B5C52",
"V%	c #474840",
"W%	c #434538",
"X%	c #4C4D41",
"Y%	c #535346",
"Z%	c #404235",
"`%	c #3D3E33",
" &	c #464936",
".&	c #555839",
"+&	c #48493C",
"@&	c #4E5046",
"#&	c #4C4D42",
"$&	c #4D4E45",
"%&	c #4D4E41",
"&&	c #515343",
"*&	c #46483B",
"=&	c #3A3C2B",
"-&	c #3F4039",
";&	c #3A3C33",
">&	c #454836",
",&	c #484A39",
"'&	c #4C4F43",
")&	c #47483D",
"!&	c #353925",
"~&	c #55574C",
"{&	c #5A5C4F",
"]&	c #4E5044",
"^&	c #525348",
"/&	c #4E4F42",
"(&	c #585850",
"_&	c #4D4F3E",
":&	c #4D4F3D",
"<&	c #474A37",
"[&	c #464831",
"}&	c #4D503E",
"|&	c #494B37",
"1&	c #4A4C3C",
"2&	c #424435",
"3&	c #515441",
"4&	c #555843",
"5&	c #4B4C3E",
"6&	c #494B39",
"7&	c #505145",
"8&	c #56574A",
"9&	c #58594A",
"0&	c #2F2F2A",
"a&	c #707069",
"b&	c #5C5D58",
"c&	c #565A3B",
"d&	c #55573E",
"e&	c #5B5B59",
"f&	c #6A6B68",
"g&	c #505148",
"h&	c #535349",
"i&	c #585A53",
"j&	c #686866",
"k&	c #70706E",
"l&	c #656663",
"m&	c #53563C",
"n&	c #555648",
"o&	c #424335",
"p&	c #676764",
"q&	c #696966",
"r&	c #676865",
"s&	c #4D4F37",
"t&	c #4A4C3E",
"u&	c #464741",
"v&	c #46472E",
"w&	c #525448",
"x&	c #58584F",
"y&	c #4E513E",
"z&	c #494C3C",
"A&	c #4D4E48",
"B&	c #51534B",
"C&	c #565750",
"D&	c #676862",
"E&	c #595953",
"F&	c #565650",
"G&	c #494844",
"H&	c #555549",
"I&	c #4C4C42",
"J&	c #4A4B3C",
"K&	c #4B4C40",
"L&	c #52534F",
"M&	c #5D5E5A",
"N&	c #636360",
"O&	c #4E4F48",
"P&	c #45453B",
"Q&	c #656561",
"R&	c #686966",
"S&	c #5A5B51",
"T&	c #505331",
"U&	c #505234",
"V&	c #404130",
"W&	c #61615D",
"X&	c #6A6A68",
"Y&	c #4D4E3A",
"Z&	c #4A4B3B",
"`&	c #4B4C3B",
" *	c #45453C",
".*	c #55564D",
"+*	c #60605C",
"@*	c #5A5A54",
"#*	c #4D4E49",
"$*	c #4E4E49",
"%*	c #4F5046",
"&*	c #504F4D",
"**	c #505144",
"=*	c #52524C",
"-*	c #505044",
";*	c #47473B",
">*	c #404039",
",*	c #474740",
"'*	c #3F3F33",
")*	c #47483F",
"!*	c #4E4F43",
"~*	c #494A3C",
"{*	c #48483D",
"]*	c #4A4A3C",
"^*	c #47473E",
"/*	c #494942",
"(*	c #414236",
"_*	c #575752",
":*	c #5F605D",
"<*	c #56574E",
"[*	c #484932",
"}*	c #404131",
"|*	c #5E5F5B",
"1*	c #595A54",
"2*	c #4C4C41",
"3*	c #46463B",
"4*	c #5B5B58",
"5*	c #4F4F4A",
"6*	c #454739",
"7*	c #4B4C46",
"8*	c #4B4B48",
"9*	c #494A3A",
"0*	c #4A4A45",
"a*	c #403E3A",
"b*	c #3B3B35",
"c*	c #3A3834",
"d*	c #484944",
"e*	c #403F3D",
"f*	c #393936",
"g*	c #3F3E3A",
"h*	c #41413E",
"i*	c #40422D",
"j*	c #434336",
"k*	c #44453D",
"l*	c #43433A",
"m*	c #484941",
"n*	c #4A4B41",
"o*	c #4A4A41",
"p*	c #4B4E3C",
"q*	c #4F513B",
"r*	c #46463C",
"s*	c #46463A",
"t*	c #62625F",
"u*	c #595956",
"v*	c #565653",
"w*	c #4C4C45",
"x*	c #45463B",
"y*	c #444538",
"z*	c #383A2D",
"A*	c #57574C",
"B*	c #51524B",
"C*	c #4D4C45",
"D*	c #48483F",
"E*	c #464640",
"F*	c #565751",
"G*	c #545551",
"H*	c #565753",
"I*	c #4D4E46",
"J*	c #444438",
"K*	c #42423C",
"L*	c #44453C",
"M*	c #3D3C37",
"N*	c #3B3A32",
"O*	c #35362C",
"P*	c #32332A",
"Q*	c #2C2C27",
"R*	c #4D522C",
"S*	c #3A3B33",
"T*	c #383931",
"U*	c #383730",
"V*	c #37392E",
"W*	c #3B3D28",
"X*	c #454927",
"Y*	c #484C2B",
"Z*	c #454735",
"`*	c #404231",
" =	c #3C3D30",
".=	c #393A29",
"+=	c #424331",
"@=	c #3F403B",
"#=	c #40413B",
"$=	c #414239",
"%=	c #3B3B36",
"&=	c #393934",
"*=	c #383832",
"==	c #33332D",
"-=	c #37362F",
";=	c #3F4225",
">=	c #3C3D2F",
",=	c #33342D",
"'=	c #32332C",
")=	c #34342D",
"!=	c #34342E",
"~=	c #393A32",
"{=	c #393931",
"]=	c #3A3D2F",
"^=	c #454640",
"/=	c #41423E",
"(=	c #3B3C35",
"_=	c #41423B",
":=	c #42433B",
"<=	c #393A2E",
"[=	c #3E3F2D",
"}=	c #333525",
"|=	c #414232",
"1=	c #32322A",
"2=	c #3B3C33",
"3=	c #43443C",
"4=	c #6A6D58",
"5=	c #5E5E53",
"6=	c #4A4A3D",
"7=	c #434232",
"8=	c #444435",
"9=	c #4E4F3F",
"0=	c #525449",
"a=	c #50514A",
"b=	c #46483C",
"c=	c #5D5E56",
"d=	c #50523E",
"e=	c #565843",
"f=	c #58594D",
"g=	c #737470",
"h=	c #6F6F6A",
"i=	c #61625C",
"j=	c #585951",
"k=	c #565948",
"l=	c #65655F",
"m=	c #5C5D57",
"n=	c #595A53",
"o=	c #57584E",
"p=	c #515249",
"q=	c #55564F",
"r=	c #414235",
"s=	c #50524A",
"t=	c #676760",
"u=	c #4C4D43",
"v=	c #46473C",
"w=	c #5C5E4B",
"x=	c #535544",
"y=	c #48493F",
"z=	c #525343",
"A=	c #5B5D4E",
"B=	c #545740",
"C=	c #454837",
"D=	c #42433E",
"E=	c #42433C",
"F=	c #585A4C",
"G=	c #47473D",
"H=	c #434430",
"I=	c #484A31",
"J=	c #3C3E25",
"K=	c #49493F",
"L=	c #474745",
"M=	c #4A4B48",
"N=	c #4C4C44",
"O=	c #47493F",
"P=	c #4F504D",
"Q=	c #5A5C58",
"R=	c #4A4B40",
"S=	c #4B4B40",
"T=	c #646563",
"U=	c #5C5C59",
"V=	c #5C5C5A",
"W=	c #4D4F49",
"X=	c #61625F",
"Y=	c #575651",
"Z=	c #595A56",
"`=	c #5B5B57",
" -	c #4F504B",
".-	c #3D3D34",
"+-	c #595A55",
"@-	c #494A47",
"#-	c #434440",
"$-	c #3A392F",
"%-	c #3F3F31",
"&-	c #414139",
"*-	c #3C3C35",
"=-	c #383834",
"--	c #434438",
";-	c #454730",
">-	c #3F403D",
",-	c #3D3D38",
"'-	c #3F3F3C",
")-	c #3C3C38",
"!-	c #43433F",
"~-	c #454642",
"{-	c #464644",
"]-	c #434332",
"^-	c #494940",
"/-	c #494A45",
"(-	c #464745",
"_-	c #454543",
":-	c #4C4C49",
"<-	c #50524C",
"[-	c #3F4138",
"}-	c #4C4D47",
"|-	c #4F5049",
"1-	c #47483E",
"2-	c #4D4E4A",
"3-	c #4C4D46",
"4-	c #595954",
"5-	c #4D4C46",
"6-	c #464643",
"7-	c #3D3D35",
"8-	c #484946",
"9-	c #4A4A48",
"0-	c #3E3F37",
"a-	c #36372D",
"b-	c #39392F",
"c-	c #404137",
"d-	c #3C3E29",
"e-	c #3F412C",
"f-	c #3A3A34",
"g-	c #3C3C39",
"h-	c #3A3A36",
"i-	c #3D3E3A",
"j-	c #474742",
"k-	c #54564D",
"l-	c #404336",
"m-	c #4D4E4B",
"n-	c #50504F",
"o-	c #4B4C49",
"p-	c #4A4C42",
"q-	c #545350",
"r-	c #52534D",
"s-	c #4C4C48",
"t-	c #4B4A44",
"u-	c #494943",
"v-	c #3D3E30",
"w-	c #484846",
"x-	c #4C4D4A",
"y-	c #3A3933",
"z-	c #3A3A33",
"A-	c #43433B",
"B-	c #43423F",
"C-	c #3C3D28",
"D-	c #3C3E2D",
"E-	c #3A3B30",
"F-	c #363631",
"G-	c #3A3B36",
"H-	c #383835",
"I-	c #373835",
"J-	c #333330",
"K-	c #3E3F38",
"L-	c #4C4E41",
"M-	c #46493A",
"N-	c #4B4B47",
"O-	c #4B4A46",
"P-	c #494A42",
"Q-	c #44453F",
"R-	c #42413B",
"S-	c #41433B",
"T-	c #41413B",
"U-	c #3C3B34",
"V-	c #3C3C37",
"W-	c #3A3A31",
"X-	c #3C3B33",
"Y-	c #333426",
"Z-	c #4B4B49",
"`-	c #434340",
" ;	c #3C3B35",
".;	c #3E3E30",
"+;	c #3D3D31",
"@;	c #3E3E3B",
"#;	c #363727",
"$;	c #404225",
"%;	c #3D3E28",
"&;	c #363632",
"*;	c #373731",
"=;	c #404139",
"-;	c #3D3E32",
";;	c #3C3D2E",
">;	c #363827",
",;	c #3F4139",
"';	c #484D2B",
");	c #555942",
"!;	c #51563E",
"~;	c #555A41",
"{;	c #494B42",
"];	c #44463A",
"^;	c #43453C",
"/;	c #4A4B44",
"(;	c #46483D",
"_;	c #46473B",
":;	c #4A4E31",
"<;	c #484C33",
"[;	c #464838",
"};	c #44453A",
"|;	c #404232",
"1;	c #434537",
"2;	c #373A23",
"3;	c #53534B",
"4;	c #505248",
"5;	c #4A4D3E",
"6;	c #434437",
"7;	c #444730",
"8;	c #4A4B3D",
"9;	c #45463C",
"0;	c #414430",
"a;	c #2B2E19",
"b;	c #3A3B31",
"c;	c #3C3D34",
"d;	c #3B3D34",
"e;	c #2A2A25",
"f;	c #484948",
"g;	c #474736",
"h;	c #41422F",
"i;	c #484839",
"j;	c #3C402C",
"k;	c #555653",
"l;	c #585956",
"m;	c #535453",
"n;	c #535352",
"o;	c #585A59",
"p;	c #596036",
"q;	c #545841",
"r;	c #414234",
"s;	c #4F504C",
"t;	c #4A4B47",
"u;	c #434634",
"v;	c #5A5955",
"w;	c #3F3F36",
"x;	c #4E503C",
"y;	c #3F3F39",
"z;	c #393D24",
"A;	c #4F504E",
"B;	c #51514F",
"C;	c #565755",
"D;	c #51514E",
"E;	c #484744",
"F;	c #3D3E2F",
"G;	c #444539",
"H;	c #494A32",
"I;	c #424237",
"J;	c #4F4F48",
"K;	c #33352D",
"L;	c #3D3E3B",
"M;	c #4B4C48",
"N;	c #4F4F4C",
"O;	c #525351",
"P;	c #45463D",
"Q;	c #464836",
"R;	c #404133",
"S;	c #484B30",
"T;	c #3A3B29",
"U;	c #42423A",
"V;	c #4F504A",
"W;	c #42433D",
"X;	c #464541",
"Y;	c #464540",
"Z;	c #3F3F37",
"`;	c #4E4E4C",
" >	c #3B3C34",
".>	c #3D4129",
"+>	c #50514F",
"@>	c #42423E",
"#>	c #3D3D2D",
"$>	c #454631",
"%>	c #464634",
"&>	c #404035",
"*>	c #474743",
"=>	c #474A3B",
"->	c #414237",
";>	c #3F4133",
">>	c #36372E",
",>	c #43423D",
"'>	c #33332B",
")>	c #3B3B38",
"!>	c #363533",
"~>	c #343724",
"{>	c #31312C",
"]>	c #373825",
"^>	c #44452C",
"/>	c #41432D",
"(>	c #404031",
"_>	c #3F3F35",
":>	c #383A2F",
"<>	c #393A2F",
"[>	c #3A3A32",
"}>	c #444540",
"|>	c #4C4C4A",
"1>	c #45483B",
"2>	c #4A4D3B",
"3>	c #42423F",
"4>	c #404138",
"5>	c #414137",
"6>	c #4D4C48",
"7>	c #2C2B26",
"8>	c #40412E",
"9>	c #373732",
"0>	c #333431",
"a>	c #2D2D29",
"b>	c #2B2D1C",
"c>	c #40403D",
"d>	c #3C3D38",
"e>	c #313228",
"f>	c #2F2F29",
"g>	c #313129",
"h>	c #31322C",
"i>	c #3B3C37",
"j>	c #46473F",
"k>	c #323425",
"l>	c #353727",
"m>	c #2E2E27",
"n>	c #35362F",
"o>	c #373730",
"p>	c #393B32",
"q>	c #414339",
"r>	c #484C3C",
"s>	c #3C3C36",
"t>	c #393A34",
"u>	c #333628",
"v>	c #42462E",
"w>	c #30312B",
"x>	c #33352F",
"y>	c #373831",
"z>	c #32322C",
"A>	c #34352E",
"B>	c #32332D",
"C>	c #40413A",
"D>	c #41423C",
"E>	c #393A35",
"F>	c #3A3B35",
"G>	c #3A3B32",
"H>	c #34362B",
"I>	c #343628",
"J>	c #373928",
"K>	c #363726",
"L>	c #44472F",
"M>	c #2F3027",
"N>	c #2C2C24",
"O>	c #272720",
"P>	c #292922",
"Q>	c #343920",
"R>	c #34362A",
"S>	c #33332C",
"T>	c #323327",
"U>	c #363828",
"V>	c #323427",
"W>	c #31312A",
"X>	c #57594F",
"Y>	c #54564C",
"Z>	c #494B3E",
"`>	c #555749",
" ,	c #515347",
".,	c #65665F",
"+,	c #62635D",
"@,	c #575952",
"#,	c #5B5D52",
"$,	c #5E6052",
"%,	c #64655C",
"&,	c #46483A",
"*,	c #676860",
"=,	c #5A5B53",
"-,	c #63655D",
";,	c #5E6057",
">,	c #606256",
",,	c #5D5E55",
"',	c #56584F",
"),	c #575A4D",
"!,	c #4B4D43",
"~,	c #57584F",
"{,	c #57574D",
"],	c #56574D",
"^,	c #5A5B55",
"/,	c #535549",
"(,	c #505149",
"_,	c #4F5143",
":,	c #515739",
"<,	c #595B4C",
"[,	c #616450",
"},	c #5C5F4F",
"|,	c #4E4F47",
"1,	c #515348",
"2,	c #434636",
"3,	c #383B29",
"4,	c #57584B",
"5,	c #494B3B",
"6,	c #4C4F3C",
"7,	c #40422B",
"8,	c #43423C",
"9,	c #45463E",
"0,	c #5A5A59",
"a,	c #4C4E3F",
"b,	c #3F403A",
"c,	c #4C4D49",
"d,	c #575953",
"e,	c #424439",
"f,	c #545553",
"g,	c #5B5C59",
"h,	c #51524C",
"i,	c #46473D",
"j,	c #494A40",
"k,	c #53544D",
"l,	c #43443F",
"m,	c #3D3E38",
"n,	c #373830",
"o,	c #393A2A",
"p,	c #51533F",
"q,	c #3D3D39",
"r,	c #484845",
"s,	c #494946",
"t,	c #3F4037",
"u,	c #383A26",
"v,	c #575756",
"w,	c #575755",
"x,	c #494B40",
"y,	c #44453E",
"z,	c #464740",
"A,	c #424437",
"B,	c #4F4F4D",
"C,	c #4F514A",
"D,	c #45453D",
"E,	c #3E4034",
"F,	c #32322E",
"G,	c #444736",
"H,	c #47493B",
"I,	c #424340",
"J,	c #3E3F39",
"K,	c #403F39",
"L,	c #3A3A2D",
"M,	c #50504D",
"N,	c #484940",
"O,	c #3B3C36",
"P,	c #40403A",
"Q,	c #41413A",
"R,	c #3D3F33",
"S,	c #434534",
"T,	c #3E3D37",
"U,	c #353631",
"V,	c #34352F",
"W,	c #35362E",
"X,	c #36372F",
"Y,	c #404236",
"Z,	c #3F3E38",
"`,	c #3F403C",
" '	c #484A41",
".'	c #494A46",
"+'	c #3E3E32",
"@'	c #35352F",
"#'	c #393A2C",
"$'	c #313227",
"%'	c #313220",
"&'	c #343427",
"*'	c #333327",
"='	c #35362D",
"-'	c #3B3B33",
";'	c #32332F",
">'	c #383831",
",'	c #373630",
"''	c #363630",
")'	c #3C3E30",
"!'	c #36352F",
"~'	c #38392B",
"{'	c #3C3A34",
"]'	c #33342B",
"^'	c #303029",
"/'	c #2E2F27",
"('	c #32332E",
"_'	c #3B3C31",
":'	c #3B3C2C",
"<'	c #37382A",
"['	c #404038",
"}'	c #3D3E37",
"|'	c #4F5246",
"1'	c #4C4E40",
"2'	c #484936",
"3'	c #48483B",
"4'	c #414338",
"5'	c #404237",
"6'	c #363629",
"7'	c #3F4036",
"8'	c #484B3A",
"9'	c #484A3D",
"0'	c #4A4C41",
"a'	c #3B3D31",
"b'	c #3A3B2F",
"c'	c #45473B",
"d'	c #4C4E3E",
"e'	c #505240",
"f'	c #3A3C2F",
"g'	c #55574D",
"h'	c #484A3F",
"i'	c #36362D",
"j'	c #3B3C2F",
"k'	c #3F402F",
"l'	c #40432D",
"m'	c #3F432E",
"n'	c #3D402E",
"o'	c #47483B",
"p'	c #36382A",
"q'	c #3C3E2E",
"r'	c #2F3222",
"s'	c #313426",
"t'	c #393B2C",
"u'	c #474C2D",
"v'	c #474934",
"w'	c #424432",
"x'	c #3C3D31",
"y'	c #37372D",
"z'	c #34342A",
"A'	c #3E3D33",
"B'	c #2C2A25",
"C'	c #4A4A49",
"D'	c #434341",
"E'	c #474844",
"F'	c #5A5A55",
"G'	c #50504E",
"H'	c #525352",
"I'	c #42433F",
"J'	c #3C3D37",
"K'	c #464743",
"L'	c #4A4A47",
"M'	c #3D3C33",
"N'	c #3C3C2F",
"O'	c #3D3D2F",
"P'	c #404228",
"Q'	c #3F4135",
"R'	c #43443A",
"S'	c #363733",
"T'	c #34352D",
"U'	c #3D3D33",
"V'	c #3D3F2A",
"W'	c #3D3F23",
"X'	c #3E402E",
"Y'	c #393A33",
"Z'	c #383935",
"`'	c #34342B",
" )	c #393832",
".)	c #353630",
"+)	c #3B3A33",
"@)	c #40413D",
"#)	c #3B3A38",
"$)	c #3A3C30",
"%)	c #37372E",
"&)	c #3D3E2B",
"*)	c #313229",
"=)	c #42433A",
"-)	c #3C3C2A",
";)	c #3C3E2A",
">)	c #3A3932",
",)	c #363732",
"')	c #363627",
"))	c #373833",
"!)	c #3D3F2E",
"~)	c #3E3E31",
"{)	c #3B3A35",
"])	c #3D3E34",
"^)	c #3C3C34",
"/)	c #474841",
"()	c #3D3E2C",
"_)	c #303128",
":)	c #3F3E36",
"<)	c #31312D",
"[)	c #3C3D39",
"})	c #40413C",
"|)	c #363823",
"1)	c #3F402B",
"2)	c #34332D",
"3)	c #3E3D35",
"4)	c #33342C",
"5)	c #3D3D3A",
"6)	c #373634",
"7)	c #333430",
"8)	c #33332F",
"9)	c #393A31",
"0)	c #3A3B34",
"a)	c #3A3A30",
"b)	c #2B2B26",
"c)	c #2D2D28",
"d)	c #2A2A24",
"e)	c #383A2B",
"f)	c #313329",
"g)	c #2E2F29",
"h)	c #2D2D27",
"i)	c #2C2D21",
"j)	c #2C2D27",
"k)	c #31312B",
"l)	c #2C2C25",
"m)	c #282721",
"n)	c #2E2F24",
"o)	c #36382D",
"p)	c #30302D",
"q)	c #363730",
"r)	c #343528",
"s)	c #454539",
"t)	c #2D2E26",
"u)	c #282723",
"v)	c #2F312A",
"w)	c #35352E",
"x)	c #35342E",
"y)	c #414136",
"z)	c #3C3D32",
"A)	c #4B4D44",
"B)	c #4E513D",
"C)	c #3E4130",
"D)	c #4A4A40",
"E)	c #4E4F46",
"F)	c #4E4F45",
"G)	c #45453A",
"H)	c #424538",
"I)	c #4B4C42",
"J)	c #5D5F51",
"K)	c #595C4F",
"L)	c #4E5047",
"M)	c #585950",
"N)	c #484B3B",
"O)	c #4B4C43",
"P)	c #414337",
"Q)	c #52544A",
"R)	c #51534C",
"S)	c #34372E",
"T)	c #303325",
"U)	c #3D3F36",
"V)	c #42443A",
"W)	c #414434",
"X)	c #404337",
"Y)	c #3D412B",
"Z)	c #4C5135",
"`)	c #4E5041",
" !	c #4B4B3E",
".!	c #383731",
"+!	c #343431",
"@!	c #434441",
"#!	c #47493A",
"$!	c #37382C",
"%!	c #3E3F36",
"&!	c #3C3E33",
"*!	c #323129",
"=!	c #383734",
"-!	c #383933",
";!	c #35372B",
">!	c #3B3B2E",
",!	c #353530",
"'!	c #464832",
")!	c #43423B",
"!!	c #44443B",
"~!	c #393830",
"{!	c #2F2F27",
"]!	c #36362E",
"^!	c #3C3D35",
"/!	c #32332B",
"(!	c #313127",
"_!	c #33352A",
":!	c #32322B",
"<!	c #383A29",
"[!	c #31302D",
"}!	c #43462C",
"|!	c #36352E",
"1!	c #4C4E3C",
"2!	c #44433C",
"3!	c #3F3E37",
"4!	c #323228",
"5!	c #2E2D27",
"6!	c #40423A",
"7!	c #494A44",
"8!	c #2E2E28",
"9!	c #303228",
"0!	c #36362F",
"a!	c #3A3A2C",
"b!	c #373734",
"c!	c #3C3E2B",
"d!	c #45463A",
"e!	c #383830",
"f!	c #35352D",
"g!	c #302F2C",
"h!	c #302F2D",
"i!	c #2E2E2A",
"j!	c #30302A",
"k!	c #2C2C28",
"l!	c #363634",
"m!	c #363633",
"n!	c #33322F",
"o!	c #3C3C2E",
"p!	c #404132",
"q!	c #3B3B31",
"r!	c #484742",
"s!	c #3E3F34",
"t!	c #464739",
"u!	c #404234",
"v!	c #3B3E2B",
"w!	c #3E412B",
"x!	c #3B3C29",
"y!	c #3E3F35",
"z!	c #46483E",
"A!	c #3F4137",
"B!	c #393A30",
"C!	c #404238",
"D!	c #424536",
"E!	c #2F3029",
"F!	c #37392C",
"G!	c #444739",
"H!	c #38392E",
"I!	c #424337",
"J!	c #3F4136",
"K!	c #3C3D36",
"L!	c #38392F",
"M!	c #2F3028",
"N!	c #2E3027",
"O!	c #2E2F26",
"P!	c #303027",
"Q!	c #333428",
"R!	c #2E2F1F",
"S!	c #313223",
"T!	c #2D2D24",
"U!	c #2F2F24",
"V!	c #3D3E36",
"W!	c #474641",
"X!	c #33342E",
"Y!	c #383932",
"Z!	c #404136",
"`!	c #30312C",
" ~	c #424533",
".~	c #393C2B",
"+~	c #33342F",
"@~	c #373832",
"#~	c #414138",
"$~	c #47473A",
"%~	c #474836",
"&~	c #474737",
"*~	c #515145",
"=~	c #48493D",
"-~	c #50514D",
";~	c #393831",
">~	c #323429",
",~	c #373729",
"'~	c #383836",
")~	c #3D3D3B",
"!~	c #424139",
"~~	c #2F3125",
"{~	c #393B31",
"]~	c #37372F",
"^~	c #2E2F2A",
"/~	c #383A28",
"(~	c #3C3E27",
"_~	c #3E402F",
":~	c #3B3B3A",
"<~	c #363729",
"[~	c #363829",
"}~	c #333230",
"|~	c #35362A",
"1~	c #3A3C22",
"2~	c #383920",
"3~	c #353532",
"4~	c #3B3B32",
"5~	c #4E4F4A",
"6~	c #3C3D2C",
"7~	c #383A21",
"8~	c #2A2B22",
"9~	c #373828",
"0~	c #333331",
"a~	c #363734",
"b~	c #3B3A37",
"c~	c #373834",
"d~	c #393836",
"e~	c #3D3F2F",
"f~	c #2C2E24",
"g~	c #343526",
"h~	c #38392D",
"i~	c #353632",
"j~	c #383B27",
"k~	c #35372C",
"l~	c #2E2E2B",
"m~	c #333326",
"n~	c #343531",
"o~	c #353529",
"p~	c #44423E",
"q~	c #3E3F2F",
"r~	c #333420",
"s~	c #35342D",
"t~	c #2A2B21",
"u~	c #2F2D2A",
"v~	c #343529",
"w~	c #333324",
"x~	c #303028",
"y~	c #302F29",
"z~	c #2F3025",
"A~	c #31302A",
"B~	c #353726",
"C~	c #313224",
"D~	c #2F2F22",
"E~	c #32312A",
"F~	c #36352C",
"G~	c #33322C",
"H~	c #313027",
"I~	c #2E2E23",
"J~	c #2C2D1E",
"K~	c #27271D",
"L~	c #2F2F23",
"M~	c #2B2B27",
"N~	c #343527",
"O~	c #363628",
"P~	c #353528",
"Q~	c #2D2E24",
"R~	c #28281F",
"S~	c #252620",
"T~	c #333228",
"U~	c #34361B",
"V~	c #292A21",
"W~	c #3B3F21",
"X~	c #363822",
"Y~	c #30302C",
"Z~	c #303024",
"`~	c #484740",
" {	c #414233",
".{	c #30321F",
"+{	c #333523",
"@{	c #313323",
"#{	c #38392C",
"${	c #434539",
"%{	c #3F4035",
"&{	c #36382E",
"*{	c #414238",
"={	c #48493A",
"-{	c #4F5140",
";{	c #515442",
">{	c #474A39",
",{	c #35352A",
"'{	c #353629",
"){	c #515444",
"!{	c #4E5040",
"~{	c #4A4D39",
"{{	c #3B3C2E",
"]{	c #3F4034",
"^{	c #2F2F2B",
"/{	c #333423",
"({	c #2D2D26",
"_{	c #303222",
":{	c #33332A",
"<{	c #313128",
"[{	c #373726",
"}{	c #36362A",
"|{	c #494843",
"1{	c #2F3127",
"2{	c #3E3F31",
"3{	c #383934",
"4{	c #3B3B39",
"5{	c #3C3C3A",
"6{	c #2B2B25",
"7{	c #2B2B23",
"8{	c #2D2D22",
"9{	c #313322",
"0{	c #373824",
"a{	c #30312A",
"b{	c #383927",
"c{	c #292825",
"d{	c #2C2D24",
"e{	c #363731",
"f{	c #363728",
"g{	c #464733",
"h{	c #3F3F3D",
"i{	c #282822",
"j{	c #282823",
"k{	c #2A2922",
"l{	c #292B1B",
"m{	c #363826",
"n{	c #343530",
"o{	c #2B2C23",
"p{	c #383829",
"q{	c #2D2D2A",
"r{	c #282824",
"s{	c #2F2F26",
"t{	c #4E4F3A",
"u{	c #2C2C26",
"v{	c #2B2D25",
"w{	c #252420",
"x{	c #2F3023",
"y{	c #2F2F2C",
"z{	c #282921",
"A{	c #24241F",
"B{	c #262520",
"C{	c #32312B",
"D{	c #272723",
"E{	c #42413E",
"F{	c #262521",
"G{	c #272621",
"H{	c #2F2D28",
"  . . . . + @ # $ % & * % = - ; > , % ' ) ! ! , , ~ . . { ] ^ / { ( . . / . . . / / / ! ! * % _ : < < + . [ } } } | | | | } } / ",
". [ 1 } . + , * $ 2 = % 3 4 5 6 7 - 8 9 2 % 0 a 0 8 ) ! b c d e f g 1 } } h / ! & : i j k l m m n $ * & . } | | | | | | | } h / ",
"| | o / o p _ q 5 - r s t u v w x y 9 z A A B 9 C D B E F G H d f g I | | / + J , K r L M - A N s r O ' i / | | | | | | | | 1 I ",
"| | . i P Q 2 y u R S v T U T V W X Y Z D ` u v  .Z ` - ..+.< @.#.$.: & j * ) % %.&.*.Z S =.` -.;.>.,.r _ './ [ [ / | | | } 1 / ",
"| + P & ).!.~.{.].^./.(._.:.<.[.}.|.1.2.3.4.5.}.6.7.8.9.0.a.b.c.d.e.f.g.h.i.j.k.l.m.n.h.o.p.q.r.s.t.u.v.w.x.y.z.A.B.C.6 , '.I / ",
"+ i D._ E.!.F.}.G.H.I.J.K.u.L.M.N.O.P.Q.R.S.T.U.V.W.X.Y.Z.`. +p..+++@+#+$+%+&+*+=+].-+;+>+,+'+)+!+g.~+{+]+^+/+(+_+:+<+[+P ! p / ",
"p < , E }+|+1+2+3+4+5+6+7+8+9+0+a+b+c+d+e+f+g+h+!+i+j+k+l+m+n+o+p+q+q.r+s+t+u+v+w+x+y+z+A+B+C+D+E+F+G+H+I+J+K+L+M+T N+O+m Q * + ",
"< ! 8 q P+Q+R+S+T+U+V+W+X+Y+Z+`+ @b..@+@@@9+h.#@$@%@Z.&@*@=@-@;@>@,@'@)@!@~@{@]@^@/@(@5._@:@<@[@}@|@1@2@3@4@5@6@7@S 8@9@= ! ! + ",
". ~ q 0@a@Q+b@c@d@e@f@g@h@i@j@k@l@.@m@n@o@p@q@r@s@t@u@v@w@x@y@z@A@B@[.C@D@.@M+E@x@F@G@H@I@J@K@L@M@N@O@A.z.P@Q@R@Z S@T@U@0 m , ~ ",
". , V@U@W@X@Y@Z@`@ #.#+#O+@###$#%#&#@#*#=#-#;#>#,#'#)#!#~#{#]#^#/#(#_#:#<#[#}#|#1#2#J+3#4#5#6#7#8#9#0#a#b#c#d#e#f#g#h#O+i#j#n i ",
", k#C l#m#H@.@n#o#p#q#r#s#t#u#v#w#x#y#z#A#B#C#D#i+E#F#G#H#I#J#K#L#M#N#O#M#P#Q#i+R#S#T#U#V#W#X#Y#Z#`#R+ $F@.$+$@$#$$$%$&$*$' l ! ",
"=$=$0@*.-$;$]+n.>$,$'$)$!$~${$]$^$/$T+($_$:$<$[$}$|$1$2$3$R+4$5$6$7$8$9$0$a$b$c$d$e$f$g$h$i$j$k$l$m$n$o$5.p$q$r$s$t$U u$i#=$v$@ ",
"* = w$l#x$y$z$Q@c@A$6@B$C$D$E$F$G$H$I$J$K$L$M$N$M$O$P$^$W#Q$R$c@S$T$U$V$I$W$X$Y$Z$`$ %5.P@P@.%U@+%@%#%$%^+%%&%*%=%&$V &$8@-%Q i ",
"i % 8@;%>%,%B.'%)%!%~%{%]%^%/%(%_%:%b.2+2+<%r.[%`$}%|%1%:+2%:+7+d@3%Z$4%5%6%7%8%!%9%U+0%W l#l#a%b%c%d%e%f%w Z g%h%p@i%j%=.r * . ",
", ' R W k%l%m%4@n%o%p@q@&$,%p%q%2@X+r%D$r%n.s%}%t%R$u%v%w%x%y%z%A%B%C%D%E%7@F%G%H%%%-#D I%J%N J%+%K%L%M%N%<#O%T P%Q%5.R%8@r i . ",
"n S%;%T%L.U%V%W%X%Y%Z%`%U@l# &.&+&@&#&$&%&&&*&=&-&;&>&,&%$Q@'&)&E$!&~&{&]&^&/&(&_&:&<&[&}&|&1&<&2&3&4&5&`#@$6&7&8&9&X%B@l$9 0&~ ",
"E U@x.)%a&b&|@c&d&^%'%&#]%e&Z$f&T$3$g&(&h&.@B@i&j&Z$<.r.k&0$l&m&n&o&p&/.q&r&9+C$s&t&u&v&w&x&y&z&^+:%X+A&B&C&8&D&e&_.E&F&G&7@V@# ",
"> ` W T 5$H&I&J&K&{%B.I%;$L&B%M&N&4.4@O&R@I&P&3@Q&R&D#p&g$T#S&T&U&V&W&6.X&W#e@9%Y&Z&`& *.*+*@*m@A&P@H+2%#*$*%*b&&*Y+**9%>.Y ` _ ",
"=$C *.;.=*-*;*>*Y P@,*'*C.)*!*O&9%|.~*{*]*^*/*(*_*:*g$:*:*Z$<*[*[&}*5$4$|*1*.$)%2*~*3*,*h.c@4*C%d@A&5*,@,%C.6*7*7@8*9*2@0*a*b*j ",
", c*Z d*X+y$e*f*g*h*i*j*k*l*m*n*o*p*q*r*s*i%=**&9+h$t*u*v*w.w*x*y*z*A*B*,@C*).D*_#A.;$E*F*G* %H*L&I*,@N%&#c#J*N%` K*L*]+Z M*B $ ",
"l 9 U@T B.N*O*P*Q*k R*}*S*T*U*V*W*X*Y*Z*`* =.=+=;.@=#=$=%=&=*===-=;=>=0#==,='=)=!=0#~={=]=2@^=/=(=_=:=<=[=p%}=|=h#1=2=3=M*7 0 , ",
"m 5 l#H+4=5=^$6=7=8=9=0=a=7+K&b=c=[.Z+d=e=f=M$g=h=i=j=k=l=w*E&m=n=L.o=p=I.q=r=s=t=u=v=]@B*O&w=x=y=V+e#8#z=A=B=C=D=.%#=E=Y ` a , ",
"* 8 l#U F=B@G=H=I=J=K=L=M=T%N=O=P=c@Q=R=S=_.T=4+U=V=$*W=X=Y=4$Z=`=y%4+y%b@ -.-+-@-#-$-%-&-*-=-U /*S *.--;-|=>-,-,-'-'-L y$C =$! ",
"! l )-!-;.~-{-]-i@^-/-(-_-:-<-[-}-|-v*1-G@^%L&Y+2-w%{%3-4-d@+*F*(.~%5-}-z$6-7-#*8-9-0-a-b-0@` 5 :#y$Z c-d-e-5 f-*=3 g-)-Z 0 E i ",
"~ j#h--.3=@=i-Z M*;$j-b%u @-k-l-A&m-n-$%A.j$^%_#-.o- -p-q-r-s-t-;$&#u-Y D :=v-8*w-x-j@y-z-!=)=&.A-B-b*x* *C-D-E-*=F-G-M*i#l Q i ",
"+ ' C w ,-H-I-J-5 )-Y *.K-_#L-M-t-N-s-O-P-Q-A.:#I%R-;$S-R g*T-K*a#U-V-D W-X-Y-x.Z-`-7@ ;.;+;j 4 {=u @;r=u&#;$;%;; &;&=*;l & < i ",
"| _ g*Y G@;+=;-;;;>;Z@,;';);!;~;{;3=];^;k*/;(;_;:;<;[;~*R=]&};^;|;1;2;.$u=3;.$4;t&3&5;L-6;-;7;,&8;Z%9;0;a;b=b;c;#=d;S*c;% + . + ",
"| e;4 )-m@9-f;6;g;h;i;j=j;{-8*k;l;V=m;n;k@5%o;I+p;q;r;4@5*s;}-d*A&t;u;4.v;)%!-T M%Y x K*>*w;x; -#*s-b%y;z;s%A;B;C;D;E;R-p | | | ",
". . * - L%F;G;H;I;o&4@J;K;L;u W u-W M;N;o-^%O;P;Q;R;S;T;U;V;/;j-m#W;_;M+X;X Y Y;l$u&;.z$7-Z;v=`;;%>-5  >.>|+:-+>@-j-@>U@@ i | [ ",
"[ [ Q 8 #>[=$>%>&>B.6-:%;&@=*-S@u&,%=;;.W *>@-=>E$Z ->9#>*V U Q-;>K->>l$N l Z ,>-.v  .l#4 '>r=h*)>!>; 3 ~>,*^=6-%=A A - , Q + [ ",
"[ [ Q {>]>^>/>(>_>-&e*=*:><>[>+%}>|>k$s-`-#=#-1>2>M;8-w 3>!-'-4>5>h*~=G&-.6>z$=.X;y i#6 7>O*8>9>0>a>J j#b>-#c>d>&.4 8 8 B % 7>[ ",
"[ | p 0&$-^#e>f>g>h>i>j>k>l>m>O*n>o>p>q>r>s>t>u>v>w>x>i>b*y>f>z>A>B>k>C>D>E>F>y>G>p>H>I>J>K>L><>M>N>O>P>Q>R>A>S>T>U>V>W>0 > i / ",
"[ | p , u-|-X>Y>Z>`>1&w& ,.,+,A$8+@,#,$,%,&,s%*,=,-,;,>,,,',),!,z&~,{,],+-^,p=/,(,3@_,:,<,[,},/.|,1,3@[#2,3,q*4,5,6,<;7,> % D.. ",
". + Q # 8,9,n;0,H*9%a,/-C.b,U c,A&A%d, %Z=e, -f,L&g,1*1*h,r-i,E*q>/;M@B*A%v S>w$w F-j,a,2+k,l%y$Q-C.l,m,n,o,p,q,r,s,t,u,N =$< . ",
". + & F-F>E=A;v,w,y%x,s-b*O+m,-#y,z,%$m#/-`@A,B,/-m-P-C,C%w.D,y;E,y$}-|-O&N;D z D=F,S*G,j-a%K-q,q,K-~=n>!=a-H,I,u J,K,L,> _ : . ",
". 7>' V-q,l,2-2-M,C,N,,-%=U@O,F>P,*-a%K-P,c;P,V-)-V-w;Q,K*W;O+a%R,Q,T@D=w W *>i>V-B ==S,T,~=F-U,V,!=W,4 h>X,Y,i>f-'*U;Z,# i i e;",
"< % r -.w$`,l% '.'V%+'Z F-F-@'#'$'%'&'*'='-'y &.;'{=S*>','''X-w;)'Z;y;&=*;9>l 9>O !'<=~'{'O*]'^'/'%.A>('{>_':'~'<'0#Q,['i i ! . ",
"@ _ &.T 7*{;}'|'1'#&2'3'4'5'6*6';>7'8'9'0'a'R,b'c'd'e'f'j>z,q>g'n*h'i'/#='~=j'k'l'm'n'>&o'p'<'q'r's'S,t'u'';v'w'x'y'z'A'! ! < . ",
"B'=$x W !-`-C'D'E'z%F'I*G'H'P%c%7@P%I';%Q-U@U@<#m,s>b;J'#=K'L'Y z %=Z,}>D=M'e#N'O'P'Q'R'l*-$C 3 S'T'I&U'V'W'X'Y'd>5 k$k%< < . . ",
"p % g*y$<#Z'w t L ;%/-M,o-W;e,`'5 w$L s>N i#J,U@b* )~=.)1-C.u I%+)s>;%b%@)#)j'+;$)e#}-w.I%l,q,%)&)*)=)`'H--);)>)t U@L }>D.$ ~ . ",
". D.V@U@y$; ,)t>i-h*/=l,y$D>;>')~=0@9>M 0#b*J'Q,s>>'{=x>b%%=))!)~){)&.5 ; %=])^)I%y,/)H%E*-$Z ()/#_):)<)=$4 - C T-9 M*l%' * * . ",
"| . > N t {>=$' E>>>S*[)})&.2 |)1),)*;4 O+c#>*b**;2)3)4)5))-6)8 0 F,7)8)O &;9)Y@K-_=P,Z,*-0)Y'a)*;h>1=0&b)K 8)&.J%M*&-8,q % . . ",
"| | * j#- c)1 K c)d)e)f)g)j h)i)j)g)j j Q '=k)g)l)m)n)o); k#p)F,8); q)S>J K r)s)+%K-*-c#Y'~=''*;4 t)*)u)t)v)^'w)x)9>y-J%- E < e;",
"| | ~ - #=y)z)e,^;A)B)C)};/%D).*I*E)F))&G)H)2=b$~&/;.*I)J)K)L)V+M)N)p-O)];P)Q)R)q@Q- >S)T)U)G=s)*;z-V)])W)X)Y)Z)`).$ !K+.!8 i i ",
"| p =$*.*=+!S>F-'-@!#!$!^)&%%!}>V v v /)B.s>o>&!X,='*!S>t D=Y =!- ])3>@;-!y>q,w$0-D=*;<);!a'G->!F-,),!'',!4 n''!)!!!y;/;&=> Q ! ",
". % &.w ~!{!S>T,J,s W@]!b*[>}'0*Y+s-,%4@A.C.^!/!(!_!f-f>= :!<!4)[!f#V,U,''@'F,4 }!z)$!*) =--o>|!F-))8)0 %=9>S,1!2!3!2#H@S@*$= : ",
", 6 ,-!-.-4!5!z-c#i-Q,X@z-c#6!H+.%7!7@!-D>P,=;4)2 2 g)Q f>8!f>4!a>9!0!:!{>; ,!<)'=*;V@k)1=a!b!=-8)3 3 9>h-z c!d!T,:)9,/*=.C A & ",
"% d>Z#5*l#%.K % {>k#e!f!q 0 &=I%I%*.b%%=d>J'J%B>%.g!h!2 *'c)j g)i!_)S>j!k)_ 0&k!Q*i!=$m>m>0@l!m!k#' n!0@,-&#o!p![>q!&#z,r!` B * ",
"=$z 5*H* $e,G)s!&!t!g%u!Y@Q,C.W,v!w!x!-;y!S*z!A!=;U)B!e>$'B!K%C!e!D!9)E!Y'=;S*F!G!H!I!u!,#J!K!Y'L!M!N!O!P!Q!R!S!T!U!P!l*d**.%=j ",
"n )-s-o$A%a='%V%T ,-V!^!-#W!-.&!g@D t t T*A%/-@;X!Y!Z!V>b,V-*=q)0)o>`!0@,){>7' ~.~#=x W;d>i>+~V-u @~2&#~$~%~&~*~K= *O@=~s- .r % ",
"& 0 v -~*>b,*=*=<'0@_'''C ;~0@>~,~%)'~/=J,`,'-)~h-@~!~~~*={~@'A>~=]~k # ^~j!/~b'(~_~:~g-l j#V@5 ; <~[~}~|~1~2~#'3~F-e!4~5~-.h-% ",
"~ B Y  -}>A 6~7~7~+~W,o>n>f!/!8~9~0~a~b~5 c~d~e~y>n!W-f~D 0-.!,!,!0@k)e;Q & g~S>H!h~q)l [!F,=-E>i~j~k~l~k)m~4!n~8 o~<~0!M,p~=-) ",
"| ' !-j-z ))q~T;r~$'z>@'4)s~g>t~J u~K =$2 v~w~B>x~y~V@z~-$y;q b)i!y>j!N>: * A~n)*=V@=$; K =$4 4 ,!B~C~0&8!D~_ w>A~E~F~&=D;-.B % ",
"| ) ' y D a#G~H~I~J~K~z>q x))=L~M~* # * p y~N~x~O~4!% P~7-O+j!Q~R~S~T~U~V~Q*|~W~X~:!* l % F,Y~i!<){>Z~_ k k =$# K F-b*Y N;u$&=% ",
"| 7>l s `~s!<=|;q~ {.{H!+{@{#{p%8#K=${(*%{v~&{4>!!*{8#={-{;{>{k>W-,{'{0-o*X%){!{:&~{[;^-{{*{9;9;=)7'X%d!]{Z!*=F-G-M*4~5~-.h-=-* ",
"| | j F-^{0&i!/{({6 _{:{7~<{[{}{; z,|{,-,)1{j#=-G-&.L E'O,F>G-'=~ c):!8)S>*=,-a#~=c#5 c~2{b%/=l,F>3{i-4{5{)~; &;&=]{Z!*=F-=-A 0&",
"| | $ ) a>6{p 7{8{) 9{0{^'<))=F~- z @>z 0@~#a{2 X!4 f*A $!b{7#L!c{d{V>A>,!&=*;z-F>s>e{=-f{g{A,@>,.z h{=;%{@;#=d;S*C;D;@-j-B - 7>",
"| | j Q '.b)i{j{k{q l{m{; n{9>A &.@=!-*.t 4>/'o{h)= 4 %.0!p{q{x~r{1 s{z>0 k)F-n>q 4 #'~!v=Z I'-.b%v @!i@t{/*C;D;E;@-j-%=A | , . ",
"| | | '.u{b)v{} w{z-x{k)0 &;- t Z y$7@@>q,o>a{j!k)2 ('%.F,^{y{z{r{i{u{. _ _ _ l ,!l ]!^![#K'~-Z /=!-l$u&={=)@-j-@>%=A %=A [ ~ | ",
"| | | | i{r{A{A{B{C{^'A N -%q,,.u$y$X;w u K!j#=-,!4 ' 2 # K ^~^'/ D{b)r *.A . _ % Y~5 X;l%7@L s w$E{@)g-C M %=A A - , Q + [ / [ ",
"| | | | } u)F{G{[ 8 &.5 V-!-x t @=w$l$w$@>*>x t B 0 =$J k!# ! D.< | < =$r =$r *.9 C -.j-O-w z N C y$u$6>y$-.&.4 8 8 B % 7>[ | | ",
"| | } h 1 1 } | / _ 0 M ,-}>-.l,b%t w$Z -.d>r 0 8 4 l p . | < D.p | | . D.* ' &.- M ` X;M%y i#= * B q,S w$*.T>U>V>W>0 > i / | | ",
"} } } I / / I / p * # 0 %.&=r A &=9>' &=5 2 % * ! H{< | | | | + | | | | : * & q =$' 0 M*z l ! 7>7>'.j r y M*A j#! 7>| | | | | | ",
"1 h h . . . . . . D.< _ % * % l E % i * & & * / o } | | | | | | | | | } . ! _ % ~ # * _ Q B'| } } } . < l l n j D.< / } | | } [ "};
