/* XPM */
static char * west_texture_xpm[] = {
"64 64 1747 2",
"  	c #2A2926",
". 	c #2A2925",
"+ 	c #2B2925",
"@ 	c #2D2B26",
"# 	c #2F2E29",
"$ 	c #302E2A",
"% 	c #31302C",
"& 	c #2E2D29",
"* 	c #2F2E2A",
"= 	c #33322D",
"- 	c #393834",
"; 	c #353531",
"> 	c #35332F",
", 	c #2F2D29",
"' 	c #34332F",
") 	c #31302B",
"! 	c #2E2C28",
"~ 	c #2C2B27",
"{ 	c #292924",
"] 	c #2A2924",
"^ 	c #302F2B",
"/ 	c #2D2C27",
"( 	c #2C2A26",
"_ 	c #292823",
": 	c #292824",
"< 	c #292923",
"[ 	c #32322D",
"} 	c #373733",
"| 	c #34342F",
"1 	c #393935",
"2 	c #3A3934",
"3 	c #3C3B36",
"4 	c #353430",
"5 	c #3B3A36",
"6 	c #363531",
"7 	c #363430",
"8 	c #292822",
"9 	c #2D2B27",
"0 	c #302F2A",
"a 	c #32312C",
"b 	c #33322E",
"c 	c #33312D",
"d 	c #312F2B",
"e 	c #2A2824",
"f 	c #2B2A26",
"g 	c #363530",
"h 	c #3A3935",
"i 	c #3B3B37",
"j 	c #3E3E3A",
"k 	c #41413D",
"l 	c #454641",
"m 	c #454541",
"n 	c #41423D",
"o 	c #403F3B",
"p 	c #3E3E39",
"q 	c #373632",
"r 	c #383733",
"s 	c #3C3B37",
"t 	c #3E3D38",
"u 	c #34322E",
"v 	c #2A2923",
"w 	c #2E2E29",
"x 	c #30302B",
"y 	c #40403C",
"z 	c #3D3C38",
"A 	c #383732",
"B 	c #34332E",
"C 	c #2E2C27",
"D 	c #2E2D28",
"E 	c #41403B",
"F 	c #43423E",
"G 	c #494944",
"H 	c #464642",
"I 	c #4A4B46",
"J 	c #474843",
"K 	c #44433F",
"L 	c #43433E",
"M 	c #41413C",
"N 	c #3E3D39",
"O 	c #454440",
"P 	c #363631",
"Q 	c #33332E",
"R 	c #3A3A35",
"S 	c #40403B",
"T 	c #42413C",
"U 	c #44443F",
"V 	c #484843",
"W 	c #4C4B47",
"X 	c #42413D",
"Y 	c #2B2A25",
"Z 	c #484841",
"` 	c #4F4F47",
" .	c #515143",
"..	c #5E5E55",
"+.	c #63635E",
"@.	c #6A6A65",
"#.	c #60615A",
"$.	c #51514B",
"%.	c #565652",
"&.	c #5E5D59",
"*.	c #5D5D59",
"=.	c #5F605A",
"-.	c #5C5C56",
";.	c #54554E",
">.	c #606056",
",.	c #67675E",
"'.	c #6A6A66",
").	c #61615C",
"!.	c #555550",
"~.	c #6D6D6A",
"{.	c #6B6C67",
"].	c #6F6E6A",
"^.	c #61605B",
"/.	c #62615C",
"(.	c #5E5E58",
"_.	c #56564F",
":.	c #5A5953",
"<.	c #53544F",
"[.	c #414139",
"}.	c #575750",
"|.	c #666661",
"1.	c #5B5C55",
"2.	c #5D5D58",
"3.	c #6B6A65",
"4.	c #71716C",
"5.	c #6E6E69",
"6.	c #5D5E57",
"7.	c #5B5B55",
"8.	c #5D5E52",
"9.	c #62625B",
"0.	c #6B6B66",
"a.	c #666762",
"b.	c #64645F",
"c.	c #656560",
"d.	c #60605B",
"e.	c #54544F",
"f.	c #4C4C47",
"g.	c #4C4D48",
"h.	c #47463E",
"i.	c #515149",
"j.	c #484842",
"k.	c #45453E",
"l.	c #43443D",
"m.	c #2D2C28",
"n.	c #595952",
"o.	c #55554D",
"p.	c #64655F",
"q.	c #6D6D68",
"r.	c #62635B",
"s.	c #56574B",
"t.	c #5F5F5A",
"u.	c #606058",
"v.	c #5A5C4A",
"w.	c #5D5D4E",
"x.	c #616153",
"y.	c #585949",
"z.	c #72716B",
"A.	c #878785",
"B.	c #82827F",
"C.	c #6D6D66",
"D.	c #696962",
"E.	c #797A76",
"F.	c #767673",
"G.	c #73736F",
"H.	c #71706B",
"I.	c #6E6D68",
"J.	c #5A5A51",
"K.	c #5B5A52",
"L.	c #757672",
"M.	c #5A5B53",
"N.	c #6A6964",
"O.	c #656660",
"P.	c #787975",
"Q.	c #73736E",
"R.	c #707168",
"S.	c #6D6F66",
"T.	c #74756F",
"U.	c #55544E",
"V.	c #4A4B43",
"W.	c #696A60",
"X.	c #797972",
"Y.	c #6D6C65",
"Z.	c #676863",
"`.	c #6E6F69",
" +	c #5E5D58",
".+	c #575852",
"++	c #4E4E48",
"@+	c #4D4D47",
"#+	c #4C4B40",
"$+	c #5B5C54",
"%+	c #585753",
"&+	c #54544E",
"*+	c #4D4E47",
"=+	c #3B3A34",
"-+	c #525243",
";+	c #4F5048",
">+	c #54544D",
",+	c #5A5B54",
"'+	c #62625C",
")+	c #5E5F5A",
"!+	c #5B5B52",
"~+	c #525345",
"{+	c #555650",
"]+	c #5E5F58",
"^+	c #62635F",
"/+	c #565749",
"(+	c #535543",
"_+	c #5F6055",
":+	c #5F5F59",
"<+	c #6B6A66",
"[+	c #6C6C68",
"}+	c #6E6E6A",
"|+	c #666660",
"1+	c #676761",
"2+	c #777773",
"3+	c #777874",
"4+	c #7E7F7A",
"5+	c #707068",
"6+	c #565647",
"7+	c #58574F",
"8+	c #61615B",
"9+	c #5D5C58",
"0+	c #53524B",
"a+	c #6F6F6B",
"b+	c #65665D",
"c+	c #696961",
"d+	c #626257",
"e+	c #58584E",
"f+	c #595B4F",
"g+	c #52524B",
"h+	c #51514D",
"i+	c #4E4D42",
"j+	c #606151",
"k+	c #656459",
"l+	c #636259",
"m+	c #686860",
"n+	c #63635D",
"o+	c #595852",
"p+	c #555450",
"q+	c #484943",
"r+	c #46473E",
"s+	c #494941",
"t+	c #4F4F44",
"u+	c #5A5A53",
"v+	c #4E4D48",
"w+	c #484741",
"x+	c #3B3B34",
"y+	c #57564C",
"z+	c #50504A",
"A+	c #565651",
"B+	c #5B5C57",
"C+	c #646560",
"D+	c #62625E",
"E+	c #52534A",
"F+	c #4D4F41",
"G+	c #4C4C46",
"H+	c #50514C",
"I+	c #595A52",
"J+	c #4E4F44",
"K+	c #555548",
"L+	c #55554E",
"M+	c #5E5E5A",
"N+	c #63625E",
"O+	c #65655D",
"P+	c #6D6C67",
"Q+	c #6C6C66",
"R+	c #6B6A64",
"S+	c #696B56",
"T+	c #545735",
"U+	c #5C5F40",
"V+	c #525241",
"W+	c #55554A",
"X+	c #4D4D46",
"Y+	c #6C6B66",
"Z+	c #696965",
"`+	c #616257",
" @	c #5A5B50",
".@	c #54554C",
"+@	c #4D4D45",
"@@	c #525344",
"#@	c #4E4F3E",
"$@	c #51524D",
"%@	c #595A4A",
"&@	c #5A5A4A",
"*@	c #575649",
"=@	c #5C5B52",
"-@	c #585952",
";@	c #51524A",
">@	c #4A4C44",
",@	c #484942",
"'@	c #4C4D45",
")@	c #46463F",
"!@	c #4E4E44",
"~@	c #5E5E57",
"{@	c #444440",
"]@	c #41403C",
"^@	c #3F3D38",
"/@	c #383833",
"(@	c #59594F",
"_@	c #50504C",
":@	c #565752",
"<@	c #595955",
"[@	c #5B5B56",
"}@	c #5A5A4D",
"|@	c #4C4D40",
"1@	c #4D4D3D",
"2@	c #46463E",
"3@	c #494846",
"4@	c #535452",
"5@	c #565754",
"6@	c #4E4E46",
"7@	c #5D5C56",
"8@	c #54534F",
"9@	c #50504B",
"0@	c #4B4C45",
"a@	c #5E5D55",
"b@	c #65645F",
"c@	c #686763",
"d@	c #5F6051",
"e@	c #55573B",
"f@	c #51523E",
"g@	c #505335",
"h@	c #51523F",
"i@	c #6A6A61",
"j@	c #4E4E47",
"k@	c #686864",
"l@	c #60615B",
"m@	c #4F523A",
"n@	c #525249",
"o@	c #4F4F49",
"p@	c #4B4C44",
"q@	c #585848",
"r@	c #5F5F53",
"s@	c #555547",
"t@	c #54534B",
"u@	c #505147",
"v@	c #505048",
"w@	c #484840",
"x@	c #4D4D49",
"y@	c #4C4C43",
"z@	c #52524A",
"A@	c #403F3A",
"B@	c #3D3D37",
"C@	c #3F3F3A",
"D@	c #373631",
"E@	c #44443C",
"F@	c #3E3E34",
"G@	c #3D3E35",
"H@	c #383A2E",
"I@	c #3F4134",
"J@	c #3F412E",
"K@	c #4C5030",
"L@	c #454832",
"M@	c #404134",
"N@	c #414431",
"O@	c #40442F",
"P@	c #3B3D32",
"Q@	c #43433C",
"R@	c #3E4035",
"S@	c #3F4038",
"T@	c #44443E",
"U@	c #424436",
"V@	c #3A3C26",
"W@	c #3C3E31",
"X@	c #323423",
"Y@	c #404429",
"Z@	c #404329",
"`@	c #333427",
" #	c #36372C",
".#	c #37382B",
"+#	c #323229",
"@#	c #38382F",
"##	c #3A3C2C",
"$#	c #4A4B45",
"%#	c #45463F",
"&#	c #44433E",
"*#	c #48493E",
"=#	c #484B37",
"-#	c #454928",
";#	c #494B36",
">#	c #47473F",
",#	c #404135",
"'#	c #484A35",
")#	c #3F4032",
"!#	c #3D3D32",
"~#	c #434338",
"{#	c #424238",
"]#	c #3E3E36",
"^#	c #393932",
"/#	c #3D3C36",
"(#	c #41403A",
"_#	c #3D3D36",
":#	c #3E402C",
"<#	c #424336",
"[#	c #34352B",
"}#	c #333328",
"|#	c #34342C",
"1#	c #393833",
"2#	c #35342F",
"3#	c #343430",
"4#	c #42423D",
"5#	c #4E4F49",
"6#	c #62625A",
"7#	c #64645A",
"8#	c #616444",
"9#	c #646749",
"0#	c #5C603E",
"a#	c #5F6247",
"b#	c #5E5F49",
"c#	c #505140",
"d#	c #49502A",
"e#	c #5C5F46",
"f#	c #595C47",
"g#	c #626450",
"h#	c #737372",
"i#	c #767675",
"j#	c #797979",
"k#	c #7A7B7A",
"l#	c #767674",
"m#	c #6D6E68",
"n#	c #606158",
"o#	c #454532",
"p#	c #6D6E63",
"q#	c #656760",
"r#	c #5F6058",
"s#	c #6C6E63",
"t#	c #6F7067",
"u#	c #6E6F67",
"v#	c #787974",
"w#	c #747673",
"x#	c #54544A",
"y#	c #515443",
"z#	c #6E6D6A",
"A#	c #71716D",
"B#	c #666663",
"C#	c #70706D",
"D#	c #666563",
"E#	c #646461",
"F#	c #636461",
"G#	c #51524E",
"H#	c #464742",
"I#	c #474938",
"J#	c #505049",
"K#	c #4D4E43",
"L#	c #434431",
"M#	c #4E4F41",
"N#	c #4B4D3A",
"O#	c #4B4C3D",
"P#	c #494A43",
"Q#	c #4A4A43",
"R#	c #383632",
"S#	c #32312D",
"T#	c #43433D",
"U#	c #45453F",
"V#	c #5A5A4F",
"W#	c #5E6247",
"X#	c #606444",
"Y#	c #595D37",
"Z#	c #56593C",
"`#	c #585C39",
" $	c #454537",
".$	c #45492B",
"+$	c #515246",
"@$	c #525539",
"#$	c #747475",
"$$	c #777879",
"%$	c #787876",
"&$	c #737370",
"*$	c #777877",
"=$	c #757676",
"-$	c #6B6D67",
";$	c #5C5E4C",
">$	c #53544A",
",$	c #6A6A67",
"'$	c #5E5E59",
")$	c #5A5B56",
"!$	c #6D6D6C",
"~$	c #757775",
"{$	c #737574",
"]$	c #7A7A79",
"^$	c #666765",
"/$	c #5D5D5B",
"($	c #4E5045",
"_$	c #70716D",
":$	c #6E6F6B",
"<$	c #60615D",
"[$	c #595A57",
"}$	c #61615E",
"|$	c #60605D",
"1$	c #5C5D5A",
"2$	c #4F4F4B",
"3$	c #4A4A46",
"4$	c #464641",
"5$	c #3F4232",
"6$	c #5A5B52",
"7$	c #555551",
"8$	c #494A41",
"9$	c #3A3C27",
"0$	c #3D3F27",
"a$	c #43462A",
"b$	c #4C4D3A",
"c$	c #484743",
"d$	c #32302C",
"e$	c #3F3F3B",
"f$	c #515048",
"g$	c #454540",
"h$	c #43443E",
"i$	c #5F6059",
"j$	c #5C5B59",
"k$	c #575854",
"l$	c #53534E",
"m$	c #494A3E",
"n$	c #46492D",
"o$	c #52543F",
"p$	c #525244",
"q$	c #656662",
"r$	c #6B6C6A",
"s$	c #6D6E6C",
"t$	c #6D6E69",
"u$	c #6D6E6A",
"v$	c #6A6B67",
"w$	c #666760",
"x$	c #626355",
"y$	c #585854",
"z$	c #585853",
"A$	c #646562",
"B$	c #686965",
"C$	c #686865",
"D$	c #656562",
"E$	c #575754",
"F$	c #4C4E3D",
"G$	c #686863",
"H$	c #626360",
"I$	c #5D5E58",
"J$	c #585954",
"K$	c #4B4B46",
"L$	c #3E3E38",
"M$	c #3A3B2C",
"N$	c #4F4F42",
"O$	c #4E4E4A",
"P$	c #45443E",
"Q$	c #3E3E35",
"R$	c #474A2C",
"S$	c #4E5131",
"T$	c #3C3A36",
"U$	c #484844",
"V$	c #4F4E48",
"W$	c #474842",
"X$	c #42423B",
"Y$	c #4D4D48",
"Z$	c #555651",
"`$	c #51514C",
" %	c #53534F",
".%	c #555652",
"+%	c #52524E",
"@%	c #424338",
"#%	c #43472F",
"$%	c #4D4E42",
"%%	c #50514B",
"&%	c #62625D",
"*%	c #5F5F5B",
"=%	c #63645F",
"-%	c #5F6155",
";%	c #4D4F3F",
">%	c #4A4A44",
",%	c #61615F",
"'%	c #60605F",
")%	c #585856",
"!%	c #50514E",
"~%	c #4C4D3E",
"{%	c #61625E",
"]%	c #53534D",
"^%	c #4C4B46",
"/%	c #3E3E37",
"(%	c #3E3F3A",
"_%	c #37382E",
":%	c #525247",
"<%	c #494845",
"[%	c #565551",
"}%	c #444437",
"|%	c #4A4A3E",
"1%	c #585953",
"2%	c #4E4D46",
"3%	c #4F4E49",
"4%	c #44443D",
"5%	c #494842",
"6%	c #4A4942",
"7%	c #51504B",
"8%	c #3E3F33",
"9%	c #464A2A",
"0%	c #585852",
"a%	c #5C5D56",
"b%	c #636460",
"c%	c #575B46",
"d%	c #4D4F3C",
"e%	c #535450",
"f%	c #575853",
"g%	c #545550",
"h%	c #53544E",
"i%	c #5B5C5A",
"j%	c #52524D",
"k%	c #545451",
"l%	c #4E4F4C",
"m%	c #3A3B2B",
"n%	c #4A4941",
"o%	c #474741",
"p%	c #3F3F38",
"q%	c #393933",
"r%	c #424339",
"s%	c #454536",
"t%	c #474642",
"u%	c #4B4B45",
"v%	c #4E4D47",
"w%	c #4E4E4B",
"x%	c #555552",
"y%	c #4A4A42",
"z%	c #3B3935",
"A%	c #4B4C47",
"B%	c #5B5C52",
"C%	c #474840",
"D%	c #434538",
"E%	c #4C4D41",
"F%	c #535346",
"G%	c #404235",
"H%	c #3D3E33",
"I%	c #464936",
"J%	c #555839",
"K%	c #48493C",
"L%	c #4E5046",
"M%	c #4C4D42",
"N%	c #4D4E45",
"O%	c #4D4E41",
"P%	c #515343",
"Q%	c #46483B",
"R%	c #3A3C2B",
"S%	c #3F4039",
"T%	c #3A3C33",
"U%	c #454836",
"V%	c #484A39",
"W%	c #4C4F43",
"X%	c #47483D",
"Y%	c #353925",
"Z%	c #55574C",
"`%	c #5A5C4F",
" &	c #4E5044",
".&	c #525348",
"+&	c #4E4F42",
"@&	c #585850",
"#&	c #4D4F3E",
"$&	c #4D4F3D",
"%&	c #474A37",
"&&	c #464831",
"*&	c #4D503E",
"=&	c #494B37",
"-&	c #4A4C3C",
";&	c #424435",
">&	c #515441",
",&	c #555843",
"'&	c #4B4C3E",
")&	c #494B39",
"!&	c #505145",
"~&	c #56574A",
"{&	c #58594A",
"]&	c #2F2F2A",
"^&	c #707069",
"/&	c #5C5D58",
"(&	c #565A3B",
"_&	c #55573E",
":&	c #5B5B59",
"<&	c #6A6B68",
"[&	c #505148",
"}&	c #535349",
"|&	c #585A53",
"1&	c #686866",
"2&	c #70706E",
"3&	c #656663",
"4&	c #53563C",
"5&	c #555648",
"6&	c #424335",
"7&	c #676764",
"8&	c #696966",
"9&	c #676865",
"0&	c #4D4F37",
"a&	c #4A4C3E",
"b&	c #464741",
"c&	c #46472E",
"d&	c #525448",
"e&	c #58584F",
"f&	c #4E513E",
"g&	c #494C3C",
"h&	c #4D4E48",
"i&	c #51534B",
"j&	c #565750",
"k&	c #676862",
"l&	c #595953",
"m&	c #565650",
"n&	c #494844",
"o&	c #555549",
"p&	c #4C4C42",
"q&	c #4A4B3C",
"r&	c #4B4C40",
"s&	c #52534F",
"t&	c #5D5E5A",
"u&	c #636360",
"v&	c #4E4F48",
"w&	c #45453B",
"x&	c #656561",
"y&	c #686966",
"z&	c #5A5B51",
"A&	c #505331",
"B&	c #505234",
"C&	c #404130",
"D&	c #61615D",
"E&	c #6A6A68",
"F&	c #4D4E3A",
"G&	c #4A4B3B",
"H&	c #4B4C3B",
"I&	c #45453C",
"J&	c #55564D",
"K&	c #60605C",
"L&	c #5A5A54",
"M&	c #4D4E49",
"N&	c #4E4E49",
"O&	c #4F5046",
"P&	c #504F4D",
"Q&	c #505144",
"R&	c #52524C",
"S&	c #505044",
"T&	c #47473B",
"U&	c #404039",
"V&	c #474740",
"W&	c #3F3F33",
"X&	c #47483F",
"Y&	c #4E4F43",
"Z&	c #494A3C",
"`&	c #48483D",
" *	c #4A4A3C",
".*	c #47473E",
"+*	c #494942",
"@*	c #414236",
"#*	c #575752",
"$*	c #5F605D",
"%*	c #56574E",
"&*	c #484932",
"**	c #404131",
"=*	c #5E5F5B",
"-*	c #595A54",
";*	c #4C4C41",
">*	c #46463B",
",*	c #5B5B58",
"'*	c #4F4F4A",
")*	c #454739",
"!*	c #4B4C46",
"~*	c #4B4B48",
"{*	c #494A3A",
"]*	c #4A4A45",
"^*	c #403E3A",
"/*	c #3B3B35",
"(*	c #3A3834",
"_*	c #484944",
":*	c #403F3D",
"<*	c #393936",
"[*	c #3F3E3A",
"}*	c #41413E",
"|*	c #40422D",
"1*	c #434336",
"2*	c #44453D",
"3*	c #43433A",
"4*	c #484941",
"5*	c #4A4B41",
"6*	c #4A4A41",
"7*	c #4B4E3C",
"8*	c #4F513B",
"9*	c #46463C",
"0*	c #46463A",
"a*	c #62625F",
"b*	c #595956",
"c*	c #565653",
"d*	c #4C4C45",
"e*	c #45463B",
"f*	c #444538",
"g*	c #383A2D",
"h*	c #57574C",
"i*	c #51524B",
"j*	c #4D4C45",
"k*	c #48483F",
"l*	c #464640",
"m*	c #565751",
"n*	c #545551",
"o*	c #565753",
"p*	c #4D4E46",
"q*	c #444438",
"r*	c #42423C",
"s*	c #44453C",
"t*	c #3D3C37",
"u*	c #3B3A32",
"v*	c #35362C",
"w*	c #32332A",
"x*	c #2C2C27",
"y*	c #4D522C",
"z*	c #3A3B33",
"A*	c #383931",
"B*	c #383730",
"C*	c #37392E",
"D*	c #3B3D28",
"E*	c #454927",
"F*	c #484C2B",
"G*	c #454735",
"H*	c #404231",
"I*	c #3C3D30",
"J*	c #393A29",
"K*	c #424331",
"L*	c #3F403B",
"M*	c #40413B",
"N*	c #414239",
"O*	c #3B3B36",
"P*	c #393934",
"Q*	c #383832",
"R*	c #33332D",
"S*	c #37362F",
"T*	c #3F4225",
"U*	c #3C3D2F",
"V*	c #33342D",
"W*	c #32332C",
"X*	c #34342D",
"Y*	c #34342E",
"Z*	c #393A32",
"`*	c #393931",
" =	c #3A3D2F",
".=	c #454640",
"+=	c #41423E",
"@=	c #3B3C35",
"#=	c #41423B",
"$=	c #42433B",
"%=	c #393A2E",
"&=	c #3E3F2D",
"*=	c #333525",
"==	c #414232",
"-=	c #32322A",
";=	c #3B3C33",
">=	c #43443C",
",=	c #6A6D58",
"'=	c #5E5E53",
")=	c #4A4A3D",
"!=	c #434232",
"~=	c #444435",
"{=	c #4E4F3F",
"]=	c #525449",
"^=	c #50514A",
"/=	c #46483C",
"(=	c #5D5E56",
"_=	c #50523E",
":=	c #565843",
"<=	c #58594D",
"[=	c #737470",
"}=	c #6F6F6A",
"|=	c #61625C",
"1=	c #585951",
"2=	c #565948",
"3=	c #65655F",
"4=	c #5C5D57",
"5=	c #595A53",
"6=	c #57584E",
"7=	c #515249",
"8=	c #55564F",
"9=	c #414235",
"0=	c #50524A",
"a=	c #676760",
"b=	c #4C4D43",
"c=	c #46473C",
"d=	c #5C5E4B",
"e=	c #535544",
"f=	c #48493F",
"g=	c #525343",
"h=	c #5B5D4E",
"i=	c #545740",
"j=	c #454837",
"k=	c #42433E",
"l=	c #42433C",
"m=	c #585A4C",
"n=	c #47473D",
"o=	c #434430",
"p=	c #484A31",
"q=	c #3C3E25",
"r=	c #49493F",
"s=	c #474745",
"t=	c #4A4B48",
"u=	c #4C4C44",
"v=	c #47493F",
"w=	c #4F504D",
"x=	c #5A5C58",
"y=	c #4A4B40",
"z=	c #4B4B40",
"A=	c #646563",
"B=	c #5C5C59",
"C=	c #5C5C5A",
"D=	c #4D4F49",
"E=	c #61625F",
"F=	c #575651",
"G=	c #595A56",
"H=	c #5B5B57",
"I=	c #4F504B",
"J=	c #3D3D34",
"K=	c #595A55",
"L=	c #494A47",
"M=	c #434440",
"N=	c #3A392F",
"O=	c #3F3F31",
"P=	c #3C3C35",
"Q=	c #383834",
"R=	c #434438",
"S=	c #454730",
"T=	c #3F403D",
"U=	c #3D3D38",
"V=	c #3F3F3C",
"W=	c #3C3C38",
"X=	c #43433F",
"Y=	c #454642",
"Z=	c #464644",
"`=	c #434332",
" -	c #494940",
".-	c #494A45",
"+-	c #464745",
"@-	c #454543",
"#-	c #4C4C49",
"$-	c #50524C",
"%-	c #3F4138",
"&-	c #4C4D47",
"*-	c #4F5049",
"=-	c #47483E",
"--	c #4D4E4A",
";-	c #4C4D46",
">-	c #595954",
",-	c #4D4C46",
"'-	c #464643",
")-	c #3D3D35",
"!-	c #484946",
"~-	c #4A4A48",
"{-	c #3E3F37",
"]-	c #36372D",
"^-	c #39392F",
"/-	c #404137",
"(-	c #3C3E29",
"_-	c #3F412C",
":-	c #3A3A34",
"<-	c #3C3C39",
"[-	c #3A3A36",
"}-	c #3D3E3A",
"|-	c #474742",
"1-	c #54564D",
"2-	c #404336",
"3-	c #4D4E4B",
"4-	c #50504F",
"5-	c #4B4C49",
"6-	c #4A4C42",
"7-	c #545350",
"8-	c #52534D",
"9-	c #4C4C48",
"0-	c #4B4A44",
"a-	c #494943",
"b-	c #3D3E30",
"c-	c #484846",
"d-	c #4C4D4A",
"e-	c #3A3933",
"f-	c #3A3A33",
"g-	c #43433B",
"h-	c #43423F",
"i-	c #3C3D28",
"j-	c #3C3E2D",
"k-	c #3A3B30",
"l-	c #3A3B36",
"m-	c #482824",
"n-	c #383835",
"o-	c #373835",
"p-	c #333330",
"q-	c #3E3F38",
"r-	c #4C4E41",
"s-	c #46493A",
"t-	c #4B4B47",
"u-	c #4B4A46",
"v-	c #494A42",
"w-	c #44453F",
"x-	c #42413B",
"y-	c #41433B",
"z-	c #41413B",
"A-	c #3C3B34",
"B-	c #3C3C37",
"C-	c #3A3A31",
"D-	c #3C3B33",
"E-	c #333426",
"F-	c #4B4B49",
"G-	c #434340",
"H-	c #3C3B35",
"I-	c #3E3E30",
"J-	c #3D3D31",
"K-	c #3E3E3B",
"L-	c #363727",
"M-	c #404225",
"N-	c #3D3E28",
"O-	c #363632",
"P-	c #373731",
"Q-	c #B61C19",
"R-	c #8F4641",
"S-	c #D52C26",
"T-	c #8A3A32",
"U-	c #3D3E32",
"V-	c #3C3D2E",
"W-	c #363827",
"X-	c #3F4139",
"Y-	c #484D2B",
"Z-	c #555942",
"`-	c #51563E",
" ;	c #555A41",
".;	c #494B42",
"+;	c #44463A",
"@;	c #43453C",
"#;	c #4A4B44",
"$;	c #46483D",
"%;	c #46473B",
"&;	c #4A4E31",
"*;	c #484C33",
"=;	c #464838",
"-;	c #44453A",
";;	c #404232",
">;	c #434537",
",;	c #373A23",
"';	c #53534B",
");	c #505248",
"!;	c #4A4D3E",
"~;	c #434437",
"{;	c #444730",
"];	c #4A4B3D",
"^;	c #45463C",
"/;	c #414430",
"(;	c #2B2E19",
"_;	c #3A3B31",
":;	c #3C3D34",
"<;	c #3B3D34",
"[;	c #E60F0D",
"};	c #2A2A25",
"|;	c #5F322D",
"1;	c #9C423B",
"2;	c #F41413",
"3;	c #A63B3A",
"4;	c #474736",
"5;	c #41422F",
"6;	c #484839",
"7;	c #3C402C",
"8;	c #555653",
"9;	c #585956",
"0;	c #535453",
"a;	c #535352",
"b;	c #585A59",
"c;	c #596036",
"d;	c #545841",
"e;	c #414234",
"f;	c #4F504C",
"g;	c #4A4B47",
"h;	c #434634",
"i;	c #5A5955",
"j;	c #3F3F36",
"k;	c #4E503C",
"l;	c #3F3F39",
"m;	c #393D24",
"n;	c #4F504E",
"o;	c #51514F",
"p;	c #565755",
"q;	c #51514E",
"r;	c #484744",
"s;	c #EB0D0B",
"t;	c #DF1413",
"u;	c #D81E1C",
"v;	c #993A2E",
"w;	c #EE150E",
"x;	c #993A30",
"y;	c #494A32",
"z;	c #424237",
"A;	c #4F4F48",
"B;	c #33352D",
"C;	c #3D3E3B",
"D;	c #4B4C48",
"E;	c #4F4F4C",
"F;	c #525351",
"G;	c #45463D",
"H;	c #464836",
"I;	c #404133",
"J;	c #484B30",
"K;	c #3A3B29",
"L;	c #42423A",
"M;	c #4F504A",
"N;	c #42433D",
"O;	c #464541",
"P;	c #464540",
"Q;	c #3F3F37",
"R;	c #4E4E4C",
"S;	c #3B3C34",
"T;	c #3D4129",
"U;	c #50514F",
"V;	c #42423E",
"W;	c #84241F",
"X;	c #F00B09",
"Y;	c #DC1A17",
"Z;	c #983425",
"`;	c #EE150D",
" >	c #993B29",
".>	c #464634",
"+>	c #404035",
"@>	c #404139",
"#>	c #474743",
"$>	c #474A3B",
"%>	c #414237",
"&>	c #3F4133",
"*>	c #36372E",
"=>	c #43423D",
"->	c #33332B",
";>	c #3B3B38",
">>	c #363533",
",>	c #343724",
"'>	c #EE0D0A",
")>	c #E8120F",
"!>	c #A22D1C",
"~>	c #EE180D",
"{>	c #983926",
"]>	c #404031",
"^>	c #3F3F35",
"/>	c #383A2F",
"(>	c #393A2F",
"_>	c #3A3A32",
":>	c #444540",
"<>	c #4C4C4A",
"[>	c #45483B",
"}>	c #4A4D3B",
"|>	c #42423F",
"1>	c #404138",
"2>	c #414137",
"3>	c #4D4C48",
"4>	c #2C2B26",
"5>	c #40412E",
"6>	c #373732",
"7>	c #333431",
"8>	c #2D2D29",
"9>	c #2B2D1C",
"0>	c #40403D",
"a>	c #3C3D38",
"b>	c #E80E0B",
"c>	c #D81311",
"d>	c #E70E0D",
"e>	c #E11412",
"f>	c #E21A15",
"g>	c #F00D0A",
"h>	c #772E24",
"i>	c #2F2F29",
"j>	c #313129",
"k>	c #31322C",
"l>	c #3B3C37",
"m>	c #46473F",
"n>	c #323425",
"o>	c #353727",
"p>	c #2E2E27",
"q>	c #35362F",
"r>	c #373730",
"s>	c #393B32",
"t>	c #414339",
"u>	c #484C3C",
"v>	c #3C3C36",
"w>	c #393A34",
"x>	c #333628",
"y>	c #42462E",
"z>	c #30312B",
"A>	c #33352F",
"B>	c #373831",
"C>	c #32322C",
"D>	c #34352E",
"E>	c #32332D",
"F>	c #40413A",
"G>	c #41423C",
"H>	c #393A35",
"I>	c #3A3B35",
"J>	c #3A3B32",
"K>	c #34362B",
"L>	c #343628",
"M>	c #373928",
"N>	c #363726",
"O>	c #44472F",
"P>	c #2F3027",
"Q>	c #2C2C24",
"R>	c #272720",
"S>	c #292922",
"T>	c #343920",
"U>	c #34362A",
"V>	c #33332C",
"W>	c #323327",
"X>	c #363828",
"Y>	c #323427",
"Z>	c #31312A",
"`>	c #DB1310",
" ,	c #E30F0D",
".,	c #B21E1B",
"+,	c #BA1F1C",
"@,	c #F31512",
"#,	c #F61311",
"$,	c #954E45",
"%,	c #54564C",
"&,	c #494B3E",
"*,	c #555749",
"=,	c #515347",
"-,	c #65665F",
";,	c #62635D",
">,	c #575952",
",,	c #5B5D52",
"',	c #5E6052",
"),	c #64655C",
"!,	c #46483A",
"~,	c #676860",
"{,	c #63655D",
"],	c #5E6057",
"^,	c #606256",
"/,	c #5D5E55",
"(,	c #56584F",
"_,	c #575A4D",
":,	c #4B4D43",
"<,	c #57584F",
"[,	c #57574D",
"},	c #56574D",
"|,	c #5A5B55",
"1,	c #535549",
"2,	c #505149",
"3,	c #4F5143",
"4,	c #515739",
"5,	c #595B4C",
"6,	c #616450",
"7,	c #5C5F4F",
"8,	c #4E4F47",
"9,	c #515348",
"0,	c #434636",
"a,	c #383B29",
"b,	c #57584B",
"c,	c #494B3B",
"d,	c #4C4F3C",
"e,	c #40422B",
"f,	c #D31613",
"g,	c #CC1815",
"h,	c #852723",
"i,	c #DE211D",
"j,	c #F31410",
"k,	c #70504F",
"l,	c #5A5A59",
"m,	c #4C4E3F",
"n,	c #3F403A",
"o,	c #4C4D49",
"p,	c #575953",
"q,	c #424439",
"r,	c #545553",
"s,	c #5B5C59",
"t,	c #51524C",
"u,	c #46473D",
"v,	c #494A40",
"w,	c #53544D",
"x,	c #43443F",
"y,	c #3D3E38",
"z,	c #373830",
"A,	c #393A2A",
"B,	c #51533F",
"C,	c #3D3D39",
"D,	c #484845",
"E,	c #494946",
"F,	c #3F4037",
"G,	c #383A26",
"H,	c #5B2723",
"I,	c #993932",
"J,	c #575756",
"K,	c #575755",
"L,	c #494B40",
"M,	c #44453E",
"N,	c #464740",
"O,	c #424437",
"P,	c #4F4F4D",
"Q,	c #4F514A",
"R,	c #45453D",
"S,	c #3E4034",
"T,	c #32322E",
"U,	c #444736",
"V,	c #47493B",
"W,	c #424340",
"X,	c #3E3F39",
"Y,	c #403F39",
"Z,	c #3A3A2D",
"`,	c #50504D",
" '	c #484940",
".'	c #3B3C36",
"+'	c #40403A",
"@'	c #41413A",
"#'	c #3D3F33",
"$'	c #434534",
"%'	c #3E3D37",
"&'	c #353631",
"*'	c #34352F",
"='	c #35362E",
"-'	c #36372F",
";'	c #404236",
">'	c #3F3E38",
",'	c #3F403C",
"''	c #484A41",
")'	c #494A46",
"!'	c #3E3E32",
"~'	c #35352F",
"{'	c #393A2C",
"]'	c #313227",
"^'	c #313220",
"/'	c #343427",
"('	c #333327",
"_'	c #35362D",
":'	c #3B3B33",
"<'	c #32332F",
"['	c #383831",
"}'	c #373630",
"|'	c #363630",
"1'	c #3C3E30",
"2'	c #36352F",
"3'	c #38392B",
"4'	c #3C3A34",
"5'	c #33342B",
"6'	c #303029",
"7'	c #2E2F27",
"8'	c #32332E",
"9'	c #31312C",
"0'	c #3B3C31",
"a'	c #3B3C2C",
"b'	c #37382A",
"c'	c #404038",
"d'	c #3D3E37",
"e'	c #4F5246",
"f'	c #4C4E40",
"g'	c #484936",
"h'	c #48483B",
"i'	c #414338",
"j'	c #404237",
"k'	c #363629",
"l'	c #3F4036",
"m'	c #484B3A",
"n'	c #484A3D",
"o'	c #4A4C41",
"p'	c #3B3D31",
"q'	c #3A3B2F",
"r'	c #45473B",
"s'	c #4C4E3E",
"t'	c #505240",
"u'	c #3A3C2F",
"v'	c #55574D",
"w'	c #484A3F",
"x'	c #36362D",
"y'	c #3B3C2F",
"z'	c #3F402F",
"A'	c #40432D",
"B'	c #3F432E",
"C'	c #3D402E",
"D'	c #47483B",
"E'	c #36382A",
"F'	c #3C3E2E",
"G'	c #2F3222",
"H'	c #313426",
"I'	c #393B2C",
"J'	c #474C2D",
"K'	c #474934",
"L'	c #424432",
"M'	c #3C3D31",
"N'	c #37372D",
"O'	c #34342A",
"P'	c #3E3D33",
"Q'	c #2C2A25",
"R'	c #4A4A49",
"S'	c #434341",
"T'	c #474844",
"U'	c #5A5A55",
"V'	c #50504E",
"W'	c #525352",
"X'	c #42433F",
"Y'	c #3C3D37",
"Z'	c #464743",
"`'	c #4A4A47",
" )	c #3D3C33",
".)	c #3C3C2F",
"+)	c #3D3D2F",
"@)	c #404228",
"#)	c #3F4135",
"$)	c #43443A",
"%)	c #363733",
"&)	c #34352D",
"*)	c #3D3D33",
"=)	c #3D3F2A",
"-)	c #3D3F23",
";)	c #3E402E",
">)	c #393A33",
",)	c #383935",
"')	c #34342B",
"))	c #393832",
"!)	c #353630",
"~)	c #3B3A33",
"{)	c #40413D",
"])	c #3B3A38",
"^)	c #3A3C30",
"/)	c #37372E",
"()	c #3D3E2B",
"_)	c #313229",
":)	c #42433A",
"<)	c #3C3C2A",
"[)	c #3C3E2A",
"})	c #3A3932",
"|)	c #363732",
"1)	c #363627",
"2)	c #373833",
"3)	c #3D3F2E",
"4)	c #3E3E31",
"5)	c #3B3A35",
"6)	c #3D3E34",
"7)	c #3C3C34",
"8)	c #474841",
"9)	c #3D3E2C",
"0)	c #303128",
"a)	c #3F3E36",
"b)	c #31312D",
"c)	c #3C3D39",
"d)	c #40413C",
"e)	c #363823",
"f)	c #3F402B",
"g)	c #34332D",
"h)	c #3E3D35",
"i)	c #33342C",
"j)	c #3D3D3A",
"k)	c #373634",
"l)	c #333430",
"m)	c #33332F",
"n)	c #393A31",
"o)	c #3A3B34",
"p)	c #3A3A30",
"q)	c #2B2B26",
"r)	c #43423C",
"s)	c #2D2D28",
"t)	c #2A2A24",
"u)	c #383A2B",
"v)	c #313329",
"w)	c #2E2F29",
"x)	c #2D2D27",
"y)	c #2C2D21",
"z)	c #2C2D27",
"A)	c #31312B",
"B)	c #2C2C25",
"C)	c #282721",
"D)	c #2E2F24",
"E)	c #36382D",
"F)	c #30302D",
"G)	c #363730",
"H)	c #343528",
"I)	c #454539",
"J)	c #2D2E26",
"K)	c #282723",
"L)	c #2F312A",
"M)	c #35352E",
"N)	c #35342E",
"O)	c #414136",
"P)	c #3C3D32",
"Q)	c #4B4D44",
"R)	c #4E513D",
"S)	c #3E4130",
"T)	c #4A4A40",
"U)	c #4E4F46",
"V)	c #4E4F45",
"W)	c #45453A",
"X)	c #424538",
"Y)	c #4B4C42",
"Z)	c #5D5F51",
"`)	c #595C4F",
" !	c #4E5047",
".!	c #585950",
"+!	c #484B3B",
"@!	c #4B4C43",
"#!	c #414337",
"$!	c #52544A",
"%!	c #51534C",
"&!	c #34372E",
"*!	c #303325",
"=!	c #3D3F36",
"-!	c #42443A",
";!	c #414434",
">!	c #404337",
",!	c #3D412B",
"'!	c #4C5135",
")!	c #4E5041",
"!!	c #4B4B3E",
"~!	c #383731",
"{!	c #343431",
"]!	c #434441",
"^!	c #47493A",
"/!	c #37382C",
"(!	c #3E3F36",
"_!	c #3C3E33",
":!	c #323129",
"<!	c #383734",
"[!	c #383933",
"}!	c #35372B",
"|!	c #3B3B2E",
"1!	c #353530",
"2!	c #464832",
"3!	c #43423B",
"4!	c #44443B",
"5!	c #393830",
"6!	c #2F2F27",
"7!	c #36362E",
"8!	c #3C3D35",
"9!	c #32332B",
"0!	c #313127",
"a!	c #33352A",
"b!	c #32322B",
"c!	c #383A29",
"d!	c #31302D",
"e!	c #43462C",
"f!	c #36352E",
"g!	c #4C4E3C",
"h!	c #44433C",
"i!	c #3F3E37",
"j!	c #323228",
"k!	c #2E2D27",
"l!	c #40423A",
"m!	c #494A44",
"n!	c #2E2E28",
"o!	c #303228",
"p!	c #36362F",
"q!	c #3A3A2C",
"r!	c #373734",
"s!	c #3C3E2B",
"t!	c #45463A",
"u!	c #45463E",
"v!	c #383830",
"w!	c #35352D",
"x!	c #302F2C",
"y!	c #302F2D",
"z!	c #2E2E2A",
"A!	c #30302A",
"B!	c #2C2C28",
"C!	c #363634",
"D!	c #363633",
"E!	c #33322F",
"F!	c #3C3C2E",
"G!	c #404132",
"H!	c #3B3B31",
"I!	c #484742",
"J!	c #3E3F34",
"K!	c #464739",
"L!	c #404234",
"M!	c #3B3E2B",
"N!	c #3E412B",
"O!	c #3B3C29",
"P!	c #3E3F35",
"Q!	c #46483E",
"R!	c #3F4137",
"S!	c #393A30",
"T!	c #313228",
"U!	c #404238",
"V!	c #424536",
"W!	c #2F3029",
"X!	c #37392C",
"Y!	c #444739",
"Z!	c #38392E",
"`!	c #424337",
" ~	c #3F4136",
".~	c #3C3D36",
"+~	c #38392F",
"@~	c #2F3028",
"#~	c #2E3027",
"$~	c #2E2F26",
"%~	c #303027",
"&~	c #333428",
"*~	c #2E2F1F",
"=~	c #313223",
"-~	c #2D2D24",
";~	c #2F2F24",
">~	c #3D3E36",
",~	c #474641",
"'~	c #33342E",
")~	c #383932",
"!~	c #404136",
"~~	c #30312C",
"{~	c #424533",
"]~	c #393C2B",
"^~	c #33342F",
"/~	c #373832",
"(~	c #414138",
"_~	c #47473A",
":~	c #474836",
"<~	c #474737",
"[~	c #515145",
"}~	c #48493D",
"|~	c #50514D",
"1~	c #393831",
"2~	c #323429",
"3~	c #373729",
"4~	c #383836",
"5~	c #3D3D3B",
"6~	c #424139",
"7~	c #2F3125",
"8~	c #393B31",
"9~	c #37372F",
"0~	c #2E2F2A",
"a~	c #383A28",
"b~	c #3C3E27",
"c~	c #3E402F",
"d~	c #3B3B3A",
"e~	c #363729",
"f~	c #363829",
"g~	c #333230",
"h~	c #35362A",
"i~	c #3A3C22",
"j~	c #383920",
"k~	c #353532",
"l~	c #3B3B32",
"m~	c #4E4F4A",
"n~	c #3C3D2C",
"o~	c #383A21",
"p~	c #2A2B22",
"q~	c #373828",
"r~	c #333331",
"s~	c #363734",
"t~	c #3B3A37",
"u~	c #373834",
"v~	c #393836",
"w~	c #3D3F2F",
"x~	c #2C2E24",
"y~	c #343526",
"z~	c #38392D",
"A~	c #353632",
"B~	c #383B27",
"C~	c #35372C",
"D~	c #2E2E2B",
"E~	c #333326",
"F~	c #343531",
"G~	c #353529",
"H~	c #44423E",
"I~	c #3E3F2F",
"J~	c #333420",
"K~	c #35342D",
"L~	c #2A2B21",
"M~	c #2F2D2A",
"N~	c #343529",
"O~	c #333324",
"P~	c #303028",
"Q~	c #302F29",
"R~	c #2F3025",
"S~	c #31302A",
"T~	c #353726",
"U~	c #313224",
"V~	c #2F2F22",
"W~	c #32312A",
"X~	c #36352C",
"Y~	c #33322C",
"Z~	c #313027",
"`~	c #2E2E23",
" {	c #2C2D1E",
".{	c #27271D",
"+{	c #2F2F23",
"@{	c #2B2B27",
"#{	c #343527",
"${	c #363628",
"%{	c #353528",
"&{	c #2D2E24",
"*{	c #28281F",
"={	c #252620",
"-{	c #333228",
";{	c #34361B",
">{	c #292A21",
",{	c #3B3F21",
"'{	c #363822",
"){	c #30302C",
"!{	c #303024",
"~{	c #484740",
"{{	c #414233",
"]{	c #30321F",
"^{	c #333523",
"/{	c #313323",
"({	c #38392C",
"_{	c #434539",
":{	c #3F4035",
"<{	c #36382E",
"[{	c #414238",
"}{	c #48493A",
"|{	c #4F5140",
"1{	c #515442",
"2{	c #474A39",
"3{	c #35352A",
"4{	c #353629",
"5{	c #515444",
"6{	c #4E5040",
"7{	c #4A4D39",
"8{	c #3B3C2E",
"9{	c #3F4034",
"0{	c #2F2F2B",
"a{	c #333423",
"b{	c #2D2D26",
"c{	c #303222",
"d{	c #33332A",
"e{	c #313128",
"f{	c #373726",
"g{	c #36362A",
"h{	c #494843",
"i{	c #2F3127",
"j{	c #3E3F31",
"k{	c #383934",
"l{	c #3B3B39",
"m{	c #3C3C3A",
"n{	c #2B2B25",
"o{	c #2B2B23",
"p{	c #2D2D22",
"q{	c #313322",
"r{	c #373824",
"s{	c #30312A",
"t{	c #383927",
"u{	c #292825",
"v{	c #2C2D24",
"w{	c #363731",
"x{	c #363728",
"y{	c #464733",
"z{	c #3F3F3D",
"A{	c #282822",
"B{	c #282823",
"C{	c #2A2922",
"D{	c #292B1B",
"E{	c #363826",
"F{	c #343530",
"G{	c #2B2C23",
"H{	c #383829",
"I{	c #2D2D2A",
"J{	c #282824",
"K{	c #2F2F26",
"L{	c #4E4F3A",
"M{	c #2C2C26",
"N{	c #2B2D25",
"O{	c #252420",
"P{	c #2F3023",
"Q{	c #2F2F2C",
"R{	c #282921",
"S{	c #24241F",
"T{	c #262520",
"U{	c #32312B",
"V{	c #272723",
"W{	c #42413E",
"X{	c #262521",
"Y{	c #272621",
"Z{	c #2F2D28",
"  . . . . + @ # $ % & * % = - ; > , % ' ) ! ! , , ~ . . . { { ] . . . . ] . . . ] ] ] ! ! * % ^ / ( ( + . { _ _ _ : : : : _ _ ] ",
". { < _ . + , * $ [ = % } | 1 2 3 - 4 5 [ % 6 7 6 4 ) ! + : : _ < < < _ _ 8 ] ! & / 9 0 a b c c d $ * & . _ : : : : : : : _ 8 ] ",
": : e ] e f ^ g 1 - h i j k l m n o 5 p q q r 5 s t r u * . : : < v v : : ] + w , x h y z - q A i h B ' 9 ] : : : : : : : : < v ",
": : . 9 C D [ o k E F l G H G I J K L M t N k l O M N - P # ( . . . / & 0 * ) % Q R S M F T N U V W X h ^ Y ] { { ] : : : _ < ] ",
": + C & Z `  ...+.@.#.$.%.&.*.=.-.;.>.,.'.).!.-.~.{.].^./.(._.:.<.[.}.|.1.2.3.4.5.6.7.1.8.9.0.a.b.c.d.e.f.g.h.i.j.k.l.2 , Y v ] ",
"+ 9 m.^ n.` o.-.p.q.r.s.t.d.u.v.w.x.y.z.A.B.C.D.E.F.G.H.I.J.K.9.L.M.N.O.P.Q.R.S.T.+.U.V.W.X.Y.Z.`.|. +.+++@+#+$+%+&+*+=+C ! f ] ",
"f ( , u -+;+>+,+'+)+!+~+{+]+^+/+(+_+:+<+[+}+|+1+`.2+3+4+5+6+7+8+9+0+0.a+b+c+d+e+f+g+h+i+j+k+l+m+n+o+p+q+r+s+t+u+v+G w+x+c D * + ",
"( ! 4 g y+z+A+B+C+D+E+F+G+H+I+J+K+_.L+M+N+^+1.O+P+Q+I.R+S+T+U+V+W+X+Y+Z+`+ @.@+@@@#@$@!.%@&@*@=@-@;@>@,@'@)@!@~@{@F ]@^@= ! ! + ",
". ~ g /@(@z+_@:@<@[@}@|@1@2@3@4@5@L+6@7@8@9@0@a@/.b@c@d@e@f@g@h@i@j@=.k@l@L+v+m@f@n@o@p@q@r@s@t@u@v@w@j.i.x@y@z@M A@B@C@6 c , ~ ",
". , D@C@E@F@G@H@I@J@K@L@x+M@N@O@P@Q@M@R@S@T@U@V@W@X@Y@Z@`@ #.#+#@###$#%#&#*#=#-#;#>#s+,#'#)#!#~#{#]#^#/#(#_#:#<#[#}#|#x+1#2#d 9 ",
", 3#s 4#5#p@L+6#7#8#9#0#a#b#c#d#e#f#g#h#i#j#k#l#2+m#n#o#p#q#r#s#t#u#v#w#u#x#y#2+z#A#B#C#D#E#F#G#H#I#A+J#n@K#L#M#N#O#P#Q#R#' b ! ",
"S#S#/@S T#U#++7.V#W#X#Y#Z#`# $.$+$@$C+#$$$%$&$*$=$-$;$>$,$A+'$)$!$~${$]$^$/$($_$:$<$[$}$|$1$2$3$4$5$6$7$!.8$9$0$a$b$H c$1#S#d$@ ",
"* = e$4#f$g$h$y@:@i$~@j$k$l$m$n$o$p$q$r$s$t$u$v$u$w$x$+$E#y$z$:@A$B$C$D$q$E$F$G$H$I$J$!.x@x@K$C@L$M$N$O$@+P$Q$R$S$Q#I Q#]@T$D 9 ",
"9 % ]@U$V$W$k.X$Y$Z$`$ %.%+%@%#%$%%%_.,+,+&%a.*%I$=%-%;%&+>%&+{+<@,%H$'%)%!%~%{%Z$]%D+^%J 4#4#/%(%_%:%<%[%m M }%|%9@1%2%T h * . ",
", ' E J 3%4%5%)@6%7%9@0@Q#W$8%9%,@G+0%l$0%7.a%=%b%z$c%d%e%f%g%<.h%i%j%k%l%{@m%n%o%P$T@t p%q%A q%L$r%s%t%u%&#v%G w%x%!.y%]@h 9 . ",
"d z%U$A%u.B%C%D%E%F%G%H%C@4#I%J%K%L%M%N%O%P%Q%R%S%T%U%V%P#y@W%X%m$Y%Z%`% &.&+&@&#&$&%&&&*&=&-&%&;&>&,&'&I#M#)&!&~&{&E%j@4$5 ]&~ ",
"u C@g.Y$^&/&;@(&_&+%X$Q@.%:&H$<&B$,$[&@&}&L+j@|&1&H$*.a.2&^$3&4&5&6&7&#.8&9&^+k$0&a&b&c&d&e&f&g&@+%%G+h&i&j&~&k&:&%.l&m&n&{@D@# ",
"> N J G )$o&p&q&r& %k.p%U#s&i%t&u&).)@v&z@p&w&'@x&y&l#7&}$B#z&A&B&C&D&~.E&E#[@]%F&G&H&I&J&K&L&6@h&x@q+>%M&N&O&/&P&H+Q&]%W L N ^ ",
"S#s S V R&S&T&U&L x@V&W&l.X&Y&v&]%;.Z&`& *.*+*@*#*$*}$$*$*H$%*&*&&**)$'$=*-*K#Y$;*Z&>*V&1.:@,*j%<@h&'*X+W$l.)*!*{@~*{*,@]*^*/*0 ",
", (*M _*G+g$:*<*[*}*|*1*2*3*4*5*6*7*8*9*0*1%R&Q%^+|$a*b*c*f.d*e*f*g*h*i*X+j*Z k*$#j.U#l*m*n*J$o*s&p*X+u%Q@_#q*u%N r*s*++M t*r $ ",
"b 5 C@G k.u*v*w*x*a y***z*A*B*C*D*E*F*G*H*I*J*K*V L*M*N*O*P*Q*R*S*T*U*^#R*V*W*X*Y*^#Z*`* =,@.=+=@=#=$=%=&=8%*===|#-=;=>=t*3 6 , ",
"c 1 4#q+,='=+$)=!=~={=]=^={+r&/=(==.I+_=:=<=u$[=}=|=1=2=3=d*l&4=5=u.6=7=r.8=9=0=a=b=c=+@i*v&d=e=f=E+<#{#g=h=i=j=k=K$M*l=L N 7 , ",
"* 4 4#H m=j@n=o=p=q=r=s=t=A%u=v=w=:@x=y=z=%.A=)+B=C=N&D=E=F='$G=H=g%)+g%_@I=J=K=L=M=N=O=[.P=Q=H +*F S R=S===T=U=U=V=V=y g$s S#! ",
"! b W=X=V Y=Z=`=2@ -.-+-@-#-$-%-&-*-c*=-o@+%s&H+--e% %;->-<@K&m*$.`$,-&-h$'-)-M&!-~-{-]-^-/@N 1 %#g$M /-(-_-1 :-Q*} <-W=M 6 u 9 ",
"~ 2#[-U >=L*}-M t*U#|-(%k L=1-2-h&3-4-O$j.2$+%$#U 5-I=6-7-8-9-0-U#Q@a-L t $=b-~*c-d-3@e-f-Y*X*R g-h-/*e*I&i-j-k-Q*P l-t*1#b D 9 ",
"m-' s m U=n-o-p-1 W=L S q-$#r-s-0-t-9-u-v-w-j.%#p%x-U#y-E [*z-r*/#A-B-t C-D-E-g.F-G-{@H-I-J-0 | `*k K-9=b&L-M-N-; O-P*P-b & ( 9 ",
"Q-^ [*L R-S-T-U-V-W-H@X-Y-Z-`- ;.;>=+;@;2*#;$;%;&;*;=;Z&y= &-;@;;;>;,;K#b=';K#);a&>&!;r-~;U-{;V%];G%^;/;(;/=_;:;M*<;z*:;% + . + ",
"[;};|;W=1;2;3;~;4;5;6;1=7;Z=~*8;9;C=0;a;4@)%b;r+c;d;e;)@'*f;&-_*h&g;h;).i;Y$X=G t%L n r*U&j;k;I=M&9-(%l;m;a%n;o;p;q;r;x-f : : : ",
"s;. t;u;v;w;x;y;z;6&)@A;B;C;k J a-J D;E;5-+%F;G;H;I;J;K;L;M;#;|-5#N;%;v+O;K L P;4$b&V h$)-Q;c=R;U$T=1 S;T;;+#-U;L=|-V;C@@ 9 : { ",
"s;W;X;Y;Z;`; >.>+>k.'-%%T%L*P=A@b&W$@>V J #>L=$>m$M %>]#U&I H w-&>q-*>4$A b M =>U l O 4#| ->9=}*;>>>; } ,>V&.='-O*q q - , D + { ",
"s;W;'>)>!>~>{>]>^>S%:*R&/>(>_>L$:><>3$9-G-M*M=[>}>D;!-m |>X=V=1>2>}*Z*n&U 3>h$T O;o 1#2 4>v*5>6>7>8>w 2#9>T@0>a>R | 4 4 r % 4>{ ",
"b>c>d>e>f>g>h>i>j>k>l>m>n>o>p>v*q>r>s>t>u>v>w>x>y>z>A>l>/*B>i>C>D>E>n>F>G>H>I>B>J>s>K>L>M>N>O>(>P>Q>R>S>T>U>D>V>W>X>Y>Z>6 > 9 ] ",
"`> ,.,+,@,#,$,%,&,*,-&d&=,-,;,i$]+>,,,',),!,a%~,M.{,],^,/,(,_,:,g&<,[,},K=|,7=1,2,'@3,4,5,6,7,#.8,9,'@*#0,a,8*b,c,d,*;e,> % m.. ",
"f,g,h,# i,j,k,l,o*]%m,.-l.n,H o,h&h%p,J$G=q,I=r,s&s,-*-*t,8-u,l*t>#;u@i*h%l V>e$m P v,m,,+w,4%g$w-l.x,y,z,A,B,C,D,E,F,G,A S#( . ",
". H,& P I>I,n;J,K,g%L,9-/*x+y,T@M,N,P#5#.-I@O,P,.-3-v-Q,j%f.R,l;S,g$&-*-v&E;t p k=T,z*U,|-/%q-C,C,q-Z*q>Y*]-V,W,k X,Y,Z,> ^ / . ",
". 4>' B-C,x,----`,Q, 'U=O*C@.'I>+'P=/%q-+':;+'B-W=B-j;@'r*N;x+/%#'@'B@k=m J #>l>B-r R*$'%'Z*P &'*'Y*='| k>-';'l>:-W&L;>'D 9 9 Y ",
"( % h U e$,'4%'')'C%!'M P P ~'{']'^'/'('_':'o R <'`*z*['}'|'D-j;1'Q;l;P*P-6>b 6>B 2'%=3'4'v*5'6'7'Q D>8'9'0'a'3'b'^#@'c'9 9 ! . ",
"@ ^ R G !*.;d'e'f'M%g'h'i'j')*k'&>l'm'n'o'p'#'q'r's't'u'm>N,t>v'5*w'x'@#_'Z*y'z'A'B'C'U%D'E'b'F'G'H'$'I'J'Y-K'L'M'N'O'P'! ! ( . ",
"Q'S#n J X=G-R'S'T'<.U'p*V'W'w%_%{@w%X'U$w-C@C@&#y,v>_;Y'M*Z'`'L p O*>':>k= )<#.)+)@)#)$)3*T#s } %)&)p&*)=)-);)>)a>1 3$3%( ( . . ",
"f % [*g$&#,)m j y U$.-`,5-N;q,')1 e$y v>A 1#X,C@/*))Z*!)=-l.k p%~)v>U$(%{)])y'J-^)<#&-f.p%x,C,/)()_):)')n-<)[)})j C@y :>m.$ ~ . ",
". m.D@C@g$; |)w>}-}*+=x,g$G>&>1)Z*/@6>z ^#/*Y'@'v>['`*A>(%O*2)3)4)5)R 1 ; O*6)7)p%M,8)o%l*T#M 9)@#0)a)b)S#| - s z-5 t*4%' * * . ",
": . > A j 9'S#' H>*>z*c)d)R [ e)f)|)P-| x+_#U&/*P-g)h)i)j)W=k)4 6 T,l)m)B O-n)G@q-#=+'>'P=o)>)p)P-k>-=]&q)x m)R q%t*[.r)g % . . ",
": : * 2#- s)< x s)t)u)v)w)0 x)y)z)w)0 0 D W*A)w)B)C)D)E); 3#F)T,m); G)V>w x H)I)L$q-P=_#>)Z*|'P-| J)_)K)J)L)6'M)N)6>e-q%- u ( };",
": : ~ - M*O)P)q,@;Q)R)S)-;@%T)J&p*U)V)X%W)X);=($Z%#;J&Y)Z)`) !E+.!+!6-@!+;#!$!%!0@w-S;&!*!=!n=I)P-f--!6);!>!,!'!)!K#!!t+~!4 9 9 ",
": f S#S Q*{!V>P V=]!^!/!7)Q$(!:>I l l 8)k.v>r>_!-'_':!V>j k=L <!- 6)|>K-[!B>C,e${-k=P-b)}!p'l-|!P |)1!|'1!| C'2!3!4!l;#;P*> D ! ",
". % R m 5!6!V>%'X,i E@7!/*_>d']*H+9-W$)@j.l.8!9!0!a!:-i>= b!c!i)d![#*'&'|'~'T,| e!P)/!_)I*R=r>f!P 2)m)6 O*6>$'g!h!i!>#p@A@R#= / ",
", 2 U=X=J=j!k!f-_#}-@'F@f-_#l!q+K$m!{@X=G>+'@>i)[ [ w)D i>n!i>j!8>o!p!b!9'; 1!b)W*P-D@A)-=q!r!Q=m)} } 6>[-p s!t!%'a)u!+*T s q & ",
"% a>H#'*4#Q x % 9'3#v!w!g 6 P*p%p%S (%O*a>Y'q%E>Q x!y![ ('s)0 w)z!0)V>A!A)^ ]&B!x*z!S#p>p>/@C!D!3#' E!/@U=Q@F!G!_>H!Q@N,I!N r * ",
"S#p '*o*J#q,W)J!_!K!}%L!G@@'l.='M!N!O!U-P!z*Q!R!@>=!S!T!]'S!r%U!v!V!n)W!>)@>z*X!Y!Z!`!L!W@ ~.~>)+~@~#~$~%~&~*~=~-~;~%~3*_*S O*0 ",
"d W=9-7$h%^=X$C%G U=>~8!T@,~U _!|@t j j A*h%.-K-'~)~!~Y>n,B-Q*G)o)r>~~/@|)9'l'{~]~M*n N;a>l>^~B-k /~;&(~_~:~<~[~r=I&w@}~9-O h % ",
"& 6 l |~#>n,Q*Q*b'/@0'|'s 1~/@2~3~/)4~+=X,,'V=5~[-/~6~7~Q*8~~'D>Z*9~a # 0~A!a~q'b~c~d~<-b 2#D@1 ; e~f~g~h~i~j~{'k~P v!l~m~U [-% ",
"~ r L I=:>q n~o~o~^~='r>q>w!9!p~q~r~s~t~1 u~v~w~B>E!C-x~t {-~!1!1!/@A)};D & y~V>Z!z~G)b d!T,Q=H>A~B~C~D~A)E~j!F~4 G~e~p!`,H~Q=) ",
": ' X=|-p 2)I~K;J~]'C>~'i)K~j>L~w M~x S#[ N~O~E>P~Q~D@R~T#l;g q)z!B>A!Q>/ * S~D)Q*D@S#; x S#| | 1!T~U~]&n!V~^ z>S~W~X~P*q;U r % ",
": ) ' o t /#Y~Z~`~ {.{C>g N)X*+{@{* # * f Q~#{P~${j!% %{)-x+A!&{*{={-{;{>{x*h~,{'{b!* b % T,){z!b)9'!{^ a a S## x P /*L E;c$P*% ",
": 4>b i ~{J!%=;;I~{{]{Z!^{/{({8%{#r=_{@*:{N~<{1>4![{{#}{|{1{2{n>C-3{4{{-6*E%5{6{$&7{=; -8{[{^;^;:)l'E%t!9{!~Q*P l-t*l~m~U [-Q=* ",
": : 0 P 0{]&z!a{b{2 c{d{o~e{f{g{; N,h{U=|)i{2#Q=l-R y T'.'I>l-W*~ s)b!m)V>Q*U=/#Z*_#1 u~j{(%+=x,I>k{}-l{m{5~; O-P*9{!~Q*P Q=q ]&",
": : $ ) 8>n{f o{p{) q{r{6'b)X*X~- p V;p /@`@s{[ '~| <*q /!t{~#+~u{v{Y>D>1!P*P-f-I>v>w{Q=x{y{O,V;X p z{@>:{K-M*<;z*p;q;L=|-r - 4>",
": : 0 D Y q)A{B{C{g D{E{; F{6>q R L*X=S j 1>7'G{x)= | Q p!H{I{P~J{< K{C>6 A)P q>g | {'5!c=M X'U (%l ]!2@L{+*p;q;r;L=|-O*q : , . ",
": : : Y M{q)N{_ O{f-P{A)6 O-- j M g${@V;C,r>s{A!A)[ 8'Q T,0{Q{R{J{A{M{. ^ ^ ^ b 1!b 7!8!*#Z'Y=M +=X=4$b&}{:)L=|-V;O*q O*q { ~ : ",
": : : : A{J{S{S{T{U{6'q A T$C,X c$g$O;m k .~2#Q=1!| ' [ # x 0~6'] V{q)h S q . ^ % ){1 O;4%{@y i e$W{{)<-s z O*q q - , D + { ] { ",
": : : : _ K)X{Y{{ 4 R 1 B-X=n j L*e$4$e$V;#>n j r 6 S#w B!# ! m.( : ( S#h S#h S 5 s U |-u-m p A s g$c$3>g$U R | 4 4 r % 4>{ : : ",
": : _ 8 < < _ : ] ^ 6 z U=:>U x,(%j e$M U a>h 6 4 | b f . : ( m.f : : . m.* ' R - z N O;t%o 1#= * r C,F e$S W>X>Y>Z>6 > 9 ] : : ",
"_ _ _ v ] ] v ] f * # 6 Q P*h q P*6>' P*1 [ % * ! Z{( : : : : + : : : : / * & g S#' 6 t*p b ! 4>4>Y 0 h o t*q 2#! 4>: : : : : : ",
"< 8 8 . . . . . . m.( ^ % * % b u % 9 * & & * ] e _ : : : : : : : : : _ . ! ^ % ~ # * ^ D Q': _ _ _ . ( b b d 0 m.( ] _ : : _ { "};
